;FLAVOR:Marlin
;TIME:1707
;Filament used: 1.1045m
;Layer height: 0.2
;MINX:83.501
;MINY:83.501
;MINZ:0.2
;MAXX:136.499
;MAXY:136.499
;MAXZ:27.2
;Generated with Cura_SteamEngine 4.10.0
M82 ;absolute extrusion mode
; Ender 3 Custom Start G-code
M104 S200
M140 S60
M105
G28 ; Home all axes
G1 Z10.0; Move Z Axis up to prevent from heating up too close to the bed
M204 P500 R1000 T500 ; sets acceleration (P, T) and retract acceleration (R), mm/sec^2
M205 X8.00 Y8.00 Z0.40 E5.00 ; sets the jerk limits, mm/sec
M109 S200
M190 S60

G92 E0 ; Reset Extruder
G1 Z2.0 F3000 ; Move Z Axis up little to prevent scratching of Heat Bed
G1 X0.1 Y20 Z0.3 F5000.0 ; Move to start position
G1 X0.1 Y200.0 Z0.3 F1500.0 E15 ; Draw the first line
G1 X0.4 Y200.0 Z0.3 F5000.0 ; Move to side a little
G1 X0.4 Y20 Z0.3 F1500.0 E30 ; Draw the second line
G92 E0 ; Reset Extruder
G1 Z2.0 F3000 ; Move Z Axis up little to prevent scratching of Heat Bed
G1 X5 Y20 Z0.3 F5000.0 ; Move over to prevent blob squish
G92 E0
G92 E0
G1 F1500 E-6.5
;LAYER_COUNT:136
;LAYER:0
M107
G0 F6000 X86.708 Y87.052 Z0.2
;TYPE:SKIRT
G1 F1500 E0
G1 F900 X87.4 Y86.388 E0.04785
G1 X88.145 Y85.784 E0.0957
G1 X88.937 Y85.244 E0.14352
G1 X89.772 Y84.772 E0.19137
G1 X90.643 Y84.371 E0.23921
G1 X91.545 Y84.045 E0.28706
G1 X92.47 Y83.794 E0.33488
G1 X93.414 Y83.621 E0.38276
G1 X94.688 Y83.515 E0.44654
G1 X95.009 Y83.506 E0.46256
G1 X95.331 Y83.501 E0.47863
G1 X124.292 Y83.501 E1.9235
G1 X125.155 Y83.512 E1.96655
G1 X126.112 Y83.566 E2.01438
G1 X127.062 Y83.699 E2.06223
G1 X127.997 Y83.911 E2.11007
G1 X128.911 Y84.2 E2.15789
G1 X129.798 Y84.565 E2.20574
G1 X130.652 Y85.001 E2.25358
G1 X131.466 Y85.508 E2.30142
G1 X132.236 Y86.081 E2.34931
G1 X132.954 Y86.715 E2.3971
G1 X133.618 Y87.408 E2.44498
G1 X134.221 Y88.153 E2.4928
G1 X134.761 Y88.946 E2.54066
G1 X135.232 Y89.781 E2.58849
G1 X135.632 Y90.653 E2.63635
G1 X135.958 Y91.554 E2.68416
G1 X136.208 Y92.48 E2.73201
G1 X136.38 Y93.424 E2.77988
G1 X136.485 Y94.688 E2.84316
G1 X136.494 Y95.008 E2.85913
G1 X136.499 Y95.331 E2.87525
G1 X136.498 Y124.405 E4.32575
G1 X136.489 Y125.132 E4.36203
G1 X136.437 Y126.09 E4.40989
G1 X136.306 Y127.04 E4.45774
G1 X136.096 Y127.975 E4.50555
G1 X135.808 Y128.89 E4.5534
G1 X135.446 Y129.778 E4.60125
G1 X135.011 Y130.633 E4.6491
G1 X134.506 Y131.448 E4.69694
G1 X133.934 Y132.218 E4.74479
G1 X133.301 Y132.938 E4.79262
G1 X132.61 Y133.603 E4.84047
G1 X131.866 Y134.208 E4.88831
G1 X131.074 Y134.749 E4.93616
G1 X130.24 Y135.222 E4.984
G1 X129.369 Y135.624 E5.03186
G1 X128.468 Y135.951 E5.07968
G1 X127.543 Y136.203 E5.12751
G1 X126.599 Y136.377 E5.1754
G1 X125.312 Y136.485 E5.23983
G1 X124.991 Y136.494 E5.25585
G1 X124.669 Y136.499 E5.27192
G1 X95.56 Y136.498 E6.72417
G1 X94.862 Y136.489 E6.759
G1 X93.904 Y136.437 E6.80686
G1 X92.954 Y136.305 E6.85471
G1 X92.019 Y136.094 E6.90253
G1 X91.104 Y135.806 E6.95039
G1 X90.216 Y135.443 E6.99825
G1 X89.362 Y135.008 E7.04607
G1 X88.547 Y134.502 E7.09393
G1 X87.777 Y133.931 E7.14175
G1 X87.057 Y133.297 E7.18962
G1 X86.393 Y132.606 E7.23743
G1 X85.788 Y131.861 E7.28531
G1 X85.248 Y131.069 E7.33313
G1 X84.776 Y130.235 E7.38094
G1 X84.374 Y129.364 E7.4288
G1 X84.047 Y128.462 E7.47667
G1 X83.796 Y127.537 E7.52448
G1 X83.622 Y126.594 E7.57232
G1 X83.514 Y125.301 E7.63706
G1 X83.505 Y124.968 E7.65368
G1 X83.501 Y124.657 E7.66919
G1 X83.502 Y95.519 E9.12289
G1 X83.511 Y94.854 E9.15607
G1 X83.564 Y93.897 E9.20389
G1 X83.697 Y92.947 E9.25175
G1 X83.908 Y92.012 E9.29957
G1 X84.196 Y91.097 E9.34743
G1 X84.56 Y90.21 E9.39526
G1 X84.996 Y89.356 E9.4431
G1 X85.502 Y88.541 E9.49096
G1 X86.074 Y87.771 E9.53881
G1 X86.708 Y87.052 E9.58664
G0 F6000 X87.297 Y87.308
G1 F900 X87.984 Y86.677 E9.63318
G1 X88.723 Y86.106 E9.67977
G1 X89.508 Y85.601 E9.72634
G1 X90.333 Y85.164 E9.77291
G1 X91.193 Y84.8 E9.8195
G1 X92.081 Y84.511 E9.86609
G1 X92.99 Y84.299 E9.91266
G1 X93.914 Y84.165 E9.95924
G1 X94.705 Y84.114 E9.99879
G1 X95.026 Y84.105 E10.01481
G1 X95.331 Y84.101 E10.03003
G1 X124.292 Y84.101 E11.4749
G1 X125.146 Y84.112 E11.51751
G1 X126.078 Y84.165 E11.56408
G1 X127.002 Y84.298 E11.61065
G1 X127.912 Y84.51 E11.65727
G1 X128.8 Y84.798 E11.70384
G1 X129.659 Y85.162 E11.75039
G1 X130.485 Y85.598 E11.79699
G1 X131.271 Y86.102 E11.84357
G1 X132.01 Y86.672 E11.89013
G1 X132.698 Y87.304 E11.93674
G1 X133.329 Y87.992 E11.98331
G1 X133.899 Y88.731 E12.02987
G1 X134.404 Y89.516 E12.07644
G1 X134.839 Y90.342 E12.12302
G1 X135.203 Y91.202 E12.16961
G1 X135.491 Y92.09 E12.21618
G1 X135.703 Y92.999 E12.26275
G1 X135.836 Y93.923 E12.30932
G1 X135.886 Y94.705 E12.34842
G1 X135.895 Y95.025 E12.36439
G1 X135.899 Y95.331 E12.37966
G1 X135.898 Y124.398 E13.82981
G1 X135.889 Y125.125 E13.86609
G1 X135.838 Y126.057 E13.91265
G1 X135.707 Y126.981 E13.95921
G1 X135.497 Y127.891 E14.00581
G1 X135.21 Y128.78 E14.05241
G1 X134.848 Y129.64 E14.09897
G1 X134.414 Y130.467 E14.14556
G1 X133.911 Y131.253 E14.19212
G1 X133.342 Y131.994 E14.23873
G1 X132.712 Y132.683 E14.2853
G1 X132.026 Y133.315 E14.33184
G1 X131.287 Y133.887 E14.37846
G1 X130.503 Y134.393 E14.42502
G1 X129.678 Y134.83 E14.47159
G1 X128.819 Y135.195 E14.51816
G1 X127.932 Y135.486 E14.56473
G1 X127.023 Y135.699 E14.61131
G1 X126.099 Y135.833 E14.65789
G1 X125.295 Y135.886 E14.69809
G1 X124.974 Y135.895 E14.71411
G1 X124.669 Y135.899 E14.72933
G1 X95.567 Y135.898 E16.18123
G1 X94.869 Y135.889 E16.21606
G1 X93.937 Y135.837 E16.26263
G1 X93.013 Y135.706 E16.30919
G1 X92.103 Y135.495 E16.35579
G1 X91.215 Y135.208 E16.40235
G1 X90.355 Y134.846 E16.4489
G1 X89.528 Y134.411 E16.49552
G1 X88.742 Y133.908 E16.54208
G1 X88.002 Y133.339 E16.58865
G1 X87.313 Y132.708 E16.63526
G1 X86.681 Y132.021 E16.68183
G1 X86.11 Y131.283 E16.72838
G1 X85.604 Y130.498 E16.77498
G1 X85.167 Y129.673 E16.82156
G1 X84.803 Y128.814 E16.8681
G1 X84.513 Y127.926 E16.91471
G1 X84.3 Y127.017 E16.96128
G1 X84.166 Y126.093 E17.00787
G1 X84.114 Y125.284 E17.04831
G1 X84.105 Y124.951 E17.06493
G1 X84.101 Y124.657 E17.0796
G1 X84.102 Y95.527 E18.5329
G1 X84.111 Y94.862 E18.56608
G1 X84.164 Y93.93 E18.61265
G1 X84.296 Y93.006 E18.65922
G1 X84.507 Y92.097 E18.70578
G1 X84.794 Y91.209 E18.75233
G1 X85.157 Y90.348 E18.79895
G1 X85.592 Y89.522 E18.84553
G1 X86.096 Y88.737 E18.89207
G1 X86.666 Y87.997 E18.93867
G1 X87.297 Y87.308 E18.98528
G0 F6000 X87.884 Y87.573
G1 F900 X88.566 Y86.974 E19.03057
G1 X89.299 Y86.438 E19.07587
G1 X90.075 Y85.969 E19.12111
G1 X90.89 Y85.57 E19.16638
G1 X91.737 Y85.244 E19.21166
G1 X92.61 Y84.994 E19.25696
G1 X93.501 Y84.821 E19.30224
G1 X94.721 Y84.714 E19.36334
G1 X95.042 Y84.705 E19.37936
G1 X95.331 Y84.701 E19.39378
G1 X124.292 Y84.701 E20.83865
G1 X125.138 Y84.712 E20.88086
G1 X126.044 Y84.765 E20.92614
G1 X126.941 Y84.898 E20.97138
G1 X127.824 Y85.109 E21.01668
G1 X128.685 Y85.396 E21.06196
G1 X129.517 Y85.759 E21.10724
G1 X130.313 Y86.193 E21.15247
G1 X131.069 Y86.696 E21.19778
G1 X131.777 Y87.264 E21.24306
G1 X132.433 Y87.891 E21.28833
G1 X133.031 Y88.574 E21.33362
G1 X133.566 Y89.307 E21.3789
G1 X134.035 Y90.084 E21.42418
G1 X134.434 Y90.899 E21.46945
G1 X134.759 Y91.746 E21.51471
G1 X135.008 Y92.619 E21.56
G1 X135.18 Y93.51 E21.60527
G1 X135.286 Y94.721 E21.66592
G1 X135.295 Y95.041 E21.68189
G1 X135.299 Y95.331 E21.69636
G1 X135.298 Y124.391 E23.14617
G1 X135.289 Y125.118 E23.18245
G1 X135.238 Y126.024 E23.22772
G1 X135.107 Y126.922 E23.27299
G1 X134.898 Y127.805 E23.31826
G1 X134.612 Y128.666 E23.36353
G1 X134.251 Y129.499 E23.40882
G1 X133.818 Y130.296 E23.45407
G1 X133.317 Y131.053 E23.49936
G1 X132.751 Y131.762 E23.54462
G1 X132.124 Y132.419 E23.58993
G1 X131.443 Y133.018 E23.63518
G1 X130.711 Y133.555 E23.68047
G1 X129.935 Y134.025 E23.72573
G1 X129.12 Y134.426 E23.77105
G1 X128.274 Y134.752 E23.81628
G1 X127.402 Y135.004 E23.86157
G1 X126.511 Y135.177 E23.90685
G1 X125.279 Y135.286 E23.96855
G1 X124.958 Y135.295 E23.98457
G1 X124.669 Y135.299 E23.99899
G1 X95.575 Y135.298 E25.4505
G1 X94.877 Y135.289 E25.48533
G1 X93.971 Y135.237 E25.5306
G1 X93.073 Y135.106 E25.57588
G1 X92.19 Y134.897 E25.62115
G1 X91.329 Y134.61 E25.66643
G1 X90.497 Y134.248 E25.71169
G1 X89.699 Y133.815 E25.75699
G1 X88.943 Y133.314 E25.80224
G1 X88.234 Y132.747 E25.84753
G1 X87.577 Y132.121 E25.8928
G1 X86.979 Y131.439 E25.93806
G1 X86.442 Y130.707 E25.98335
G1 X85.972 Y129.93 E26.02865
G1 X85.572 Y129.116 E26.0739
G1 X85.246 Y128.269 E26.11918
G1 X84.995 Y127.397 E26.16445
G1 X84.822 Y126.506 E26.20973
G1 X84.714 Y125.268 E26.27173
G1 X84.705 Y124.935 E26.28835
G1 X84.701 Y124.657 E26.30222
G1 X84.702 Y95.536 E27.75508
G1 X84.711 Y94.871 E27.78826
G1 X84.763 Y93.965 E27.83353
G1 X84.895 Y93.067 E27.87881
G1 X85.105 Y92.184 E27.92409
G1 X85.393 Y91.323 E27.96939
G1 X85.754 Y90.491 E28.01464
G1 X86.188 Y89.694 E28.05991
G1 X86.69 Y88.938 E28.10519
G1 X87.257 Y88.229 E28.15048
G1 X87.884 Y87.573 E28.19575
G1 F1500 E21.69575
;MESH:cube (1).stl
G0 F6000 X95.471 Y94.336
G0 X95.471 Y95.471
G0 X95.583 Y124.417
G0 X124.449 Y124.479
G0 X124.699 Y124.699
;TYPE:WALL-OUTER
G1 F1500 E28.19575
G1 F900 X95.301 Y124.699 E29.66243
G1 X95.301 Y95.301 E31.1291
G1 X124.699 Y95.301 E32.59577
G1 X124.699 Y124.699 E34.06244
G0 F6000 X124.109 Y124.109
;TYPE:SKIN
G1 F900 X95.891 Y124.109 E35.47024
G1 X95.891 Y95.891 E36.87805
G1 X124.109 Y95.891 E38.28585
G1 X124.109 Y124.109 E39.69365
G0 F6000 X124.489 Y124.109
G0 X124.489 Y96.715
G0 X123.868 Y96.715
G1 F900 X123.284 Y96.131 E39.73485
G0 F6000 X122.435 Y96.131
G1 F900 X123.868 Y97.564 E39.83596
G0 F6000 X123.868 Y98.413
G1 F900 X121.587 Y96.131 E39.99693
G0 F6000 X120.738 Y96.131
G1 F900 X123.868 Y99.261 E40.21777
G0 F6000 X123.868 Y100.11
G1 F900 X119.889 Y96.131 E40.49851
G0 F6000 X119.041 Y96.131
G1 F900 X123.868 Y100.958 E40.83908
G0 F6000 X123.868 Y101.807
G1 F900 X118.192 Y96.131 E41.23955
G0 F6000 X117.344 Y96.131
G1 F900 X123.868 Y102.655 E41.69986
G0 F6000 X123.868 Y103.504
G1 F900 X116.495 Y96.131 E42.22006
G0 F6000 X115.647 Y96.131
G1 F900 X123.868 Y104.352 E42.8001
G0 F6000 X123.868 Y105.201
G1 F900 X114.798 Y96.131 E43.44003
G0 F6000 X113.95 Y96.131
G1 F900 X123.868 Y106.049 E44.1398
G0 F6000 X123.868 Y106.898
G1 F900 X113.101 Y96.131 E44.89947
G0 F6000 X112.253 Y96.131
G1 F900 X123.868 Y107.746 E45.71897
G0 F6000 X123.868 Y108.595
G1 F900 X111.404 Y96.131 E46.59838
G0 F6000 X110.556 Y96.131
G1 F900 X123.868 Y109.443 E47.53761
G0 F6000 X123.868 Y110.292
G1 F900 X109.707 Y96.131 E48.53674
G0 F6000 X108.859 Y96.131
G1 F900 X123.868 Y111.14 E49.59571
G0 F6000 X123.868 Y111.989
G1 F900 X108.01 Y96.131 E50.71458
G0 F6000 X107.162 Y96.131
G1 F900 X123.868 Y112.837 E51.89328
G0 F6000 X123.868 Y113.686
G1 F900 X106.313 Y96.131 E53.13188
G0 F6000 X105.464 Y96.131
G1 F900 X123.868 Y114.535 E54.43038
G0 F6000 X123.868 Y115.383
G1 F900 X104.616 Y96.131 E55.78871
G0 F6000 X103.767 Y96.131
G1 F900 X123.868 Y116.232 E57.20695
G0 F6000 X123.868 Y117.08
G1 F900 X102.919 Y96.131 E58.68501
G0 F6000 X102.07 Y96.131
G1 F900 X123.868 Y117.929 E60.22298
G0 F6000 X123.868 Y118.777
G1 F900 X101.222 Y96.131 E61.82077
G0 F6000 X100.373 Y96.131
G1 F900 X123.868 Y119.626 E63.47847
G0 F6000 X123.868 Y120.474
G1 F900 X99.525 Y96.131 E65.196
G0 F6000 X98.676 Y96.131
G1 F900 X123.868 Y121.323 E66.97344
G0 F6000 X123.868 Y122.171
G1 F900 X97.828 Y96.131 E68.8107
G0 F6000 X96.979 Y96.131
G1 F900 X123.868 Y123.02 E70.70786
G0 F6000 X123.868 Y123.868
G1 F900 X96.13 Y96.13 E72.66493
G0 F6000 X96.13 Y96.978
G1 F900 X123.019 Y123.868 E74.56213
G0 F6000 X122.171 Y123.868
G1 F900 X96.13 Y97.827 E76.39946
G0 F6000 X96.13 Y98.676
G1 F900 X121.322 Y123.868 E78.17689
G0 F6000 X120.474 Y123.868
G1 F900 X96.13 Y99.524 E79.89449
G0 F6000 X96.13 Y100.373
G1 F900 X119.625 Y123.868 E81.55219
G0 F6000 X118.776 Y123.868
G1 F900 X96.13 Y101.221 E83.15003
G0 F6000 X96.13 Y102.07
G1 F900 X117.928 Y123.868 E84.68799
G0 F6000 X117.079 Y123.868
G1 F900 X96.13 Y102.918 E86.16609
G0 F6000 X96.13 Y103.767
G1 F900 X116.231 Y123.868 E87.58433
G0 F6000 X115.382 Y123.868
G1 F900 X96.13 Y104.615 E88.94269
G0 F6000 X96.13 Y105.464
G1 F900 X114.534 Y123.868 E90.2412
G0 F6000 X113.685 Y123.868
G1 F900 X96.13 Y106.312 E91.47983
G0 F6000 X96.13 Y107.161
G1 F900 X112.837 Y123.868 E92.6586
G0 F6000 X111.988 Y123.868
G1 F900 X96.13 Y108.009 E93.7775
G0 F6000 X96.13 Y108.858
G1 F900 X111.14 Y123.868 E94.83654
G0 F6000 X110.291 Y123.868
G1 F900 X96.13 Y109.706 E95.83571
G0 F6000 X96.13 Y110.555
G1 F900 X109.443 Y123.868 E96.77501
G0 F6000 X108.594 Y123.868
G1 F900 X96.13 Y111.403 E97.65445
G0 F6000 X96.13 Y112.252
G1 F900 X107.746 Y123.868 E98.47402
G0 F6000 X106.897 Y123.868
G1 F900 X96.13 Y113.101 E99.23369
G0 F6000 X96.13 Y113.949
G1 F900 X106.049 Y123.868 E99.93353
G0 F6000 X105.2 Y123.868
G1 F900 X96.13 Y114.798 E100.57347
G0 F6000 X96.13 Y115.646
G1 F900 X104.351 Y123.868 E101.15354
G0 F6000 X103.503 Y123.868
G1 F900 X96.13 Y116.495 E101.67375
G0 F6000 X96.13 Y117.343
G1 F900 X102.654 Y123.868 E102.13408
G0 F6000 X101.806 Y123.868
G1 F900 X96.13 Y118.192 E102.53456
G0 F6000 X96.13 Y119.04
G1 F900 X100.957 Y123.868 E102.87516
G0 F6000 X100.109 Y123.868
G1 F900 X96.13 Y119.889 E103.1559
G0 F6000 X96.13 Y120.737
G1 F900 X99.26 Y123.868 E103.37678
G0 F6000 X98.412 Y123.868
G1 F900 X96.13 Y121.586 E103.53778
G0 F6000 X96.13 Y122.434
G1 F900 X97.563 Y123.868 E103.63893
G0 F6000 X96.715 Y123.868
M104 S200
G1 F900 X96.13 Y123.283 E103.6802
G1 F1500 E97.1802
;MESH:NONMESH
G0 F300 X96.13 Y123.283 Z0.4
G0 F6000 X95.511 Y123.283
G0 X95.583 Y124.417
G0 X124.479 Y124.479
G0 X124.699 Y124.699
;TIME_ELAPSED:151.615052
;LAYER:1
M106 S85
;TYPE:WALL-OUTER
;MESH:cube (1).stl
G1 F1500 E103.6802
G1 F1200 X95.301 Y124.699 E105.14687
G1 X95.301 Y95.301 E106.61355
G1 X124.699 Y95.301 E108.08022
G1 X124.699 Y124.699 E109.54689
G0 F7500 X124.109 Y124.109
;TYPE:SKIN
G1 F1200 X95.891 Y124.109 E110.95469
G1 X95.891 Y95.891 E112.36249
G1 X124.109 Y95.891 E113.77029
G1 X124.109 Y124.109 E115.1781
G0 F7500 X124.489 Y124.109
G0 X124.489 Y123.053
G0 X123.868 Y123.053
G1 F1200 X123.052 Y123.868 E115.23563
G0 F7500 X122.204 Y123.868
G1 F1200 X123.868 Y122.205 E115.353
G0 F7500 X123.868 Y121.356
G1 F1200 X121.355 Y123.868 E115.53027
G0 F7500 X120.507 Y123.868
G1 F1200 X123.868 Y120.507 E115.76741
G0 F7500 X123.868 Y119.659
G1 F1200 X119.658 Y123.868 E116.06441
G0 F7500 X118.81 Y123.868
G1 F1200 X123.868 Y118.81 E116.42128
G0 F7500 X123.868 Y117.962
G1 F1200 X117.961 Y123.868 E116.83802
G0 F7500 X117.113 Y123.868
G1 F1200 X123.868 Y117.113 E117.31462
G0 F7500 X123.868 Y116.265
G1 F1200 X116.264 Y123.868 E117.85109
G0 F7500 X115.416 Y123.868
G1 F1200 X123.868 Y115.416 E118.44742
G0 F7500 X123.868 Y114.568
G1 F1200 X114.567 Y123.868 E119.10362
G0 F7500 X113.719 Y123.868
G1 F1200 X123.868 Y113.719 E119.81969
G0 F7500 X123.868 Y112.871
G1 F1200 X112.87 Y123.868 E120.59562
G0 F7500 X112.021 Y123.868
G1 F1200 X123.868 Y112.022 E121.43146
G0 F7500 X123.868 Y111.174
G1 F1200 X111.173 Y123.868 E122.32712
G0 F7500 X110.324 Y123.868
G1 F1200 X123.868 Y110.325 E123.28269
G0 F7500 X123.868 Y109.477
G1 F1200 X109.476 Y123.868 E124.29809
G0 F7500 X108.627 Y123.868
G1 F1200 X123.868 Y108.628 E125.37339
G0 F7500 X123.868 Y107.78
G1 F1200 X107.779 Y123.868 E126.50852
G0 F7500 X106.93 Y123.868
G1 F1200 X123.868 Y106.931 E127.70355
G0 F7500 X123.868 Y106.082
G1 F1200 X106.082 Y123.868 E128.95845
G0 F7500 X105.233 Y123.868
G1 F1200 X123.868 Y105.234 E130.27321
G0 F7500 X123.868 Y104.385
G1 F1200 X104.385 Y123.868 E131.64784
G0 F7500 X103.536 Y123.868
G1 F1200 X123.868 Y103.537 E133.08234
G0 F7500 X123.868 Y102.688
G1 F1200 X102.688 Y123.868 E134.5767
G0 F7500 X101.839 Y123.868
G1 F1200 X123.868 Y101.84 E136.13093
G0 F7500 X123.868 Y100.991
G1 F1200 X100.991 Y123.868 E137.74503
G0 F7500 X100.142 Y123.868
G1 F1200 X123.868 Y100.143 E139.41899
G0 F7500 X123.868 Y99.294
G1 F1200 X99.294 Y123.868 E141.15282
G0 F7500 X98.445 Y123.868
G1 F1200 X123.868 Y98.446 E142.94651
G0 F7500 X123.868 Y97.597
G1 F1200 X97.596 Y123.868 E144.80011
G0 F7500 X96.748 Y123.868
G1 F1200 X123.868 Y96.749 E146.71354
G0 F7500 X123.638 Y96.13
G1 F1200 X96.131 Y123.637 E148.65431
