;FLAVOR:Marlin
;TIME:2572
;Filament used: 0.506936m
;Layer height: 0.12
;MINX:94.973
;MINY:85.937
;MINZ:0.12
;MAXX:125.52
;MAXY:123.385
;MAXZ:2.4
;Generated with Cura_SteamEngine 4.8.0
M82 ;absolute extrusion mode
; Ender 3 Custom Start G-code
M104 S210
M140 S60
M105
G28 ; Home all axes
G1 Z10.0; Move Z Axis up to prevent from heating up too close to the bed
M204 P500 R1000 T500 ; sets acceleration (P, T) and retract acceleration (R), mm/sec^2
M205 X8.00 Y8.00 Z0.40 E5.00 ; sets the jerk limits, mm/sec
M109 S210
M190 S60

G92 E0 ; Reset Extruder
G1 Z2.0 F3000 ; Move Z Axis up little to prevent scratching of Heat Bed
G1 X0.1 Y20 Z0.3 F5000.0 ; Move to start position
G1 X0.1 Y200.0 Z0.3 F1500.0 E15 ; Draw the first line
G1 X0.4 Y200.0 Z0.3 F5000.0 ; Move to side a little
G1 X0.4 Y20 Z0.3 F1500.0 E30 ; Draw the second line
G92 E0 ; Reset Extruder
G1 Z2.0 F3000 ; Move Z Axis up little to prevent scratching of Heat Bed
G1 X5 Y20 Z0.3 F5000.0 ; Move over to prevent blob squish
G92 E0
G92 E0
G1 F1500 E-6.5
;LAYER_COUNT:20
;LAYER:0
M107
;MESH:Macko.stl
G0 F6000 X120.726 Y91.388 Z0.12
;TYPE:WALL-INNER
G1 F1500 E0
G1 F1200 X120.669 Y91.391 E0.00057
G1 X120.602 Y91.395 E0.00124
G1 X118.82 Y91.501 E0.01905
G1 X116.45 Y91.609 E0.04272
G1 X114.079 Y91.683 E0.06639
G1 X111.706 Y91.725 E0.09008
G1 X109.704 Y91.731 E0.11005
G1 X109.645 Y91.731 E0.11064
G1 X109.648 Y91.64 E0.11155
G1 X109.653 Y91.582 E0.11201
G1 X109.678 Y91.33 E0.11454
G1 X109.725 Y91.052 E0.11735
G1 X109.789 Y90.779 E0.12015
G1 X109.86 Y90.53 E0.12273
G1 X109.947 Y90.281 E0.12537
G1 X110.059 Y90.021 E0.12819
G1 X110.17 Y89.801 E0.13065
G1 X110.311 Y89.557 E0.13346
G1 X110.448 Y89.353 E0.13591
G1 X110.612 Y89.132 E0.13866
G1 X110.835 Y88.867 E0.14211
G1 X111.007 Y88.694 E0.14455
G1 X111.281 Y88.452 E0.1482
G1 X111.537 Y88.252 E0.15144
G1 X111.805 Y88.072 E0.15466
G1 X112.074 Y87.918 E0.15775
G1 X112.28 Y87.818 E0.16004
G1 X112.644 Y87.681 E0.16392
G1 X112.976 Y87.561 E0.16744
G1 X113.259 Y87.493 E0.17034
G1 X113.614 Y87.429 E0.17394
G1 X113.88 Y87.405 E0.17661
G1 X114.174 Y87.4 E0.17954
G1 X114.565 Y87.399 E0.18344
G1 X114.843 Y87.442 E0.18625
G1 X115.136 Y87.496 E0.18922
G1 X115.456 Y87.564 E0.19249
G1 X115.77 Y87.641 E0.19571
G1 X116.094 Y87.73 E0.19907
G1 X116.419 Y87.832 E0.20247
G1 X116.755 Y87.95 E0.20602
G1 X117.082 Y88.079 E0.20953
G1 X117.408 Y88.224 E0.21309
G1 X117.744 Y88.389 E0.21682
G1 X118.056 Y88.563 E0.22039
G1 X118.362 Y88.753 E0.22398
G1 X118.667 Y88.967 E0.2277
G1 X118.952 Y89.191 E0.23131
G1 X119.238 Y89.445 E0.23513
G1 X119.488 Y89.698 E0.23868
G1 X119.722 Y89.961 E0.24219
G1 X119.936 Y90.219 E0.24554
G1 X120.141 Y90.486 E0.2489
G1 X120.327 Y90.746 E0.25209
G1 X120.498 Y91.005 E0.25518
G1 X120.627 Y91.216 E0.25765
G1 X120.662 Y91.274 E0.25821
G1 X120.726 Y91.388 E0.25893
G0 F6000 X121.051 Y91.569
;TYPE:WALL-OUTER
G1 F1200 X118.832 Y91.701 E0.28111
G1 X116.459 Y91.809 E0.30481
G1 X114.085 Y91.883 E0.32851
G1 X111.71 Y91.925 E0.35221
G1 X109.437 Y91.932 E0.37489
G1 X109.448 Y91.633 E0.37788
G1 X109.479 Y91.311 E0.38111
G1 X109.53 Y91.006 E0.38419
G1 X109.595 Y90.733 E0.38699
G1 X109.671 Y90.464 E0.38978
G1 X109.763 Y90.202 E0.39255
G1 X109.875 Y89.942 E0.39538
G1 X109.997 Y89.701 E0.39807
G1 X110.138 Y89.457 E0.40089
G1 X110.287 Y89.234 E0.40356
G1 X110.451 Y89.013 E0.40631
G1 X110.687 Y88.732 E0.40997
G1 X110.865 Y88.553 E0.41249
G1 X111.158 Y88.294 E0.41639
G1 X111.42 Y88.09 E0.4197
G1 X111.693 Y87.906 E0.42299
G1 X111.982 Y87.74 E0.42631
G1 X112.199 Y87.635 E0.42872
G1 X112.576 Y87.493 E0.43274
G1 X112.916 Y87.37 E0.43635
G1 X113.223 Y87.296 E0.4395
G1 X113.582 Y87.231 E0.44314
G1 X113.872 Y87.205 E0.44604
G1 X114.171 Y87.2 E0.44903
G1 X114.583 Y87.199 E0.45314
G1 X114.874 Y87.244 E0.45608
G1 X115.178 Y87.3 E0.45916
G1 X115.498 Y87.369 E0.46243
G1 X115.823 Y87.448 E0.46576
G1 X116.154 Y87.539 E0.46919
G1 X116.486 Y87.643 E0.47266
G1 X116.822 Y87.762 E0.47622
G1 X117.163 Y87.896 E0.47987
G1 X117.496 Y88.044 E0.48351
G1 X117.832 Y88.209 E0.48724
G1 X118.153 Y88.388 E0.49091
G1 X118.477 Y88.589 E0.49472
G1 X118.782 Y88.803 E0.49843
G1 X119.085 Y89.041 E0.50228
G1 X119.371 Y89.295 E0.50609
G1 X119.637 Y89.565 E0.50988
G1 X119.876 Y89.833 E0.51346
G1 X120.095 Y90.097 E0.51688
G1 X120.3 Y90.364 E0.52024
G1 X120.494 Y90.636 E0.52357
G1 X120.669 Y90.901 E0.52674
G1 X120.833 Y91.17 E0.52989
G1 X120.983 Y91.437 E0.53294
G1 X121.051 Y91.569 E0.53442
G0 F6000 X120.405 Y91.217
;TYPE:SKIN
G1 F1200 X118.809 Y91.311 E0.55038
G1 X116.441 Y91.419 E0.57403
G1 X114.073 Y91.493 E0.59767
G1 X111.702 Y91.535 E0.62133
G1 X109.849 Y91.541 E0.63982
G1 X109.866 Y91.362 E0.64161
G1 X109.911 Y91.09 E0.64437
G1 X109.972 Y90.831 E0.64702
G1 X110.041 Y90.588 E0.64954
G1 X110.122 Y90.357 E0.65198
G1 X110.234 Y90.097 E0.65481
G1 X110.335 Y89.896 E0.65705
G1 X110.473 Y89.657 E0.65981
G1 X110.6 Y89.467 E0.66209
G1 X110.758 Y89.254 E0.66473
G1 X110.975 Y88.996 E0.6681
G1 X111.138 Y88.832 E0.6704
G1 X111.398 Y88.602 E0.67387
G1 X111.649 Y88.406 E0.67705
G1 X111.905 Y88.234 E0.68012
G1 X112.169 Y88.083 E0.68316
G1 X112.354 Y87.994 E0.68521
G1 X112.71 Y87.86 E0.689
G1 X113.038 Y87.741 E0.69248
G1 X113.296 Y87.679 E0.69513
G1 X113.636 Y87.619 E0.69858
G1 X113.897 Y87.595 E0.70119
G1 X114.178 Y87.59 E0.70399
G1 X114.55 Y87.589 E0.70771
G1 X114.812 Y87.63 E0.71035
G1 X115.076 Y87.678 E0.71303
G1 X115.416 Y87.75 E0.7165
G1 X115.722 Y87.825 E0.71964
G1 X116.04 Y87.912 E0.72293
G1 X116.356 Y88.011 E0.72624
G1 X116.685 Y88.127 E0.72972
G1 X117.012 Y88.256 E0.73322
G1 X117.324 Y88.395 E0.73663
G1 X117.656 Y88.558 E0.74032
G1 X117.959 Y88.726 E0.74378
G1 X118.257 Y88.912 E0.74728
G1 X118.549 Y89.117 E0.75084
G1 X118.834 Y89.341 E0.75446
G1 X119.112 Y89.587 E0.75817
G1 X119.346 Y89.824 E0.76149
G1 X119.578 Y90.085 E0.76497
G1 X119.788 Y90.338 E0.76825
G1 X119.987 Y90.596 E0.7715
G1 X120.169 Y90.851 E0.77463
G1 X120.336 Y91.104 E0.77766
G1 X120.405 Y91.217 E0.77898
G0 F6000 X120.414 Y91.395
G0 X119.88 Y90.262
G0 X119.09 Y89.437
G0 X118.081 Y88.591
G0 X117.944 Y88.811
G1 F1200 X120.246 Y91.113 E0.81146
G0 F6000 X120.009 Y91.159
G1 F1200 X117.345 Y88.495 E0.84905
G0 F6000 X116.841 Y88.274
G1 F1200 X119.742 Y91.175 E0.88999
G0 F6000 X119.475 Y91.191
G1 F1200 X116.394 Y88.109 E0.93347
G0 F6000 X115.979 Y87.978
G1 F1200 X119.208 Y91.206 E0.97903
G0 F6000 X118.941 Y91.222
G1 F1200 X115.595 Y87.877 E1.02624
G0 F6000 X115.227 Y87.792
G1 F1200 X118.672 Y91.236 E1.07484
G0 F6000 X118.401 Y91.248
G1 F1200 X114.875 Y87.722 E1.1246
G0 F6000 X114.539 Y87.669
G1 F1200 X118.131 Y91.261 E1.17529
G0 F6000 X117.86 Y91.273
G1 F1200 X114.257 Y87.669 E1.22614
G0 F6000 X113.978 Y87.674
G1 F1200 X117.59 Y91.286 E1.2771
G0 F6000 X117.319 Y91.298
G1 F1200 X113.714 Y87.692 E1.32798
G0 F6000 X113.468 Y87.729
G1 F1200 X117.049 Y91.31 E1.37851
G0 F6000 X116.778 Y91.322
G1 F1200 X113.232 Y87.776 E1.42855
G0 F6000 X113.009 Y87.836
G1 F1200 X116.508 Y91.335 E1.47793
G0 F6000 X116.234 Y91.344
G1 F1200 X112.801 Y87.911 E1.52637
G0 F6000 X112.596 Y87.988
G1 F1200 X115.961 Y91.353 E1.57385
G0 F6000 X115.686 Y91.362
G1 F1200 X112.391 Y88.066 E1.62036
G0 F6000 X112.199 Y88.157
G1 F1200 X115.412 Y91.37 E1.6657
G0 F6000 X115.138 Y91.379
G1 F1200 X112.019 Y88.261 E1.7097
G0 F6000 X111.845 Y88.369
G1 F1200 X114.863 Y91.387 E1.75229
G0 F6000 X114.589 Y91.396
G1 F1200 X111.678 Y88.485 E1.79337
G0 F6000 X111.519 Y88.609
G1 F1200 X114.315 Y91.405 E1.83282
G0 F6000 X114.04 Y91.413
G1 F1200 X111.365 Y88.738 E1.87057
G0 F6000 X111.215 Y88.87
G1 F1200 X113.762 Y91.418 E1.90652
G0 F6000 X113.484 Y91.423
G1 F1200 X111.071 Y89.009 E1.94057
G0 F6000 X110.939 Y89.16
G1 F1200 X113.207 Y91.428 E1.97258
G0 F6000 X112.928 Y91.432
G1 F1200 X110.81 Y89.314 E2.00246
G0 F6000 X110.69 Y89.477
G1 F1200 X112.65 Y91.437 E2.03012
G0 F6000 X112.372 Y91.442
G1 F1200 X110.575 Y89.645 E2.05548
G0 F6000 X110.469 Y89.821
G1 F1200 X112.094 Y91.447 E2.07842
G0 F6000 X111.816 Y91.452
G1 F1200 X110.369 Y90.004 E2.09884
G0 F6000 X110.278 Y90.196
G1 F1200 X111.536 Y91.454 E2.11659
G0 F6000 X111.254 Y91.455
G1 F1200 X110.192 Y90.393 E2.13158
G0 F6000 X110.119 Y90.603
G1 F1200 X110.972 Y91.456 E2.14362
G0 F6000 X110.691 Y91.457
G1 F1200 X110.056 Y90.822 E2.15258
G0 F6000 X110.001 Y91.05
G1 F1200 X110.409 Y91.458 E2.15833
G0 F6000 X110.127 Y91.46
G1 F1200 X109.957 Y91.289 E2.16074
G0 F6000 X109.791 Y91.261
G1 F1500 E-4.33926
G0 F6000 X109.703 Y91.246
G0 X109.567 Y91.644
G0 X108.639 Y91.617
G0 X106.76 Y91.632
G0 X102.99 Y91.487
G0 X96.104 Y91.162
;TYPE:WALL-INNER
G1 F1500 E2.16074
G1 F1200 X96.169 Y91.031 E2.1622
G1 X96.205 Y90.96 E2.16299
G1 X96.358 Y90.683 E2.16615
G1 X96.523 Y90.406 E2.16937
G1 X96.698 Y90.135 E2.17259
G1 X96.887 Y89.865 E2.17588
G1 X97.075 Y89.614 E2.17901
G1 X97.281 Y89.361 E2.18226
G1 X97.489 Y89.121 E2.18543
G1 X97.712 Y88.882 E2.18869
G1 X97.938 Y88.657 E2.19187
G1 X98.176 Y88.436 E2.19511
G1 X98.413 Y88.23 E2.19825
G1 X98.667 Y88.026 E2.2015
G1 X98.927 Y87.831 E2.20474
G1 X99.186 Y87.651 E2.20789
G1 X99.457 Y87.477 E2.2111
G1 X99.735 Y87.313 E2.21432
G1 X100.023 Y87.156 E2.21759
G1 X100.315 Y87.008 E2.22086
G1 X100.604 Y86.878 E2.22402
G1 X100.916 Y86.75 E2.22739
G1 X101.217 Y86.638 E2.23059
G1 X101.532 Y86.534 E2.2339
G1 X101.845 Y86.444 E2.23715
G1 X102.166 Y86.364 E2.24045
G1 X102.494 Y86.296 E2.2438
G1 X102.829 Y86.238 E2.24719
G1 X103.151 Y86.196 E2.25043
G1 X103.492 Y86.164 E2.25385
G1 X103.841 Y86.144 E2.25733
G1 X104.295 Y86.137 E2.26186
G1 X104.707 Y86.156 E2.26598
G1 X104.997 Y86.19 E2.26889
G1 X105.378 Y86.266 E2.27277
G1 X105.651 Y86.341 E2.27559
G1 X106.016 Y86.472 E2.27946
G1 X106.272 Y86.584 E2.28225
G1 X106.6 Y86.76 E2.28597
G1 X106.841 Y86.911 E2.2888
G1 X107.148 Y87.137 E2.29261
G1 X107.367 Y87.322 E2.29547
G1 X107.622 Y87.573 E2.29904
G1 X107.803 Y87.777 E2.30176
G1 X108.045 Y88.097 E2.30576
G1 X108.195 Y88.323 E2.30847
G1 X108.376 Y88.651 E2.31221
G1 X108.498 Y88.909 E2.31506
G1 X108.633 Y89.27 E2.3189
G1 X108.71 Y89.525 E2.32156
G1 X108.797 Y89.931 E2.3257
G1 X108.836 Y90.2 E2.32841
G1 X108.859 Y90.609 E2.3325
G1 X108.849 Y90.834 E2.33475
G1 X108.821 Y91.141 E2.33782
G1 X108.777 Y91.465 E2.34109
G1 X108.731 Y91.728 E2.34375
G1 X106.757 Y91.703 E2.36345
G1 X104.538 Y91.646 E2.3856
G1 X102.319 Y91.56 E2.40776
G1 X100.104 Y91.445 E2.42989
G1 X97.886 Y91.301 E2.45207
G1 X96.25 Y91.173 E2.46844
G1 X96.104 Y91.162 E2.46929
G0 F6000 X95.799 Y91.338
;TYPE:WALL-OUTER
G1 F1200 X95.879 Y91.163 E2.47121
G1 X96.027 Y90.87 E2.47449
G1 X96.186 Y90.58 E2.47779
G1 X96.355 Y90.297 E2.48108
G1 X96.534 Y90.02 E2.48437
G1 X96.723 Y89.75 E2.48766
G1 X96.92 Y89.488 E2.49093
G1 X97.13 Y89.23 E2.49425
G1 X97.343 Y88.984 E2.4975
G1 X97.567 Y88.745 E2.50076
G1 X97.802 Y88.51 E2.50408
G1 X98.04 Y88.289 E2.50732
G1 X98.288 Y88.074 E2.5106
G1 X98.547 Y87.866 E2.51391
G1 X98.807 Y87.671 E2.51715
G1 X99.078 Y87.483 E2.52044
G1 X99.355 Y87.305 E2.52373
G1 X99.639 Y87.137 E2.52702
G1 X99.933 Y86.977 E2.53036
G1 X100.225 Y86.83 E2.53362
G1 X100.528 Y86.693 E2.53694
G1 X100.84 Y86.565 E2.54031
G1 X101.154 Y86.448 E2.54365
G1 X101.469 Y86.344 E2.54696
G1 X101.796 Y86.25 E2.55035
G1 X102.12 Y86.169 E2.55369
G1 X102.454 Y86.1 E2.55709
G1 X102.795 Y86.041 E2.56054
G1 X103.132 Y85.997 E2.56393
G1 X103.481 Y85.964 E2.56743
G1 X103.83 Y85.944 E2.57092
G1 X104.301 Y85.937 E2.57562
G1 X104.727 Y85.956 E2.57988
G1 X105.021 Y85.991 E2.58283
G1 X105.428 Y86.072 E2.58697
G1 X105.709 Y86.149 E2.58988
G1 X106.087 Y86.285 E2.59389
G1 X106.363 Y86.406 E2.59689
G1 X106.706 Y86.59 E2.60078
G1 X106.952 Y86.744 E2.60367
G1 X107.275 Y86.982 E2.60768
G1 X107.496 Y87.169 E2.61056
G1 X107.771 Y87.44 E2.61442
G1 X107.963 Y87.656 E2.6173
G1 X108.205 Y87.976 E2.6213
G1 X108.362 Y88.212 E2.62413
G1 X108.557 Y88.566 E2.62817
G1 X108.679 Y88.824 E2.63101
G1 X108.82 Y89.2 E2.63502
G1 X108.906 Y89.483 E2.63797
G1 X108.993 Y89.889 E2.64211
G1 X109.036 Y90.182 E2.64507
G1 X109.06 Y90.607 E2.64932
G1 X109.049 Y90.843 E2.65167
G1 X109.019 Y91.168 E2.65493
G1 X108.974 Y91.5 E2.65827
G1 X108.902 Y91.909 E2.66242
G1 X108.896 Y91.93 E2.66263
G1 X106.752 Y91.903 E2.68403
G1 X104.53 Y91.846 E2.70621
G1 X102.309 Y91.76 E2.72839
G1 X100.091 Y91.645 E2.75055
G1 X97.873 Y91.5 E2.77273
G1 X95.799 Y91.338 E2.79348
G0 F6000 X96.403 Y90.995
;TYPE:SKIN
G1 F1200 X96.521 Y90.78 E2.79593
G1 X96.683 Y90.509 E2.79908
G1 X96.854 Y90.244 E2.80223
G1 X97.041 Y89.977 E2.80548
G1 X97.223 Y89.734 E2.80851
G1 X97.425 Y89.485 E2.81171
G1 X97.628 Y89.251 E2.8148
G1 X97.849 Y89.015 E2.81803
G1 X98.07 Y88.794 E2.82114
G1 X98.301 Y88.579 E2.82429
G1 X98.535 Y88.376 E2.82738
G1 X98.784 Y88.176 E2.83057
G1 X99.035 Y87.987 E2.83371
G1 X99.289 Y87.811 E2.83679
G1 X99.554 Y87.641 E2.83993
G1 X99.829 Y87.479 E2.84312
G1 X100.112 Y87.324 E2.84633
G1 X100.393 Y87.181 E2.84948
G1 X100.658 Y87.062 E2.85238
G1 X100.988 Y86.926 E2.85594
G1 X101.28 Y86.817 E2.85905
G1 X101.585 Y86.716 E2.86226
G1 X101.895 Y86.627 E2.86547
G1 X102.204 Y86.55 E2.86865
G1 X102.526 Y86.484 E2.87193
G1 X102.894 Y86.42 E2.87566
G1 X103.168 Y86.386 E2.87841
G1 X103.509 Y86.354 E2.88183
G1 X103.852 Y86.334 E2.88526
G1 X104.289 Y86.327 E2.88962
G1 X104.698 Y86.346 E2.89371
G1 X104.961 Y86.376 E2.89635
G1 X105.334 Y86.451 E2.90014
G1 X105.593 Y86.522 E2.90282
G1 X105.946 Y86.649 E2.90657
G1 X106.189 Y86.755 E2.90921
G1 X106.504 Y86.924 E2.91278
G1 X106.734 Y87.068 E2.91549
G1 X107.031 Y87.287 E2.91917
G1 X107.244 Y87.467 E2.92195
G1 X107.48 Y87.699 E2.92525
G1 X107.651 Y87.891 E2.92782
G1 X107.89 Y88.207 E2.93177
G1 X108.032 Y88.421 E2.93433
G1 X108.207 Y88.738 E2.93795
G1 X108.32 Y88.976 E2.94058
G1 X108.451 Y89.325 E2.9443
G1 X108.524 Y89.565 E2.9468
G1 X108.61 Y89.965 E2.95088
G1 X108.646 Y90.211 E2.95336
G1 X108.669 Y90.62 E2.95745
G1 X108.659 Y90.817 E2.95942
G1 X108.631 Y91.124 E2.96249
G1 X108.595 Y91.399 E2.96526
G1 X108.571 Y91.536 E2.96665
G1 X106.762 Y91.513 E2.9847
G1 X104.545 Y91.456 E3.00683
G1 X102.329 Y91.37 E3.02896
G1 X100.116 Y91.255 E3.05107
G1 X97.901 Y91.111 E3.07322
G1 X96.403 Y90.995 E3.08821
G0 F6000 X96.549 Y90.892
G1 F1200 X96.585 Y90.928 E3.08872
G0 F6000 X96.653 Y90.713
G1 F1200 X96.892 Y90.952 E3.09209
G0 F6000 X97.198 Y90.976
G1 F1200 X96.759 Y90.536 E3.09829
G0 F6000 X96.87 Y90.364
G1 F1200 X97.505 Y90.999 E3.10725
G0 F6000 X97.811 Y91.023
G1 F1200 X96.983 Y90.195 E3.11894
G0 F6000 X97.1 Y90.029
G1 F1200 X98.116 Y91.044 E3.13327
G0 F6000 X98.417 Y91.064
G1 F1200 X97.221 Y89.867 E3.15015
G0 F6000 X97.345 Y89.708
G1 F1200 X98.72 Y91.083 E3.16955
G0 F6000 X99.023 Y91.103
G1 F1200 X97.471 Y89.552 E3.19145
G0 F6000 X97.603 Y89.4
G1 F1200 X99.325 Y91.123 E3.21575
G0 F6000 X99.627 Y91.142
G1 F1200 X97.735 Y89.25 E3.24245
G0 F6000 X97.872 Y89.104
G1 F1200 X99.93 Y91.162 E3.27149
G0 F6000 X100.231 Y91.18
G1 F1200 X98.014 Y88.963 E3.30277
G0 F6000 X98.157 Y88.823
G1 F1200 X100.53 Y91.196 E3.33626
G0 F6000 X100.827 Y91.211
G1 F1200 X98.302 Y88.686 E3.37189
G0 F6000 X98.453 Y88.553
G1 F1200 X101.126 Y91.226 E3.40961
G0 F6000 X101.424 Y91.242
G1 F1200 X98.605 Y88.422 E3.4494
G0 F6000 X98.761 Y88.296
G1 F1200 X101.722 Y91.257 E3.49118
G0 F6000 X102.021 Y91.273
G1 F1200 X98.92 Y88.172 E3.53494
G0 F6000 X99.082 Y88.051
G1 F1200 X102.319 Y91.288 E3.58061
G0 F6000 X102.613 Y91.3
G1 F1200 X99.25 Y87.936 E3.62808
G0 F6000 X99.419 Y87.822
G1 F1200 X102.908 Y91.311 E3.67731
G0 F6000 X103.202 Y91.322
G1 F1200 X99.591 Y87.711 E3.72827
G0 F6000 X99.769 Y87.606
G1 F1200 X103.497 Y91.334 E3.78087
G0 F6000 X103.791 Y91.346
G1 F1200 X99.949 Y87.504 E3.83509
G0 F6000 X100.131 Y87.404
G1 F1200 X104.085 Y91.357 E3.89087
G0 F6000 X104.379 Y91.368
G1 F1200 X100.319 Y87.308 E3.94817
G0 F6000 X100.51 Y87.216
G1 F1200 X104.672 Y91.378 E4.0069
G0 F6000 X104.962 Y91.386
G1 F1200 X100.706 Y87.129 E4.06696
G0 F6000 X100.904 Y87.045
G1 F1200 X105.252 Y91.393 E4.12832
G0 F6000 X105.543 Y91.401
G1 F1200 X101.109 Y86.967 E4.19088
G0 F6000 X101.314 Y86.889
G1 F1200 X105.833 Y91.408 E4.25465
G0 F6000 X106.123 Y91.416
G1 F1200 X101.527 Y86.819 E4.31951
G0 F6000 X101.744 Y86.753
G1 F1200 X106.414 Y91.423 E4.38541
G0 F6000 X106.704 Y91.431
