; generated by PrusaSlicer 2.3.3+x64 on 2021-12-19 at 16:56:48 UTC
; Postprocessed by [ArcWelder](https://github.com/FormerLurker/ArcWelderLib)
; Copyright(C) 2021 - Brad Hochgesang
; Version: 1.2.0, Branch: master, BuildDate: 2021-11-22T09:56:32Z
; resolution=0.05mm
; path_tolerance=5.0%
; max_radius=9999.00mm
; allow_3d_arcs=True
; default_xyz_precision=3
; default_e_precision=5
; extrusion_rate_variance_percent=5.0%


; 

; external perimeters extrusion width = 1.12mm
; perimeters extrusion width = 1.12mm
; infill extrusion width = 1.12mm
; solid infill extrusion width = 1.12mm
; top infill extrusion width = 1.00mm

M201 X500 Y500 Z100 E5000 ; sets maximum accelerations, mm/sec^2
M203 X500 Y500 Z10 E60 ; sets maximum feedrates, mm/sec
M204 P500 R1000 T500 ; sets acceleration (P, T) and retract acceleration (R), mm/sec^2
M205 X8.00 Y8.00 Z0.40 E5.00 ; sets the jerk limits, mm/sec
M205 S0 T0 ; sets the minimum extruding and travel feed rate, mm/sec
M107
;TYPE:Custom
G90 ; use absolute coordinates
M83 ; extruder relative mode
M104 S230 ; set extruder temp
M140 S70 ; set bed temp
G28 ; home all
M420 S1  ; restore ABL mesh
G1 Z10.0; Move Z Axis up to prevent from heating up too close to the bed
M190 S70 ; wait for bed temp
M109 S230 ; wait for extruder temp

; Purge line at the side of the print bed
G1 Z2 F240
G1 X2 Y10 F3000
G1 Z0.28 F240
G92 E0
G1 Y190 E15 F1500 ; intro line
G1 X2.3 F5000
G92 E0
G1 Y10 E15 F1200 ; intro line
G92 E0
G21 ; set units to millimeters
G90 ; use absolute coordinates
M83 ; use relative distances for extrusion
; Filament gcode
;LAYER_CHANGE
;Z:0.2
;HEIGHT:0.2
;BEFORE_LAYER_CHANGE
G92 E0
;0.2


G1 Z0.200 F9000.000
;AFTER_LAYER_CHANGE
;0.2
G1 E-5.00000 F3600.000
G1 X44.321 Y23.790 F9000.000
G1 E5.00000 F2400.000
M204 S500
;TYPE:Skirt
;WIDTH:1.125
G1 F1200.000
G1 X44.831 Y22.878 E0.09405
G1 X45.471 Y22.195 E0.08425
G1 X46.255 Y21.673 E0.08469
G1 X47.133 Y21.346 E0.08425
G1 X48.061 Y21.228 E0.08425
G1 X181.708 Y21.228 E12.02485
G1 X182.960 Y21.425 E0.11406
G1 X184.087 Y21.993 E0.11362
G1 X184.990 Y22.883 E0.11406
G1 X185.576 Y24.007 E0.11406
G1 X189.396 Y42.344 E1.68527
G3 X189.687 Y44.912 I-12.543 J2.722 E0.23282
G1 X189.689 Y196.690 E13.65631
G3 X176.450 Y209.763 I-13.095 J-0.021 E1.86152
G1 X51.695 Y209.763 E11.22485
G3 X47.598 Y209.000 I0.371 J-13.374 E0.37636
G3 X42.771 Y205.944 I4.489 J-12.430 E0.51787
G1 X42.017 Y204.943 E0.11278
G1 X41.521 Y203.760 E0.11543
G1 X41.339 Y202.515 E0.11320
G1 X41.339 Y50.840 E13.64698
G1 X44.059 Y24.802 E2.35555
G1 X44.283 Y23.935 E0.08056
G1 E-3.50000 F3600.000
;WIPE_START
G1 F7200.000
G1 X44.831 Y22.878 E-0.56574
G1 X45.471 Y22.195 E-0.44476
G1 X46.198 Y21.711 E-0.41450
;WIPE_END
G1 E-0.07500 F3600.000
G1 X173.270 Y26.516 F9000.000
G1 E5.00000 F2400.000
;TYPE:External perimeter
G1 F1200.000
G3 X174.936 Y28.017 I-8.618 J11.241 E0.20189
G1 X175.869 Y28.818 E0.11067
G1 X175.945 Y29.429 E0.05546
G1 X175.945 Y31.567 E0.19238
G1 X175.904 Y31.839 E0.02471
G1 X175.244 Y31.837 E0.05943
G2 X175.170 Y31.252 I-2.443 J0.012 E0.05320
G1 X175.170 Y29.936 E0.11839
G1 X173.945 Y29.936 E0.11022
G1 X173.945 Y37.033 E0.63856
G3 X176.521 Y36.661 I2.922 J11.130 E0.23464
G3 X179.263 Y36.703 I0.901 J30.705 E0.24678
G1 X180.270 Y36.613 E0.09097
G1 X180.270 Y26.985 E0.86625
G1 X180.285 Y26.879 E0.00959
G1 X181.090 Y26.428 E0.08312
G1 X181.145 Y26.832 E0.03675
G1 X181.145 Y37.959 E1.00115
G3 X184.990 Y44.143 I-4.873 J7.317 E0.67626
G3 X171.081 Y51.456 I-8.372 J0.961 E1.82082
G3 X170.684 Y50.839 I0.783 J-0.940 E0.06729
G3 X171.187 Y50.496 I0.377 J0.013 E0.06350
G1 X171.417 Y50.591 E0.02233
G2 X180.139 Y38.407 I5.194 J-5.496 E2.32163
G2 X178.932 Y37.838 I-2.061 J2.807 E0.12103
G1 X177.346 Y37.570 E0.14469
G2 X174.885 Y37.733 I-0.734 J7.581 E0.22281
G1 X173.173 Y38.221 E0.16014
G3 X172.939 Y37.505 I0.037 J-0.408 E0.08677
G1 X173.270 Y37.299 E0.03504
G3 X173.275 Y29.226 I376.204 J-3.803 E0.72642
G2 X173.270 Y27.731 I-6.426 J-0.726 E0.13472
G1 X173.270 Y26.666 E0.09579
;LAYER_CHANGE
;Z:0.48
;HEIGHT:0.28
;BEFORE_LAYER_CHANGE
G92 E0
;0.48


G1 Z0.200 F9000.000
;AFTER_LAYER_CHANGE
;0.48
G1 F900
G1 Z0.200 X173.270 Y26.516 E0.000
G1 Z0.208 X175.945 Y28.761 E0.013
G1 Z0.216 X175.945 Y31.936 E0.022
G1 Z0.217 X175.170 Y31.936 E0.006
G1 Z0.222 X175.170 Y29.936 E0.020
G1 Z0.225 X173.945 Y29.936 E0.013
G1 Z0.241 X173.945 Y37.033 E0.129
G3 X175.869 Y36.694 Z0.246 I3.170 J12.360 E0.03800
G1 Z0.247 X176.522 Y36.661 E0.014
G1 Z0.256 X180.270 Y36.661 E0.093
G1 Z0.279 X180.270 Y26.789 E0.343
G1 Z0.281 X181.145 Y26.284 E0.036
G1 Z0.308 X181.145 Y37.959 E0.557
G3 X184.990 Y44.143 Z0.325 I-4.873 J7.317 E0.39100
G3 X170.736 Y51.154 Z0.373 I-8.381 J0.955 E1.37300
G3 X170.612 Y50.673 Z0.374 I0.283 J-0.330 E0.04000
G3 X170.978 Y50.389 Z0.375 I0.412 J0.153 E0.03700
G3 X171.237 Y50.448 I0.043 J0.409 E0.02000
G2 X178.954 Y37.908 Z0.438 I5.344 J-5.356 E2.51300
G2 X173.301 Y38.294 Z0.452 I-2.348 J7.203 E0.63100
G3 X172.921 Y38.262 Z0.453 I-0.156 J-0.418 E0.04300
G1 Z0.453 X172.859 Y38.217 E0.009
G1 Z0.453 X172.764 Y38.095 E0.017
G3 X172.707 Y37.871 Z0.454 I0.364 J-0.212 E0.02600
G3 X172.873 Y37.546 I0.431 J0.015 E0.04200
G1 Z0.456 X173.270 Y37.299 E0.053
G1 Z0.480 X173.270 Y26.666 E1.318
;LAYER_CHANGE
;Z:0.76
;HEIGHT:0.28
;BEFORE_LAYER_CHANGE
G92 E0
;0.76


G1 Z0.480 F9000.000
;AFTER_LAYER_CHANGE
;0.76
G1 F900
G1 Z0.480 X173.270 Y26.516 E0.01860
G1 Z0.488 X175.945 Y28.761 E0.43289
G1 Z0.496 X175.945 Y31.936 E0.39362
G1 Z0.497 X175.170 Y31.936 E0.09607
G1 Z0.502 X175.170 Y29.936 E0.24793
G1 Z0.505 X173.945 Y29.936 E0.15186
G1 Z0.521 X173.945 Y37.033 E0.87979
G3 X176.522 Y36.661 Z0.527 I2.782 J10.161 E0.32338
G1 Z0.536 X180.270 Y36.661 E0.46463
G1 Z0.559 X180.270 Y26.789 E1.22375
G1 Z0.561 X181.145 Y26.284 E0.12525
G1 Z0.588 X181.145 Y37.959 E1.44733
G3 X184.990 Y44.143 Z0.605 I-4.873 J7.317 E0.93174
G3 X170.736 Y51.154 Z0.653 I-8.381 J0.955 E2.56547
G3 X170.613 Y50.669 Z0.654 I0.279 J-0.329 E0.06553
G3 X170.978 Y50.389 Z0.655 I0.411 J0.158 E0.05960
G3 X171.237 Y50.448 I0.043 J0.409 E0.03330
G2 X178.954 Y37.908 Z0.718 I5.344 J-5.356 E3.38665
G2 X173.301 Y38.294 Z0.732 I-2.348 J7.203 E0.71956
G3 X172.921 Y38.262 Z0.733 I-0.156 J-0.417 E0.04862
G3 X172.707 Y37.871 Z0.734 I0.246 J-0.389 E0.05750
G3 X172.873 Y37.546 I0.431 J0.015 E0.04628
G1 Z0.736 X173.270 Y37.299 E0.05797
G1 Z0.760 X173.270 Y26.666 E1.31816
M106 S127.5
;LAYER_CHANGE
;Z:1.04
;HEIGHT:0.28
;BEFORE_LAYER_CHANGE
G92 E0
;1.04


G1 Z0.760 F9000.000
;AFTER_LAYER_CHANGE
;1.04
G1 F900
G1 Z0.760 X173.270 Y26.516 E0.01860
G1 Z0.768 X175.945 Y28.761 E0.43289
G1 Z0.776 X175.945 Y31.936 E0.39362
G1 Z0.777 X175.170 Y31.936 E0.09607
G1 Z0.782 X175.170 Y29.936 E0.24793
G1 Z0.785 X173.945 Y29.936 E0.15186
G1 Z0.801 X173.945 Y37.033 E0.87979
G3 X176.522 Y36.661 Z0.807 I2.807 J10.331 E0.32342
G1 Z0.816 X180.270 Y36.661 E0.46459
G1 Z0.839 X180.270 Y26.789 E1.22375
G1 Z0.841 X181.145 Y26.284 E0.12525
G1 Z0.868 X181.145 Y37.959 E1.44733
G3 X184.990 Y44.143 Z0.885 I-4.873 J7.317 E0.93174
G3 X170.736 Y51.154 Z0.933 I-8.383 J0.952 E2.56542
G3 X170.615 Y50.664 Z0.934 I0.279 J-0.329 E0.06626
G3 X170.978 Y50.389 Z0.935 I0.409 J0.163 E0.05912
G3 X171.237 Y50.448 I0.043 J0.409 E0.03330
G2 X180.454 Y38.586 Z0.995 I5.343 J-5.360 E3.18209
G2 X173.301 Y38.294 Z1.012 I-3.848 J6.517 E0.92402
G3 X172.920 Y38.261 I-0.155 J-0.425 E0.04874
G3 X172.707 Y37.871 Z1.014 I0.246 J-0.388 E0.05737
G3 X172.873 Y37.546 I0.431 J0.015 E0.04628
G1 Z1.016 X173.270 Y37.299 E0.05797
G1 Z1.040 X173.270 Y26.666 E1.31816
;LAYER_CHANGE
;Z:1.32
;HEIGHT:0.28
;BEFORE_LAYER_CHANGE
G92 E0
;1.32


G1 Z1.040 F9000.000
;AFTER_LAYER_CHANGE
;1.32
G1 F900
G1 Z1.040 X173.270 Y26.516 E0.01860
G1 Z1.048 X175.945 Y28.761 E0.43289
G1 Z1.056 X175.945 Y31.936 E0.39362
G1 Z1.057 X175.170 Y31.936 E0.09607
G1 Z1.062 X175.170 Y29.936 E0.24793
G1 Z1.065 X173.945 Y29.936 E0.15186
G1 Z1.081 X173.945 Y37.033 E0.87979
G3 X176.523 Y36.661 Z1.087 I2.806 J10.324 E0.32346
G1 Z1.096 X180.270 Y36.661 E0.46454
G1 Z1.119 X180.270 Y26.789 E1.22375
G1 Z1.121 X181.145 Y26.284 E0.12525
G1 Z1.148 X181.145 Y37.959 E1.44733
G3 X184.990 Y44.143 Z1.165 I-4.873 J7.317 E0.93174
G3 X170.736 Y51.154 Z1.213 I-8.381 J0.955 E2.56540
G3 X170.613 Y50.669 I0.279 J-0.329 E0.06553
G3 X170.978 Y50.389 Z1.215 I0.411 J0.158 E0.05960
G3 X171.237 Y50.448 I0.043 J0.409 E0.03330
G2 X181.140 Y39.043 Z1.273 I5.343 J-5.363 E3.07981
G2 X173.301 Y38.294 Z1.292 I-4.534 J6.058 E1.02625
G3 X172.919 Y38.261 I-0.155 J-0.428 E0.04886
G3 X172.707 Y37.871 Z1.294 I0.249 J-0.388 E0.05725
G3 X172.873 Y37.546 I0.431 J0.015 E0.04628
G1 Z1.296 X173.270 Y37.299 E0.05797
G1 Z1.320 X173.270 Y26.666 E1.31816
;LAYER_CHANGE
;Z:1.6
;HEIGHT:0.28
;BEFORE_LAYER_CHANGE
G92 E0
;1.6


G1 Z1.320 F9000.000
;AFTER_LAYER_CHANGE
;1.6
G1 F900
G1 Z1.320 X173.270 Y26.516 E0.01860
G1 Z1.328 X175.945 Y28.761 E0.43289
G1 Z1.336 X175.945 Y31.936 E0.39362
G1 Z1.337 X175.170 Y31.936 E0.09607
G1 Z1.342 X175.170 Y29.936 E0.24793
G1 Z1.345 X173.945 Y29.936 E0.15186
G1 Z1.361 X173.945 Y37.033 E0.87979
G3 X176.523 Y36.661 Z1.367 I2.827 J10.473 E0.32349
G1 Z1.376 X180.270 Y36.661 E0.46450
G1 Z1.399 X180.270 Y26.789 E1.22375
G1 Z1.401 X181.145 Y26.284 E0.12525
G1 Z1.428 X181.145 Y37.959 E1.44733
G3 X184.990 Y44.143 Z1.445 I-4.873 J7.317 E0.93174
G3 X170.736 Y51.154 Z1.493 I-8.381 J0.955 E2.56544
G3 X170.613 Y50.670 Z1.494 I0.278 J-0.328 E0.06551
G3 X170.978 Y50.389 Z1.495 I0.411 J0.156 E0.05985
G3 X171.237 Y50.448 I0.043 J0.409 E0.03330
G2 X178.954 Y37.908 Z1.558 I5.344 J-5.356 E3.38659
G2 X173.301 Y38.294 Z1.572 I-2.348 J7.203 E0.71956
G3 X172.918 Y38.260 I-0.155 J-0.423 E0.04897
G3 X172.707 Y37.871 I0.249 J-0.387 E0.05713
G3 X172.873 Y37.546 I0.431 J0.015 E0.04628
G1 Z1.576 X173.270 Y37.299 E0.05797
G1 Z1.600 X173.270 Y26.666 E1.31816
;LAYER_CHANGE
;Z:1.88
;HEIGHT:0.28
;BEFORE_LAYER_CHANGE
G92 E0
;1.88


G1 Z1.600 F9000.000
;AFTER_LAYER_CHANGE
;1.88
G1 F900
G1 Z1.600 X173.270 Y26.516 E0.01860
G1 Z1.608 X175.945 Y28.761 E0.43289
G1 Z1.616 X175.945 Y31.936 E0.39362
G1 Z1.617 X175.170 Y31.936 E0.09607
G1 Z1.622 X175.170 Y29.936 E0.24793
G1 Z1.625 X173.945 Y29.936 E0.15186
G1 Z1.641 X173.945 Y37.033 E0.87979
G3 X176.523 Y36.661 Z1.647 I2.825 J10.462 E0.32354
G1 Z1.656 X180.270 Y36.661 E0.46446
G1 Z1.679 X180.270 Y26.789 E1.22375
G1 Z1.681 X181.145 Y26.284 E0.12525
G1 Z1.708 X181.145 Y37.959 E1.44733
G3 X184.990 Y44.143 Z1.725 I-4.873 J7.317 E0.93174
G3 X170.736 Y51.154 Z1.773 I-8.381 J0.955 E2.56550
G3 X170.613 Y50.669 I0.279 J-0.329 E0.06553
G3 X170.978 Y50.389 I0.411 J0.158 E0.05960
G3 X171.237 Y50.448 I0.043 J0.409 E0.03330
G2 X181.140 Y39.043 Z1.833 I5.348 J-5.358 E3.07975
G2 X173.301 Y38.294 Z1.852 I-4.534 J6.058 E1.02625
G3 X172.917 Y38.259 Z1.853 I-0.154 J-0.429 E0.04908
G3 X172.707 Y37.871 Z1.854 I0.249 J-0.386 E0.05701
G3 X172.873 Y37.546 I0.431 J0.015 E0.04628
G1 Z1.856 X173.270 Y37.299 E0.05797
G1 Z1.880 X173.270 Y26.666 E1.31816
;LAYER_CHANGE
;Z:2.16
;HEIGHT:0.28
;BEFORE_LAYER_CHANGE
G92 E0
;2.16


G1 Z1.880 F9000.000
;AFTER_LAYER_CHANGE
;2.16
G1 F900
G1 Z1.880 X173.270 Y26.516 E0.01860
G1 Z1.888 X175.945 Y28.761 E0.43289
G1 Z1.896 X175.945 Y31.936 E0.39362
G1 Z1.897 X175.170 Y31.936 E0.09607
G1 Z1.902 X175.170 Y29.936 E0.24793
G1 Z1.905 X173.945 Y29.936 E0.15186
G1 Z1.921 X173.945 Y37.033 E0.87979
G3 X176.524 Y36.661 Z1.927 I2.848 J10.617 E0.32357
G1 Z1.936 X180.270 Y36.661 E0.46442
G1 Z1.959 X180.270 Y26.789 E1.22375
G1 Z1.961 X181.145 Y26.284 E0.12525
G1 Z1.988 X181.145 Y37.959 E1.44733
G3 X184.990 Y44.143 Z2.005 I-4.873 J7.317 E0.93174
G3 X170.736 Y51.154 Z2.053 I-8.381 J0.955 E2.56534
G3 X170.611 Y50.675 I0.284 J-0.330 E0.06486
G3 X170.978 Y50.389 Z2.055 I0.413 J0.152 E0.06060
G3 X171.237 Y50.448 I0.043 J0.409 E0.03330
G2 X181.773 Y39.573 Z2.111 I5.350 J-5.359 E2.97757
G2 X173.301 Y38.294 Z2.132 I-5.167 J5.528 E1.12848
G3 X172.917 Y38.259 I-0.155 J-0.427 E0.04918
G3 X172.707 Y37.871 I0.249 J-0.386 E0.05690
G3 X172.873 Y37.546 I0.431 J0.015 E0.04628
G1 Z2.136 X173.270 Y37.299 E0.05797
G1 Z2.160 X173.270 Y26.666 E1.31816
;LAYER_CHANGE
;Z:2.44
;HEIGHT:0.28
;BEFORE_LAYER_CHANGE
G92 E0
;2.44


G1 Z2.160 F9000.000
;AFTER_LAYER_CHANGE
;2.44
G1 F900
G1 Z2.160 X173.270 Y26.516 E0.01860
G1 Z2.168 X175.945 Y28.761 E0.43289
G1 Z2.176 X175.945 Y31.936 E0.39362
G1 Z2.177 X175.170 Y31.936 E0.09607
G1 Z2.182 X175.170 Y29.936 E0.24793
G1 Z2.185 X173.945 Y29.936 E0.15186
G1 Z2.201 X173.945 Y37.033 E0.87979
G3 X176.524 Y36.661 Z2.207 I2.845 J10.600 E0.32360
G1 Z2.216 X180.270 Y36.661 E0.46439
G1 Z2.239 X180.270 Y26.789 E1.22375
G1 Z2.241 X181.145 Y26.284 E0.12525
G1 Z2.268 X181.145 Y37.959 E1.44733
G3 X184.990 Y44.143 Z2.285 I-4.873 J7.317 E0.93174
G3 X170.736 Y51.154 Z2.333 I-8.381 J0.955 E2.56550
G3 X170.610 Y50.679 I0.283 J-0.329 E0.06447
G3 X170.978 Y50.389 I0.414 J0.147 E0.06097
G3 X171.237 Y50.448 I0.043 J0.409 E0.03330
G2 X178.954 Y37.908 Z2.398 I5.344 J-5.356 E3.38638
G2 X173.301 Y38.294 Z2.412 I-2.348 J7.203 E0.71956
G3 X172.916 Y38.258 I-0.154 J-0.433 E0.04928
G3 X172.707 Y37.871 Z2.414 I0.249 J-0.384 E0.05679
G3 X172.873 Y37.546 I0.431 J0.015 E0.04628
G1 Z2.416 X173.270 Y37.299 E0.05797
G1 Z2.440 X173.270 Y26.666 E1.31816
;LAYER_CHANGE
;Z:2.72
;HEIGHT:0.28
;BEFORE_LAYER_CHANGE
G92 E0
;2.72


G1 Z2.440 F9000.000
;AFTER_LAYER_CHANGE
;2.72
G1 F900
G1 Z2.440 X173.270 Y26.516 E0.01860
G1 Z2.448 X175.945 Y28.761 E0.43289
G1 Z2.456 X175.945 Y31.936 E0.39362
G1 Z2.457 X175.170 Y31.936 E0.09607
G1 Z2.462 X175.170 Y29.936 E0.24793
G1 Z2.465 X173.945 Y29.936 E0.15186
G1 Z2.481 X173.945 Y37.033 E0.87979
G3 X176.521 Y36.661 Z2.487 I2.922 J11.130 E0.32328
G1 Z2.496 X180.270 Y36.661 E0.46473
G1 Z2.519 X180.270 Y26.789 E1.22375
G1 Z2.521 X181.145 Y26.284 E0.12525
G1 Z2.548 X181.145 Y37.959 E1.44733
G3 X184.990 Y44.143 Z2.565 I-4.873 J7.317 E0.93174
G3 X170.736 Y51.154 Z2.613 I-8.381 J0.955 E2.56550
G3 X170.609 Y50.682 I0.283 J-0.329 E0.06408
G3 X170.978 Y50.389 Z2.615 I0.415 J0.144 E0.06136
G3 X171.237 Y50.448 I0.043 J0.409 E0.03330
G2 X178.954 Y37.908 Z2.678 I5.344 J-5.356 E3.38656
G2 X173.301 Y38.294 Z2.692 I-2.348 J7.203 E0.71956
G3 X172.915 Y38.258 I-0.154 J-0.435 E0.04938
G3 X172.707 Y37.871 I0.252 J-0.385 E0.05668
G3 X172.873 Y37.546 I0.431 J0.015 E0.04628
G1 Z2.696 X173.270 Y37.299 E0.05797
G1 Z2.720 X173.270 Y26.666 E1.31816
;LAYER_CHANGE
;Z:3
;HEIGHT:0.28
;BEFORE_LAYER_CHANGE
G92 E0
;3


G1 Z2.720 F9000.000
;AFTER_LAYER_CHANGE
;3
G1 F900
G1 Z2.720 X173.270 Y26.516 E0.01860
G1 Z2.728 X175.945 Y28.761 E0.43289
G1 Z2.736 X175.945 Y31.936 E0.39362
G1 Z2.737 X175.170 Y31.936 E0.09607
G1 Z2.742 X175.170 Y29.936 E0.24793
G1 Z2.745 X173.945 Y29.936 E0.15186
G1 Z2.761 X173.945 Y37.033 E0.87979
G3 X176.525 Y36.661 Z2.767 I2.864 J10.727 E0.32366
G1 Z2.776 X180.270 Y36.661 E0.46432
G1 Z2.799 X180.270 Y26.789 E1.22375
G1 Z2.801 X181.145 Y26.284 E0.12525
G1 Z2.828 X181.145 Y37.959 E1.44733
G3 X184.990 Y44.143 Z2.845 I-4.873 J7.317 E0.93174
G3 X170.736 Y51.154 Z2.893 I-8.381 J0.955 E2.56550
G3 X170.608 Y50.685 Z2.894 I0.283 J-0.329 E0.06368
G3 X170.978 Y50.389 I0.416 J0.141 E0.06174
G3 X171.237 Y50.448 I0.043 J0.409 E0.03330
G2 X178.954 Y37.908 Z2.958 I5.344 J-5.356 E3.38665
G2 X173.301 Y38.294 Z2.972 I-2.348 J7.203 E0.71956
G3 X172.915 Y38.257 I-0.154 J-0.425 E0.04947
G3 X172.707 Y37.871 Z2.974 I0.248 J-0.383 E0.05658
G3 X172.873 Y37.546 I0.431 J0.015 E0.04628
G1 Z2.976 X173.270 Y37.299 E0.05797
G1 Z3.000 X173.270 Y26.666 E1.31816
;LAYER_CHANGE
;Z:3.28
;HEIGHT:0.28
;BEFORE_LAYER_CHANGE
G92 E0
;3.28


G1 Z3.000 F9000.000
;AFTER_LAYER_CHANGE
;3.28
G1 F900
G1 Z3.000 X173.270 Y26.516 E0.01860
G1 Z3.008 X175.945 Y28.761 E0.43289
G1 Z3.016 X175.945 Y31.936 E0.39362
G1 Z3.017 X175.170 Y31.936 E0.09607
G1 Z3.022 X175.170 Y29.936 E0.24793
G1 Z3.025 X173.945 Y29.936 E0.15186
G1 Z3.041 X173.945 Y37.033 E0.87979
G3 X176.525 Y36.661 Z3.047 I2.882 J10.858 E0.32370
G1 Z3.056 X180.270 Y36.661 E0.46428
G1 Z3.079 X180.270 Y26.789 E1.22375
G1 Z3.081 X181.145 Y26.284 E0.12525
G1 Z3.108 X181.145 Y37.959 E1.44733
G3 X184.990 Y44.143 Z3.125 I-4.873 J7.317 E0.93174
G3 X170.736 Y51.154 Z3.173 I-8.381 J0.955 E2.56550
