; generated by PrusaSlicer 2.3.3+x64 on 2021-12-19 at 16:57:26 UTC
; Postprocessed by [ArcWelder](https://github.com/FormerLurker/ArcWelderLib)
; Copyright(C) 2021 - Brad Hochgesang
; Version: 1.2.0, Branch: master, BuildDate: 2021-11-22T09:56:32Z
; resolution=0.05mm
; path_tolerance=5.0%
; max_radius=9999.00mm
; allow_3d_arcs=True
; default_xyz_precision=3
; default_e_precision=5
; extrusion_rate_variance_percent=5.0%


; 

; external perimeters extrusion width = 1.12mm
; perimeters extrusion width = 1.12mm
; infill extrusion width = 1.12mm
; solid infill extrusion width = 1.12mm
; top infill extrusion width = 1.00mm

M201 X500 Y500 Z100 E5000 ; sets maximum accelerations, mm/sec^2
M203 X500 Y500 Z10 E60 ; sets maximum feedrates, mm/sec
M204 P500 R1000 T500 ; sets acceleration (P, T) and retract acceleration (R), mm/sec^2
M205 X8.00 Y8.00 Z0.40 E5.00 ; sets the jerk limits, mm/sec
M205 S0 T0 ; sets the minimum extruding and travel feed rate, mm/sec
M107
;TYPE:Custom
G90 ; use absolute coordinates
M83 ; extruder relative mode
M104 S230 ; set extruder temp
M140 S70 ; set bed temp
G28 ; home all
M420 S1  ; restore ABL mesh
G1 Z10.0; Move Z Axis up to prevent from heating up too close to the bed
M190 S70 ; wait for bed temp
M109 S230 ; wait for extruder temp

; Purge line at the side of the print bed
G1 Z2 F240
G1 X2 Y10 F3000
G1 Z0.28 F240
G92 E0
G1 Y190 E15 F1500 ; intro line
G1 X2.3 F5000
G92 E0
G1 Y10 E15 F1200 ; intro line
G92 E0
G21 ; set units to millimeters
G90 ; use absolute coordinates
M83 ; use relative distances for extrusion
; Filament gcode
;LAYER_CHANGE
;Z:0.2
;HEIGHT:0.2
;BEFORE_LAYER_CHANGE
G92 E0
;0.2


G1 Z0.200 F9000.000
;AFTER_LAYER_CHANGE
;0.2
G1 E-5.00000 F3600.000
G1 X40.153 Y24.027 F9000.000
G1 E5.00000 F2400.000
M204 S500
;TYPE:Skirt
;WIDTH:1.125
G1 F1200.000
G1 X40.637 Y23.220 E0.08465
G1 X41.275 Y22.583 E0.08112
G1 X42.038 Y22.102 E0.08112
G3 X43.777 Y21.693 I1.783 J3.678 E0.16180
G1 X188.223 Y21.692 E12.99649
G3 X190.764 Y22.584 I-0.009 J4.092 E0.24672
G1 X196.301 Y28.139 E0.70564
G1 X196.878 Y28.820 E0.08028
G1 X197.374 Y29.703 E0.09119
G3 X197.798 Y31.618 I-4.610 J2.025 E0.17733
G1 X197.798 Y191.804 E14.41276
G1 X197.624 Y193.024 E0.11087
G1 X195.558 Y200.577 E0.70452
G3 X194.526 Y202.926 I-12.322 J-4.012 E0.23114
G1 X193.564 Y204.400 E0.15845
G3 X182.971 Y209.609 I-10.455 J-7.885 E1.10138
G1 X47.423 Y209.609 E12.19600
G3 X43.297 Y208.841 I0.356 J-13.382 E0.37901
G3 X40.961 Y207.726 I4.222 J-11.851 E0.23317
G1 X39.601 Y206.787 E0.14879
G1 X38.444 Y205.749 E0.13983
G1 X37.703 Y204.745 E0.11226
G1 X37.227 Y203.586 E0.11276
G1 X37.050 Y202.360 E0.11142
G1 X37.050 Y51.300 E13.59169
G1 X39.771 Y25.257 E2.35600
G1 X40.076 Y24.156 E0.10279
G1 E-3.50000 F3600.000
;WIPE_START
G1 F7200.000
G1 X40.637 Y23.220 E-0.51814
G1 X41.275 Y22.583 E-0.42827
G1 X42.038 Y22.102 E-0.42827
G1 X42.137 Y22.067 E-0.05032
;WIPE_END
G1 E-0.07500 F3600.000
G1 X179.780 Y26.981 F9000.000
G1 E5.00000 F2400.000
;TYPE:External perimeter
G1 F1200.000
G3 X181.446 Y28.481 I-8.539 J11.160 E0.20189
G1 X182.377 Y29.280 E0.11042
G1 X182.455 Y30.000 E0.06515
G1 X182.455 Y31.926 E0.17322
G1 X182.404 Y32.305 E0.03444
G1 X181.731 Y32.305 E0.06061
G1 X181.680 Y31.926 E0.03444
G1 X181.680 Y30.401 E0.13722
G1 X180.455 Y30.401 E0.11022
G1 X180.455 Y36.495 E0.54840
G1 X180.652 Y37.015 E0.05003
G1 X181.212 Y37.309 E0.05685
G3 X184.834 Y37.126 I2.721 J17.929 E0.32682
G2 X186.780 Y37.077 I0.792 J-7.198 E0.17559
G1 X186.780 Y27.450 E0.86625
G1 X186.795 Y27.344 E0.00959
G1 X187.600 Y26.892 E0.08312
G1 X187.655 Y27.297 E0.03675
G1 X187.655 Y38.425 E1.00125
G3 X189.329 Y39.836 I-6.201 J9.055 E0.19723
G2 X190.423 Y40.292 I1.251 J-1.462 E0.10835
G1 X191.274 Y40.300 E0.07658
G1 X191.655 Y40.219 E0.03502
G2 X192.280 Y39.281 I-0.418 J-0.956 E0.10650
G1 X192.280 Y32.276 E0.63032
G3 X192.381 Y31.655 I2.273 J0.051 E0.05669
G3 X193.071 Y31.705 I0.339 J0.102 E0.08465
G3 X193.155 Y32.274 I-4.260 J0.920 E0.05182
G1 X193.155 Y40.198 E0.71296
G1 X193.056 Y40.815 E0.05622
G3 X192.757 Y41.088 I-0.421 J-0.161 E0.03767
G1 X192.190 Y41.175 E0.05154
G1 X190.429 Y41.175 E0.15850
G1 X191.094 Y42.813 E0.15909
G3 X177.591 Y51.921 I-7.966 J2.753 E1.98643
G3 X177.194 Y51.304 I0.783 J-0.940 E0.06736
G3 X177.697 Y50.961 I0.377 J0.013 E0.06350
G1 X177.927 Y51.055 E0.02233
G2 X186.649 Y38.872 I5.194 J-5.495 E2.32177
G2 X185.442 Y38.303 I-2.061 J2.807 E0.12103
G1 X183.856 Y38.035 E0.14469
G2 X181.028 Y38.305 I-0.743 J7.161 E0.25724
G1 X180.634 Y38.374 E0.03598
G1 X179.696 Y38.685 E0.08886
G3 X179.472 Y37.975 I0.011 J-0.394 E0.08812
G1 X179.780 Y37.708 E0.03667
G3 X179.785 Y29.690 I373.641 J-3.776 E0.72140
G2 X179.780 Y28.195 I-6.421 J-0.726 E0.13472
G1 X179.780 Y27.131 E0.09579
;LAYER_CHANGE
;Z:0.48
;HEIGHT:0.28
;BEFORE_LAYER_CHANGE
G92 E0
;0.48


G1 Z0.200 F9000.000
;AFTER_LAYER_CHANGE
;0.48
G1 F900
G1 Z0.200 X179.780 Y26.981 E0.000
G1 Z0.207 X182.455 Y29.225 E0.011
G1 Z0.213 X182.455 Y32.401 E0.019
G1 Z0.215 X181.680 Y32.401 E0.005
G1 Z0.219 X181.680 Y30.401 E0.017
G1 Z0.221 X180.455 Y30.401 E0.011
G1 Z0.233 X180.455 Y36.495 E0.089
G1 Z0.234 X180.652 Y37.015 E0.008
G1 Z0.235 X181.212 Y37.309 E0.010
G3 X183.033 Y37.126 Z0.239 I2.083 J11.574 E0.03100
G1 Z0.246 X186.780 Y37.126 E0.076
G1 Z0.265 X186.780 Y27.254 E0.285
G1 Z0.267 X187.655 Y26.749 E0.030
G1 Z0.290 X187.655 Y38.425 E0.465
G3 X189.330 Y39.836 Z0.294 I-6.247 J9.115 E0.09000
G2 X190.192 Y40.259 Z0.296 I1.251 J-1.460 E0.04100
G2 X191.655 Y40.219 Z0.299 I0.637 J-3.494 E0.06400
G2 X192.280 Y39.281 Z0.301 I-0.418 J-0.956 E0.05300
G1 Z0.316 X192.286 Y31.690 E0.390
G3 X192.402 Y31.438 Z0.317 I0.430 J0.045 E0.01500
G3 X192.999 Y31.406 Z0.318 I0.316 J0.318 E0.03400
G3 X193.142 Y31.644 I-0.283 J0.332 E0.01500
G1 Z0.319 X193.155 Y31.767 E0.007
G1 Z0.336 X193.150 Y40.782 E0.543
G1 Z0.336 X193.131 Y40.871 E0.005
G1 Z0.337 X193.040 Y41.028 E0.011
G1 Z0.337 X192.973 Y41.088 E0.006
G1 Z0.337 X192.808 Y41.162 E0.011
G1 Z0.342 X190.429 Y41.175 E0.149
G1 Z0.345 X191.094 Y42.813 E0.114
G3 X177.246 Y51.619 Z0.389 I-7.976 J2.749 E1.67700
G3 X177.108 Y51.396 Z0.390 I0.339 J-0.364 E0.02300
G3 X177.324 Y50.904 Z0.391 I0.426 J-0.106 E0.04800
G1 Z0.391 X177.488 Y50.854 E0.014
G1 Z0.391 X177.673 Y50.877 E0.016
G1 Z0.392 X177.747 Y50.912 E0.007
G2 X183.852 Y38.035 Z0.448 I5.346 J-5.351 E2.83000
G2 X179.704 Y38.783 Z0.456 I-0.631 J8.376 E0.47700
G3 X179.433 Y38.728 Z0.457 I-0.056 J-0.419 E0.03200
G3 X179.222 Y38.414 Z0.458 I0.250 J-0.396 E0.04500
G3 X179.383 Y38.011 I0.425 J-0.064 E0.05100
G1 Z0.459 X179.780 Y37.764 E0.054
G1 Z0.480 X179.780 Y27.131 E1.318
;LAYER_CHANGE
;Z:0.76
;HEIGHT:0.28
;BEFORE_LAYER_CHANGE
G92 E0
;0.76


G1 Z0.480 F9000.000
;AFTER_LAYER_CHANGE
;0.76
G1 F900
G1 Z0.480 X179.780 Y26.981 E0.01860
G1 Z0.487 X182.455 Y29.225 E0.43289
G1 Z0.493 X182.455 Y32.401 E0.39362
G1 Z0.495 X181.680 Y32.401 E0.09607
G1 Z0.499 X181.680 Y30.401 E0.24793
G1 Z0.501 X180.455 Y30.401 E0.15186
G1 Z0.513 X180.455 Y36.495 E0.75557
G1 Z0.514 X180.652 Y37.015 E0.06893
G1 Z0.515 X181.212 Y37.309 E0.07832
G3 X183.033 Y37.126 Z0.519 I2.083 J11.574 E0.22713
G1 Z0.526 X186.780 Y37.126 E0.46448
G1 Z0.545 X186.780 Y27.254 E1.22375
G1 Z0.547 X187.655 Y26.749 E0.12525
G1 Z0.570 X187.655 Y38.425 E1.44747
G3 X189.330 Y39.836 Z0.574 I-6.247 J9.115 E0.27188
G2 X190.412 Y40.292 Z0.577 I1.255 J-1.466 E0.14772
G1 Z0.578 X191.274 Y40.300 E0.10682
G1 Z0.579 X191.655 Y40.219 E0.04825
G2 X192.280 Y39.281 Z0.581 I-0.418 J-0.956 E0.14672
G1 Z0.596 X192.286 Y31.690 E0.94106
G3 X192.402 Y31.438 Z0.597 I0.430 J0.045 E0.03481
G3 X192.999 Y31.406 Z0.598 I0.316 J0.318 E0.08078
G3 X193.155 Y31.767 Z0.599 I-0.310 J0.348 E0.05020
G1 Z0.616 X193.150 Y40.782 E1.11755
G3 X193.040 Y41.028 Z0.617 I-0.433 J-0.046 E0.03367
G3 X192.808 Y41.162 I-0.322 J-0.289 E0.03364
G1 Z0.622 X190.429 Y41.175 E0.29493
G1 Z0.625 X191.094 Y42.813 E0.21920
G3 X177.246 Y51.619 Z0.669 I-7.976 J2.749 E2.79389
G3 X177.094 Y51.303 Z0.670 I0.314 J-0.346 E0.04429
G3 X177.324 Y50.904 Z0.671 I0.461 J0.000 E0.05960
G3 X177.747 Y50.912 Z0.672 I0.204 J0.374 E0.05454
G2 X183.852 Y38.035 Z0.728 I5.346 J-5.351 E3.59111
G2 X179.704 Y38.783 Z0.736 I-0.631 J8.376 E0.52866
G3 X179.433 Y38.728 Z0.737 I-0.056 J-0.419 E0.03478
G3 X179.222 Y38.414 Z0.738 I0.250 J-0.396 E0.04808
G3 X179.383 Y38.011 I0.425 J-0.064 E0.05600
G1 Z0.739 X179.780 Y37.764 E0.05797
G1 Z0.760 X179.780 Y27.131 E1.31816
M106 S127.5
;LAYER_CHANGE
;Z:1.04
;HEIGHT:0.28
;BEFORE_LAYER_CHANGE
G92 E0
;1.04


G1 Z0.760 F9000.000
;AFTER_LAYER_CHANGE
;1.04
G1 F900
G1 Z0.760 X179.780 Y26.981 E0.01860
G1 Z0.767 X182.455 Y29.225 E0.43289
G1 Z0.773 X182.455 Y32.401 E0.39362
G1 Z0.775 X181.680 Y32.401 E0.09607
G1 Z0.779 X181.680 Y30.401 E0.24793
G1 Z0.781 X180.455 Y30.401 E0.15186
G1 Z0.793 X180.455 Y36.495 E0.75557
G1 Z0.794 X180.652 Y37.015 E0.06893
G1 Z0.795 X181.212 Y37.309 E0.07832
G3 X183.033 Y37.126 Z0.799 I2.083 J11.574 E0.22713
G1 Z0.806 X186.780 Y37.126 E0.46448
G1 Z0.825 X186.780 Y27.254 E1.22375
G1 Z0.827 X187.655 Y26.749 E0.12525
G1 Z0.850 X187.655 Y38.425 E1.44747
G3 X189.331 Y39.837 Z0.854 I-6.248 J9.117 E0.27194
G2 X190.412 Y40.292 Z0.857 I1.254 J-1.468 E0.14766
G1 Z0.858 X191.274 Y40.300 E0.10682
G1 Z0.859 X191.655 Y40.219 E0.04825
G2 X192.280 Y39.281 Z0.861 I-0.418 J-0.956 E0.14672
G1 Z0.876 X192.286 Y31.690 E0.94106
G3 X192.402 Y31.438 Z0.877 I0.430 J0.045 E0.03481
G3 X192.999 Y31.406 Z0.878 I0.316 J0.318 E0.08076
G3 X193.155 Y31.767 Z0.879 I-0.310 J0.348 E0.05020
G1 Z0.896 X193.150 Y40.782 E1.11755
G3 X193.094 Y40.954 Z0.897 I-0.433 J-0.046 E0.02254
G3 X192.808 Y41.162 I-0.384 J-0.227 E0.04474
G1 Z0.902 X190.429 Y41.175 E0.29493
G1 Z0.905 X191.094 Y42.813 E0.21920
G3 X177.246 Y51.619 Z0.949 I-7.976 J2.749 E2.79384
G3 X177.094 Y51.303 Z0.950 I0.314 J-0.346 E0.04429
G3 X177.324 Y50.904 Z0.951 I0.424 J-0.022 E0.05985
G3 X177.747 Y50.912 Z0.952 I0.204 J0.374 E0.05454
G2 X183.852 Y38.035 Z1.008 I5.346 J-5.351 E3.59101
G2 X179.704 Y38.783 Z1.016 I-0.631 J8.376 E0.52866
G3 X179.433 Y38.728 I-0.056 J-0.419 E0.03478
G3 X179.222 Y38.414 Z1.018 I0.250 J-0.396 E0.04808
G3 X179.383 Y38.011 I0.425 J-0.064 E0.05600
G1 Z1.019 X179.780 Y37.764 E0.05797
G1 Z1.040 X179.780 Y27.131 E1.31816
;LAYER_CHANGE
;Z:1.32
;HEIGHT:0.28
;BEFORE_LAYER_CHANGE
G92 E0
;1.32


G1 Z1.040 F9000.000
;AFTER_LAYER_CHANGE
;1.32
G1 F900
G1 Z1.040 X179.780 Y26.981 E0.01860
G1 Z1.047 X182.455 Y29.225 E0.43289
G1 Z1.053 X182.455 Y32.401 E0.39362
G1 Z1.055 X181.680 Y32.401 E0.09607
G1 Z1.059 X181.680 Y30.401 E0.24793
G1 Z1.061 X180.455 Y30.401 E0.15186
G1 Z1.073 X180.455 Y36.495 E0.75557
G1 Z1.074 X180.652 Y37.015 E0.06893
G1 Z1.075 X181.212 Y37.309 E0.07832
G3 X183.033 Y37.126 Z1.079 I2.083 J11.574 E0.22713
G1 Z1.086 X186.780 Y37.126 E0.46448
G1 Z1.105 X186.780 Y27.254 E1.22375
G1 Z1.107 X187.655 Y26.749 E0.12525
G1 Z1.130 X187.655 Y38.425 E1.44747
G3 X189.331 Y39.837 Z1.134 I-6.248 J9.117 E0.27199
G2 X190.399 Y40.292 Z1.136 I1.267 J-1.492 E0.14591
G1 Z1.138 X191.274 Y40.300 E0.10851
G1 Z1.139 X191.655 Y40.219 E0.04825
G2 X192.280 Y39.281 Z1.141 I-0.418 J-0.956 E0.14672
G1 Z1.156 X192.286 Y31.690 E0.94106
G3 X192.402 Y31.438 Z1.157 I0.430 J0.045 E0.03481
G3 X192.999 Y31.406 I0.316 J0.318 E0.08084
G3 X193.155 Y31.767 Z1.159 I-0.310 J0.348 E0.05020
G1 Z1.176 X193.150 Y40.782 E1.11755
G3 X193.040 Y41.028 Z1.177 I-0.433 J-0.046 E0.03367
G3 X192.808 Y41.162 I-0.326 J-0.297 E0.03365
G1 Z1.182 X190.429 Y41.175 E0.29493
G1 Z1.185 X191.094 Y42.813 E0.21920
G3 X177.246 Y51.619 Z1.229 I-7.976 J2.749 E2.79382
G3 X177.094 Y51.303 I0.314 J-0.346 E0.04429
G3 X177.324 Y50.904 Z1.231 I0.461 J0.000 E0.05960
G3 X177.747 Y50.912 I0.204 J0.374 E0.05454
G2 X183.850 Y38.035 Z1.288 I5.346 J-5.351 E3.59118
G2 X179.704 Y38.783 Z1.296 I-0.630 J8.375 E0.52834
G3 X179.433 Y38.728 I-0.056 J-0.419 E0.03478
G3 X179.222 Y38.414 Z1.298 I0.250 J-0.396 E0.04808
G3 X179.383 Y38.011 I0.425 J-0.064 E0.05600
G1 Z1.299 X179.780 Y37.764 E0.05797
G1 Z1.320 X179.780 Y27.131 E1.31816
;LAYER_CHANGE
;Z:1.6
;HEIGHT:0.28
;BEFORE_LAYER_CHANGE
G92 E0
;1.6


G1 Z1.320 F9000.000
;AFTER_LAYER_CHANGE
;1.6
G1 F900
G1 Z1.320 X179.780 Y26.981 E0.01860
G1 Z1.327 X182.455 Y29.225 E0.43289
G1 Z1.333 X182.455 Y32.401 E0.39362
G1 Z1.335 X181.680 Y32.401 E0.09607
G1 Z1.339 X181.680 Y30.401 E0.24793
G1 Z1.341 X180.455 Y30.401 E0.15186
G1 Z1.353 X180.455 Y36.495 E0.75557
G1 Z1.354 X180.652 Y37.015 E0.06893
G1 Z1.355 X181.212 Y37.309 E0.07832
G3 X183.033 Y37.126 Z1.359 I2.083 J11.574 E0.22713
G1 Z1.366 X186.780 Y37.126 E0.46448
G1 Z1.385 X186.780 Y27.254 E1.22375
G1 Z1.387 X187.655 Y26.749 E0.12525
G1 Z1.410 X187.655 Y38.425 E1.44747
G3 X189.331 Y39.837 Z1.414 I-6.248 J9.117 E0.27205
G2 X190.412 Y40.292 Z1.417 I1.257 J-1.475 E0.14754
G1 Z1.418 X191.274 Y40.300 E0.10682
G1 Z1.419 X191.655 Y40.219 E0.04825
G2 X192.280 Y39.281 Z1.421 I-0.418 J-0.956 E0.14672
G1 Z1.436 X192.286 Y31.690 E0.94106
G3 X192.402 Y31.438 Z1.437 I0.430 J0.045 E0.03481
G3 X192.999 Y31.406 I0.316 J0.318 E0.08079
G3 X193.155 Y31.767 Z1.439 I-0.310 J0.348 E0.05020
G1 Z1.456 X193.150 Y40.782 E1.11755
G3 X193.040 Y41.028 Z1.457 I-0.433 J-0.046 E0.03367
G3 X192.808 Y41.162 I-0.326 J-0.297 E0.03365
G1 Z1.462 X190.429 Y41.175 E0.29493
G1 Z1.465 X191.094 Y42.813 E0.21920
G3 X177.246 Y51.619 Z1.509 I-7.979 J2.744 E2.79380
G3 X177.094 Y51.303 Z1.510 I0.314 J-0.346 E0.04429
G3 X177.324 Y50.904 Z1.511 I0.420 J-0.024 E0.05983
G3 X177.747 Y50.912 I0.204 J0.374 E0.05454
G2 X183.849 Y38.034 Z1.568 I5.346 J-5.351 E3.59138
G2 X179.704 Y38.783 Z1.576 I-0.625 J8.385 E0.52827
G3 X179.433 Y38.728 I-0.056 J-0.419 E0.03478
G3 X179.222 Y38.414 I0.250 J-0.396 E0.04808
G3 X179.383 Y38.011 I0.425 J-0.064 E0.05600
G1 Z1.579 X179.780 Y37.764 E0.05797
G1 Z1.600 X179.780 Y27.131 E1.31816
;LAYER_CHANGE
;Z:1.88
;HEIGHT:0.28
;BEFORE_LAYER_CHANGE
G92 E0
;1.88


G1 Z1.600 F9000.000
;AFTER_LAYER_CHANGE
;1.88
G1 F900
G1 Z1.600 X179.780 Y26.981 E0.01860
G1 Z1.607 X182.455 Y29.225 E0.43289
G1 Z1.613 X182.455 Y32.401 E0.39362
G1 Z1.615 X181.680 Y32.401 E0.09607
G1 Z1.619 X181.680 Y30.401 E0.24793
G1 Z1.621 X180.455 Y30.401 E0.15186
G1 Z1.633 X180.455 Y36.495 E0.75557
G1 Z1.634 X180.652 Y37.015 E0.06893
G1 Z1.635 X181.212 Y37.309 E0.07832
G3 X183.033 Y37.126 Z1.639 I2.083 J11.574 E0.22713
G1 Z1.646 X186.780 Y37.126 E0.46448
G1 Z1.665 X186.780 Y27.254 E1.22375
G1 Z1.667 X187.655 Y26.749 E0.12525
G1 Z1.690 X187.655 Y38.425 E1.44747
G3 X189.332 Y39.838 Z1.694 I-6.249 J9.119 E0.27210
G2 X190.412 Y40.292 Z1.697 I1.257 J-1.478 E0.14750
G1 Z1.698 X191.274 Y40.300 E0.10682
G1 Z1.699 X191.655 Y40.219 E0.04825
G2 X192.280 Y39.281 Z1.701 I-0.418 J-0.956 E0.14672
G1 Z1.716 X192.286 Y31.690 E0.94106
G3 X192.402 Y31.438 Z1.717 I0.430 J0.045 E0.03481
G3 X192.999 Y31.406 I0.316 J0.318 E0.08084
G3 X193.155 Y31.767 I-0.310 J0.348 E0.05020
G1 Z1.736 X193.150 Y40.782 E1.11755
G3 X193.040 Y41.028 Z1.737 I-0.433 J-0.046 E0.03367
G3 X192.808 Y41.162 I-0.330 J-0.303 E0.03361
G1 Z1.742 X190.429 Y41.175 E0.29493
G1 Z1.745 X191.094 Y42.813 E0.21920
G3 X177.246 Y51.619 Z1.789 I-7.976 J2.749 E2.79385
G3 X177.108 Y51.396 I0.339 J-0.364 E0.03277
G3 X177.324 Y50.904 I0.425 J-0.107 E0.07146
G3 X177.747 Y50.912 Z1.792 I0.204 J0.374 E0.05454
G2 X183.852 Y38.035 Z1.848 I5.346 J-5.351 E3.59097
G2 X179.704 Y38.783 Z1.856 I-0.631 J8.376 E0.52866
G3 X179.433 Y38.728 Z1.857 I-0.056 J-0.419 E0.03478
G3 X179.222 Y38.414 Z1.858 I0.250 J-0.396 E0.04808
G3 X179.383 Y38.011 I0.425 J-0.064 E0.05600
G1 Z1.859 X179.780 Y37.764 E0.05797
G1 Z1.880 X179.780 Y27.131 E1.31816
;LAYER_CHANGE
;Z:2.16
;HEIGHT:0.28
;BEFORE_LAYER_CHANGE
G92 E0
;2.16


G1 Z1.880 F9000.000
;AFTER_LAYER_CHANGE
;2.16
G1 F900
G1 Z1.880 X179.780 Y26.981 E0.01860
G1 Z1.887 X182.455 Y29.225 E0.43289
G1 Z1.893 X182.455 Y32.401 E0.39362
G1 Z1.895 X181.680 Y32.401 E0.09607
G1 Z1.899 X181.680 Y30.401 E0.24793
G1 Z1.901 X180.455 Y30.401 E0.15186
G1 Z1.913 X180.455 Y36.495 E0.75557
G1 Z1.914 X180.652 Y37.015 E0.06893
G1 Z1.915 X181.212 Y37.309 E0.07832
G3 X183.033 Y37.126 Z1.919 I2.083 J11.574 E0.22713
G1 Z1.926 X186.780 Y37.126 E0.46448
G1 Z1.945 X186.780 Y27.254 E1.22375
