; generated by PrusaSlicer 2.3.3+x64 on 2021-12-16 at 17:52:18 UTC
; Postprocessed by [ArcWelder](https://github.com/FormerLurker/ArcWelderLib)
; Copyright(C) 2021 - Brad Hochgesang
; Version: 1.2.0, Branch: master, BuildDate: 2021-11-22T09:56:32Z
; resolution=0.05mm
; path_tolerance=5.0%
; max_radius=9999.00mm
; allow_3d_arcs=True
; default_xyz_precision=3
; default_e_precision=5
; extrusion_rate_variance_percent=5.0%

; external perimeters extrusion width = 1.12mm
; perimeters extrusion width = 1.12mm
; infill extrusion width = 1.12mm
; solid infill extrusion width = 1.12mm
; top infill extrusion width = 1.00mm

M201 X500 Y500 Z100 E5000 ; sets maximum accelerations, mm/sec^2
M203 X500 Y500 Z10 E60 ; sets maximum feedrates, mm/sec
M204 P500 R1000 T500 ; sets acceleration (P, T) and retract acceleration (R), mm/sec^2
M205 X8.00 Y8.00 Z0.40 E5.00 ; sets the jerk limits, mm/sec
M205 S0 T0 ; sets the minimum extruding and travel feed rate, mm/sec
M107 ; disable fan
;TYPE:Custom
G90 ; use absolute coordinates
M83 ; extruder relative mode
M104 S230 ; set extruder temp
M140 S70 ; set bed temp
G28 ; home all
M420 S1  ; restore ABL mesh
G1 Z10.0; Move Z Axis up to prevent from heating up too close to the bed
M190 S70 ; wait for bed temp
M109 S230 ; wait for extruder temp

M221 S100 ; set flow rate to 100%

; Purge line at the side of the print bed
G1 Z2 F240
G1 X2 Y10 F3000
G1 Z0.28 F240
G92 E0
G1 Y190 E15 F1500 ; intro line
G1 X2.3 F5000
G92 E0
G1 Y10 E15 F1200 ; intro line
G92 E0
G21 ; set units to millimeters
G90 ; use absolute coordinates
M83 ; use relative distances for extrusion
; Filament gcode
;LAYER_CHANGE
;Z:0.28
;HEIGHT:0.28
;BEFORE_LAYER_CHANGE
G92 E0
;0.28


G1 E-5.00000 F3600.000 ; retract
G1 Z0.280 F9000.000 ; move to next layer (0)
;AFTER_LAYER_CHANGE
;0.28
G1 X26.859 Y48.544 ; move to first skirt point
G1 E5.00000 F2400.000 ; unretract
M204 S500 ; adjust acceleration
;TYPE:Skirt
;WIDTH:1.125
G1 F1200.000
G1 X28.366 Y47.732 E0.21230 ; skirt
G3 X31.628 Y47.016 I3.510 J8.203 E0.41614; skirt
G1 X200.481 Y47.016 E20.93222 ; skirt
G1 X201.877 Y47.167 E0.17400 ; skirt
G3 X203.711 Y47.716 I-1.576 J8.602 E0.23775; skirt
G1 X205.367 Y48.622 E0.23396 ; skirt
G1 X206.762 Y49.814 E0.22747 ; skirt
G1 X207.917 Y51.311 E0.23438 ; skirt
G1 X210.906 Y56.318 E0.72288 ; skirt
G1 X211.425 Y57.472 E0.15679 ; skirt
G1 X211.703 Y58.650 E0.15014 ; skirt
G1 X211.770 Y59.566 E0.11386 ; skirt
G1 X211.759 Y93.983 E4.26647 ; skirt
G1 X211.473 Y95.200 E0.15499 ; skirt
G1 X210.831 Y96.273 E0.15499 ; skirt
G1 X209.894 Y97.100 E0.15499 ; skirt
G1 X208.744 Y97.604 E0.15560 ; skirt
G1 X207.710 Y97.739 E0.12931 ; skirt
G1 X23.846 Y97.739 E22.79307 ; skirt

; vhr added move
G1 X23.846 Y96
G1 X207.710 Y96 E22.79307 ; skirt

