; generated by PrusaSlicer 2.3.3+x64 on 2021-12-09 at 12:29:36 UTC
; Postprocessed by [ArcWelder](https://github.com/FormerLurker/ArcWelderLib)
; Copyright(C) 2021 - Brad Hochgesang
; Version: 1.2.0, Branch: master, BuildDate: 2021-11-22T09:56:32Z
; resolution=0.05mm
; path_tolerance=5.0%
; max_radius=9999.00mm
; allow_3d_arcs=True
; default_xyz_precision=3
; default_e_precision=5
; extrusion_rate_variance_percent=5.0%


; 

; external perimeters extrusion width = 1.12mm
; perimeters extrusion width = 1.12mm
; infill extrusion width = 1.12mm
; solid infill extrusion width = 1.12mm
; top infill extrusion width = 0.45mm

M201 X500 Y500 Z100 E5000 ; sets maximum accelerations, mm/sec^2
M203 X500 Y500 Z10 E60 ; sets maximum feedrates, mm/sec
M204 P500 R1000 T500 ; sets acceleration (P, T) and retract acceleration (R), mm/sec^2
M205 X8.00 Y8.00 Z0.40 E5.00 ; sets the jerk limits, mm/sec
M205 S0 T0 ; sets the minimum extruding and travel feed rate, mm/sec
M107
;TYPE:Custom
G90 ; use absolute coordinates
M83 ; extruder relative mode
M104 S230 ; set extruder temp
M140 S70 ; set bed temp
G28 ; home all
;G1 Z10.0; Move Z Axis up to prevent from heating up too close to the bed
M190 S70 ; wait for bed temp
M109 S230 ; wait for extruder temp
G1 Z2 F240
G1 X2 Y10 F3000
G1 Z0.28 F240
G92 E0
G1 Y190 E15 F1500 ; intro line
G1 X2.3 F5000
G92 E0
G1 Y10 E15 F1200 ; intro line
G92 E0
G21 ; set units to millimeters
G90 ; use absolute coordinates
M83 ; use relative distances for extrusion
; Filament gcode
;LAYER_CHANGE
;Z:0.2
;HEIGHT:0.2
;BEFORE_LAYER_CHANGE
G92 E0
;0.2


G1 Z0.200 F9000.000
;AFTER_LAYER_CHANGE
;0.2
G1 E-5.00000 F3600.000
G1 X33.395 Y17.766 F9000.000
G1 E5.00000 F2400.000
M204 S500
;TYPE:Skirt
;WIDTH:1.125
G1 F1200.000
G1 X34.006 Y16.677 E0.11233
G1 X34.599 Y16.052 E0.07752
G1 X35.387 Y15.516 E0.08572
G1 X36.232 Y15.181 E0.08180
G1 X37.228 Y15.031 E0.09067
G1 X193.743 Y15.031 E14.08246
G3 X197.818 Y18.539 I-0.101 J4.238 E0.52325
G1 X198.568 Y43.583 E2.25430
G1 X198.569 Y201.855 E14.24058
G1 X197.543 Y211.485 E0.87139
G1 X197.274 Y212.449 E0.09002
G1 X196.650 Y213.490 E0.10922
G1 X195.946 Y214.160 E0.08743
G1 X195.186 Y214.608 E0.07935
G1 X194.313 Y214.889 E0.08252
G1 X193.473 Y214.969 E0.07593
G1 X37.415 Y214.968 E14.04136
G1 X36.161 Y214.743 E0.11465
G3 X33.494 Y211.706 I1.344 J-3.869 E0.37996
G1 X32.432 Y201.843 E0.89258
G1 X32.431 Y43.611 E14.23693
G1 X33.122 Y19.123 E2.20420
G3 X33.354 Y17.910 I3.633 J0.066 E0.11149
G1 E-3.50000 F3600.000
;WIPE_START
G1 F7200.000
G1 X34.006 Y16.677 E-0.66261
G3 X35.214 Y15.634 I2.995 J2.248 E-0.76239
;WIPE_END
G1 E-0.07500 F3600.000
G1 X179.351 Y19.290 F9000.000
G1 E5.00000 F2400.000
;TYPE:External perimeter
G1 F1200.000
G3 X180.261 Y18.986 I0.501 J-0.014 E0.11444
G3 X181.484 Y21.969 I-26.634 J12.662 E0.29018
G1 X182.408 Y25.151 E0.29817
G1 X182.989 Y28.409 E0.29772
G1 X183.219 Y31.710 E0.29775
G1 X183.136 Y34.103 E0.21546
G2 X183.267 Y35.815 I10.819 J0.033 E0.15458
G3 X185.526 Y35.205 I4.198 J11.058 E0.21079
G3 X188.759 Y35.366 I1.218 J8.091 E0.29300
G1 X190.220 Y35.815 E0.13754
G2 X190.350 Y34.103 I-10.435 J-1.653 E0.15458
G1 X190.267 Y31.710 E0.21546
G1 X190.498 Y28.409 E0.29775
G1 X191.079 Y25.151 E0.29772
G1 X192.002 Y21.969 E0.29817
G3 X193.225 Y18.986 I27.857 J9.679 E0.29018
G3 X194.121 Y19.405 I0.409 J0.292 E0.12478
G3 X193.185 Y21.927 I-23.011 J-7.105 E0.24209
G1 X192.473 Y24.659 E0.25407
G1 X192.060 Y27.449 E0.25376
G1 X191.940 Y30.266 E0.25369
G1 X192.115 Y33.080 E0.25369
G1 X192.584 Y35.863 E0.25392
G2 X193.311 Y38.100 I13.373 J-3.110 E0.21187
G1 X193.448 Y38.591 E0.04583
G3 X194.066 Y46.961 I-6.730 J4.705 E0.79218
G2 X193.259 Y48.465 I6.954 J4.700 E0.15367
G2 X193.735 Y52.270 I3.798 J1.457 E0.35914
G2 X193.829 Y52.533 I0.332 J0.030 E0.02560
G3 X193.239 Y52.949 I-0.342 J0.141 E0.08814
G3 X192.620 Y52.105 I1.382 J-1.662 E0.09518
G3 X192.649 Y47.688 I4.457 J-2.179 E0.41169
G2 X193.983 Y44.334 I-7.021 J-4.735 E0.32730
G2 X192.749 Y39.128 I-7.233 J-1.035 E0.49265
G1 X191.811 Y37.907 E0.13855
G2 X190.477 Y36.927 I-3.765 J3.727 E0.14936
G1 X189.052 Y36.361 E0.13792
G2 X184.434 Y36.361 I-2.309 J6.941 E0.42254
G1 X183.009 Y36.927 E0.13792
G2 X181.676 Y37.907 I2.416 J4.683 E0.14936
G1 X180.738 Y39.128 E0.13855
G2 X180.200 Y46.566 I6.000 J4.172 E0.70387
G3 X181.043 Y48.153 I-7.346 J4.919 E0.16185
G3 X180.507 Y52.712 I-4.604 J1.770 E0.42947
G3 X179.904 Y53.028 I-0.612 J-0.435 E0.06422
G3 X179.644 Y52.556 I0.111 J-0.369 E0.05311
G3 X179.879 Y52.088 I0.809 J0.113 E0.04779
G2 X180.058 Y48.082 I-3.473 J-2.162 E0.37687
G3 X178.575 Y42.746 I7.346 J-4.916 E0.50723
G3 X180.039 Y38.591 I8.274 J0.580 E0.40096
G3 X180.504 Y37.243 I7.426 J1.807 E0.12843
G1 X180.903 Y35.863 E0.12925
G1 X181.371 Y33.080 E0.25392
G1 X181.546 Y30.266 E0.25369
G1 X181.427 Y27.449 E0.25369
G1 X181.013 Y24.659 E0.25376
G1 X180.301 Y21.927 E0.25407
G3 X179.376 Y19.437 I21.556 J-9.425 E0.23904
;LAYER_CHANGE
;Z:0.4
;HEIGHT:0.2
;BEFORE_LAYER_CHANGE
G92 E0
;0.4


G1 Z0.200 F9000.000
;AFTER_LAYER_CHANGE
;0.4
G1 F900
G1 Z0.200 X179.251 Y19.289 E0.000
G1 Z0.200 X179.262 Y19.166 E0.000
G1 Z0.201 X179.301 Y19.036 E0.000
G1 Z0.201 X179.364 Y18.925 E0.000
G1 Z0.201 X179.450 Y18.829 E0.000
G1 Z0.201 X179.554 Y18.753 E0.000
G1 Z0.201 X179.667 Y18.704 E0.000
G1 Z0.201 X179.800 Y18.676 E0.000
G1 Z0.202 X179.928 Y18.679 E0.000
G1 Z0.202 X180.053 Y18.708 E0.000
G1 Z0.202 X180.169 Y18.764 E0.000
G1 Z0.202 X180.337 Y18.923 E0.000
G1 Z0.206 X181.578 Y21.942 E0.009
G1 Z0.210 X182.505 Y25.129 E0.015
G1 Z0.214 X183.088 Y28.397 E0.022
G1 Z0.219 X183.320 Y31.708 E0.028
G1 Z0.224 X183.166 Y35.846 E0.044
G1 Z0.226 X184.728 Y35.366 E0.019
G3 X186.336 Y35.124 Z0.228 I2.017 J7.940 E0.02000
G3 X188.759 Y35.366 Z0.231 I0.405 J8.191 E0.03300
G1 Z0.233 X190.320 Y35.846 E0.024
G1 Z0.238 X190.167 Y31.708 E0.071
G1 Z0.242 X190.391 Y28.497 E0.061
G1 Z0.246 X190.981 Y25.128 E0.071
G1 Z0.251 X191.909 Y21.942 E0.075
G1 Z0.255 X193.149 Y18.923 E0.080
G1 Z0.255 X193.313 Y18.768 E0.006
G1 Z0.255 X193.435 Y18.708 E0.003
G3 X193.809 Y18.701 Z0.256 I0.197 J0.543 E0.00900
G1 Z0.256 X193.934 Y18.754 E0.003
G1 Z0.256 X194.037 Y18.829 E0.003
G3 X194.223 Y19.155 I-0.403 J0.446 E0.00900
G1 Z0.257 X194.235 Y19.291 E0.003
G1 Z0.257 X194.219 Y19.414 E0.003
G1 Z0.260 X193.271 Y21.959 E0.073
G1 Z0.264 X192.571 Y24.680 E0.080
G1 Z0.267 X192.160 Y27.458 E0.085
G1 Z0.271 X192.040 Y30.265 E0.089
G1 Z0.274 X192.215 Y33.069 E0.094
G1 Z0.278 X192.681 Y35.839 E0.098
G1 Z0.281 X193.448 Y38.591 E0.104
G3 X194.066 Y46.961 Z0.292 I-6.730 J4.705 E0.34600
G1 Z0.294 X193.428 Y48.082 E0.054
G2 X193.241 Y51.336 Z0.298 I3.647 J1.842 E0.14300
G2 X193.868 Y52.460 Z0.300 I3.887 J-1.432 E0.05800
G3 X193.671 Y53.107 Z0.301 I-0.363 J0.243 E0.03300
G3 X193.305 Y53.090 I-0.165 J-0.402 E0.01800
G3 X193.149 Y52.955 I0.233 J-0.427 E0.00900
G3 X192.649 Y47.688 Z0.308 I3.928 J-3.030 E0.26400
G2 X193.983 Y44.334 Z0.313 I-7.021 J-4.735 E0.18200
G2 X180.200 Y46.566 Z0.347 I-7.240 J-1.034 E1.60600
G3 X181.043 Y48.153 Z0.349 I-7.346 J4.919 E0.12000
G3 X180.209 Y53.072 Z0.356 I-4.507 J1.766 E0.35900
G3 X180.048 Y53.134 I-0.220 J-0.332 E0.01300
G3 X179.624 Y52.950 Z0.357 I-0.054 J-0.455 E0.03400
G1 Z0.357 X179.584 Y52.882 E0.006
G1 Z0.357 X179.546 Y52.697 E0.013
G1 Z0.357 X179.586 Y52.525 E0.012
G1 Z0.358 X179.881 Y52.083 E0.038
G2 X180.058 Y48.082 Z0.363 I-3.471 J-2.158 E0.30200
G3 X178.575 Y42.746 Z0.370 I7.346 J-4.916 E0.42400
G3 X180.039 Y38.590 Z0.376 I8.283 J0.582 E0.34700
G1 Z0.379 X180.805 Y35.839 E0.230
G1 Z0.383 X181.272 Y33.069 E0.231
G1 Z0.386 X181.446 Y30.265 E0.235
G1 Z0.390 X181.327 Y27.458 E0.240
G1 Z0.393 X180.915 Y24.680 E0.244
G1 Z0.397 X180.215 Y21.959 E0.249
G1 Z0.400 X179.289 Y19.470 E0.239
;LAYER_CHANGE
;Z:0.6
;HEIGHT:0.2
;BEFORE_LAYER_CHANGE
G92 E0
;0.6


G1 Z0.400 F9000.000
;AFTER_LAYER_CHANGE
;0.6
G1 F900
G3 X179.302 Y19.035 Z0.401 I0.539 J-0.202 E0.04002
G3 X179.928 Y18.679 Z0.402 I0.549 J0.237 E0.06933
G3 X180.337 Y18.923 I-0.070 J0.581 E0.04404
G1 Z0.406 X181.578 Y21.942 E0.29363
G1 Z0.410 X182.505 Y25.129 E0.29866
G1 Z0.414 X183.088 Y28.397 E0.29866
G1 Z0.419 X183.320 Y31.708 E0.29866
G1 Z0.424 X183.166 Y35.846 E0.37260
G1 Z0.426 X184.728 Y35.366 E0.14701
G3 X188.759 Y35.366 Z0.431 I2.015 J7.931 E0.36624
G1 Z0.433 X190.320 Y35.846 E0.14701
G1 Z0.438 X190.167 Y31.708 E0.37260
G1 Z0.442 X190.398 Y28.397 E0.29866
G1 Z0.446 X190.981 Y25.129 E0.29866
G1 Z0.451 X191.909 Y21.942 E0.29866
G1 Z0.455 X193.149 Y18.923 E0.29363
G3 X193.805 Y18.700 Z0.456 I0.484 J0.346 E0.06638
G3 X194.235 Y19.292 Z0.457 I-0.167 J0.574 E0.07071
G1 Z0.457 X194.219 Y19.414 E0.01107
G1 Z0.460 X193.271 Y21.959 E0.24436
G1 Z0.464 X192.571 Y24.680 E0.25274
G1 Z0.467 X192.160 Y27.458 E0.25274
G1 Z0.471 X192.040 Y30.265 E0.25274
G1 Z0.474 X192.215 Y33.069 E0.25274
G1 Z0.478 X192.681 Y35.839 E0.25274
G1 Z0.481 X193.448 Y38.591 E0.25709
G3 X194.066 Y46.961 Z0.492 I-6.730 J4.705 E0.79216
G2 X193.259 Y48.465 Z0.494 I6.954 J4.700 E0.15365
G2 X193.868 Y52.460 Z0.500 I3.828 J1.460 E0.38011
G3 X193.671 Y53.107 Z0.501 I-0.363 J0.243 E0.06910
G3 X193.149 Y52.955 I-0.164 J-0.408 E0.05240
G3 X192.649 Y47.688 Z0.508 I3.928 J-3.030 E0.50191
G2 X193.983 Y44.334 Z0.513 I-7.021 J-4.735 E0.32730
G2 X180.200 Y46.566 Z0.547 I-7.240 J-1.034 E2.46396
G3 X181.043 Y48.153 Z0.549 I-7.346 J4.919 E0.16185
G3 X180.209 Y53.072 Z0.556 I-4.521 J1.764 E0.47176
G3 X179.624 Y52.950 Z0.557 I-0.229 J-0.366 E0.05902
G3 X179.586 Y52.525 I0.346 J-0.245 E0.04003
G2 X180.058 Y48.082 Z0.563 I-3.226 J-2.589 E0.42420
G3 X178.575 Y42.746 Z0.570 I7.346 J-4.916 E0.50723
G3 X180.039 Y38.591 Z0.576 I8.274 J0.580 E0.40094
G1 Z0.579 X180.805 Y35.839 E0.25709
G1 Z0.583 X181.272 Y33.069 E0.25274
G1 Z0.586 X181.446 Y30.265 E0.25274
G1 Z0.590 X181.327 Y27.458 E0.25274
G1 Z0.593 X180.915 Y24.680 E0.25274
G1 Z0.597 X180.215 Y21.959 E0.25274
G1 Z0.600 X179.289 Y19.470 E0.23903
M106 S127.5
;LAYER_CHANGE
;Z:0.8
;HEIGHT:0.2
;BEFORE_LAYER_CHANGE
G92 E0
;0.8


G1 Z0.600 F9000.000
;AFTER_LAYER_CHANGE
;0.8
G1 F900
G3 X179.300 Y19.037 Z0.601 I0.541 J-0.203 E0.03978
G3 X179.931 Y18.680 Z0.602 I0.550 J0.237 E0.06996
G3 X180.337 Y18.923 I-0.070 J0.578 E0.04368
G1 Z0.606 X181.578 Y21.942 E0.29363
G1 Z0.610 X182.505 Y25.129 E0.29866
G1 Z0.614 X183.088 Y28.397 E0.29866
G1 Z0.619 X183.320 Y31.708 E0.29866
G1 Z0.624 X183.166 Y35.846 E0.37260
G1 Z0.626 X184.728 Y35.366 E0.14701
G3 X188.759 Y35.366 Z0.631 I2.015 J7.931 E0.36624
G1 Z0.633 X190.320 Y35.846 E0.14701
G1 Z0.638 X190.167 Y31.708 E0.37260
G1 Z0.642 X190.398 Y28.397 E0.29866
G1 Z0.646 X190.981 Y25.129 E0.29866
G1 Z0.651 X191.909 Y21.942 E0.29866
G1 Z0.655 X193.149 Y18.923 E0.29363
G3 X193.801 Y18.699 Z0.656 I0.483 J0.345 E0.06603
G3 X194.235 Y19.289 Z0.657 I-0.163 J0.574 E0.07082
G1 Z0.657 X194.219 Y19.414 E0.01133
G1 Z0.660 X193.271 Y21.959 E0.24436
G1 Z0.664 X192.571 Y24.680 E0.25274
G1 Z0.667 X192.160 Y27.458 E0.25274
G1 Z0.671 X192.040 Y30.265 E0.25274
G1 Z0.674 X192.215 Y33.069 E0.25274
G1 Z0.678 X192.681 Y35.839 E0.25274
G1 Z0.681 X193.448 Y38.591 E0.25709
G3 X194.066 Y46.961 Z0.692 I-6.730 J4.705 E0.79218
G2 X193.259 Y48.465 Z0.694 I6.954 J4.700 E0.15365
G2 X193.868 Y52.460 Z0.700 I3.828 J1.460 E0.38011
G3 X193.671 Y53.107 Z0.701 I-0.363 J0.243 E0.06910
G3 X193.149 Y52.955 I-0.164 J-0.408 E0.05242
G3 X192.649 Y47.688 Z0.708 I3.928 J-3.030 E0.50191
G2 X193.983 Y44.334 Z0.713 I-7.021 J-4.735 E0.32730
G2 X180.200 Y46.566 Z0.747 I-7.240 J-1.034 E2.46398
G3 X181.043 Y48.153 Z0.749 I-7.346 J4.919 E0.16185
G3 X180.209 Y53.072 Z0.756 I-4.525 J1.763 E0.47176
G3 X179.624 Y52.950 Z0.757 I-0.229 J-0.366 E0.05902
G3 X179.586 Y52.525 I0.353 J-0.246 E0.04002
G2 X180.058 Y48.082 Z0.763 I-3.226 J-2.589 E0.42420
G3 X178.575 Y42.746 Z0.770 I7.346 J-4.916 E0.50723
G3 X180.039 Y38.591 Z0.776 I8.274 J0.580 E0.40094
G1 Z0.779 X180.805 Y35.839 E0.25709
G1 Z0.783 X181.272 Y33.069 E0.25274
G1 Z0.786 X181.446 Y30.265 E0.25274
G1 Z0.790 X181.327 Y27.458 E0.25274
G1 Z0.793 X180.915 Y24.680 E0.25274
G1 Z0.797 X180.215 Y21.959 E0.25274
G1 Z0.800 X179.289 Y19.470 E0.23903
;LAYER_CHANGE
;Z:1
;HEIGHT:0.2
;BEFORE_LAYER_CHANGE
G92 E0
;1


G1 Z0.800 F9000.000
;AFTER_LAYER_CHANGE
;1
G1 F900
G3 X179.303 Y19.033 Z0.801 I0.558 J-0.201 E0.04019
G3 X179.928 Y18.679 Z0.802 I0.548 J0.239 E0.06912
G3 X180.337 Y18.923 I-0.070 J0.581 E0.04404
G1 Z0.806 X181.578 Y21.942 E0.29363
G1 Z0.810 X182.505 Y25.129 E0.29866
G1 Z0.814 X183.088 Y28.397 E0.29866
G1 Z0.819 X183.320 Y31.708 E0.29866
G1 Z0.824 X183.166 Y35.846 E0.37260
G1 Z0.826 X184.728 Y35.366 E0.14701
G3 X188.759 Y35.366 Z0.831 I2.015 J7.931 E0.36625
G1 Z0.833 X190.320 Y35.846 E0.14701
G1 Z0.838 X190.167 Y31.708 E0.37260
G1 Z0.842 X190.398 Y28.397 E0.29866
G1 Z0.846 X190.981 Y25.129 E0.29866
G1 Z0.851 X191.909 Y21.942 E0.29866
G1 Z0.855 X193.149 Y18.923 E0.29363
G3 X193.797 Y18.698 Z0.856 I0.483 J0.345 E0.06567
G3 X194.235 Y19.289 Z0.857 I-0.159 J0.575 E0.07116
G1 Z0.857 X194.219 Y19.414 E0.01133
G1 Z0.860 X193.271 Y21.959 E0.24436
G1 Z0.864 X192.571 Y24.680 E0.25274
G1 Z0.867 X192.160 Y27.458 E0.25274
G1 Z0.871 X192.040 Y30.265 E0.25274
G1 Z0.874 X192.215 Y33.069 E0.25274
G1 Z0.878 X192.681 Y35.839 E0.25274
G1 Z0.881 X193.448 Y38.591 E0.25709
G3 X194.066 Y46.961 Z0.892 I-6.730 J4.705 E0.79215
G2 X193.259 Y48.465 Z0.894 I6.954 J4.700 E0.15365
G2 X193.868 Y52.460 Z0.900 I3.828 J1.460 E0.38011
G3 X193.671 Y53.107 Z0.901 I-0.363 J0.243 E0.06910
G3 X193.149 Y52.955 I-0.164 J-0.408 E0.05242
G3 X192.649 Y47.688 Z0.908 I3.928 J-3.030 E0.50191
G2 X193.983 Y44.334 Z0.913 I-7.021 J-4.735 E0.32730
G2 X180.200 Y46.566 Z0.947 I-7.240 J-1.034 E2.46386
G3 X181.043 Y48.153 Z0.949 I-7.346 J4.919 E0.16185
G3 X180.209 Y53.072 Z0.956 I-4.507 J1.766 E0.47178
G3 X179.624 Y52.950 Z0.957 I-0.229 J-0.366 E0.05902
G3 X179.586 Y52.525 I0.346 J-0.245 E0.04003
G2 X180.058 Y48.082 Z0.963 I-3.226 J-2.589 E0.42420
G3 X178.575 Y42.746 Z0.970 I7.346 J-4.916 E0.50723
G3 X180.040 Y38.589 Z0.976 I8.279 J0.581 E0.40112
G1 Z0.979 X180.805 Y35.839 E0.25686
G1 Z0.983 X181.272 Y33.069 E0.25274
G1 Z0.986 X181.446 Y30.265 E0.25274
G1 Z0.990 X181.327 Y27.458 E0.25274
G1 Z0.993 X180.915 Y24.680 E0.25274
G1 Z0.997 X180.215 Y21.959 E0.25274
G1 Z1.000 X179.289 Y19.470 E0.23903
;LAYER_CHANGE
;Z:1.2
;HEIGHT:0.2
;BEFORE_LAYER_CHANGE
G92 E0
;1.2


G1 Z1.000 F9000.000
;AFTER_LAYER_CHANGE
;1.2
G1 F900
G3 X179.300 Y19.037 I0.541 J-0.203 E0.03978
G3 X179.928 Y18.679 Z1.002 I0.552 J0.238 E0.06946
G3 X180.337 Y18.923 I-0.070 J0.581 E0.04404
G1 Z1.006 X181.578 Y21.942 E0.29363
G1 Z1.010 X182.505 Y25.129 E0.29866
G1 Z1.014 X183.088 Y28.397 E0.29866
G1 Z1.019 X183.320 Y31.708 E0.29866
G1 Z1.024 X183.166 Y35.846 E0.37260
G1 Z1.026 X184.728 Y35.366 E0.14701
G3 X188.759 Y35.366 Z1.031 I2.015 J7.931 E0.36625
G1 Z1.033 X190.320 Y35.846 E0.14701
G1 Z1.038 X190.167 Y31.708 E0.37260
G1 Z1.042 X190.398 Y28.397 E0.29866
G1 Z1.046 X190.981 Y25.129 E0.29866
G1 Z1.051 X191.909 Y21.942 E0.29866
G1 Z1.055 X193.149 Y18.923 E0.29363
G3 X193.937 Y18.757 Z1.056 I0.485 J0.348 E0.07917
G3 X194.235 Y19.289 I-0.300 J0.518 E0.05748
G1 Z1.057 X194.219 Y19.414 E0.01133
G1 Z1.060 X193.271 Y21.959 E0.24436
G1 Z1.064 X192.571 Y24.680 E0.25274
G1 Z1.067 X192.160 Y27.458 E0.25274
G1 Z1.071 X192.040 Y30.265 E0.25274
G1 Z1.074 X192.215 Y33.069 E0.25274
G1 Z1.078 X192.681 Y35.839 E0.25274
G1 Z1.081 X193.448 Y38.591 E0.25709
G3 X194.066 Y46.961 Z1.092 I-6.730 J4.705 E0.79218
G2 X193.258 Y48.467 Z1.094 I6.982 J4.716 E0.15390
G2 X193.868 Y52.460 Z1.100 I3.830 J1.458 E0.37984
G3 X193.671 Y53.107 I-0.363 J0.243 E0.06910
G3 X193.149 Y52.955 I-0.164 J-0.408 E0.05239
G3 X192.649 Y47.688 Z1.108 I3.928 J-3.030 E0.50187
G2 X193.983 Y44.334 Z1.113 I-7.021 J-4.735 E0.32730
G2 X180.200 Y46.566 Z1.147 I-7.240 J-1.034 E2.46394
G3 X181.043 Y48.153 Z1.149 I-7.346 J4.919 E0.16185
G3 X180.209 Y53.072 Z1.156 I-4.507 J1.766 E0.47178
G3 X179.624 Y52.950 Z1.157 I-0.229 J-0.366 E0.05902
G3 X179.586 Y52.525 I0.346 J-0.245 E0.04003
G2 X180.058 Y48.082 Z1.163 I-3.226 J-2.589 E0.42420
G3 X178.575 Y42.746 Z1.170 I7.346 J-4.916 E0.50723
G3 X180.040 Y38.588 Z1.176 I8.289 J0.583 E0.40116
G1 Z1.179 X180.805 Y35.839 E0.25681
