; generated by PrusaSlicer 2.3.3+x64 on 2021-09-22 at 19:26:19 UTC

; 

; external perimeters extrusion width = 0.65mm
; perimeters extrusion width = 0.65mm
; infill extrusion width = 0.65mm
; solid infill extrusion width = 0.65mm
; top infill extrusion width = 0.65mm
; first layer extrusion width = 0.62mm

M201 X500 Y500 Z100 E5000 ; sets maximum accelerations, mm/sec^2
M203 X500 Y500 Z10 E60 ; sets maximum feedrates, mm/sec
M204 P500 R1000 T500 ; sets acceleration (P, T) and retract acceleration (R), mm/sec^2
M205 X8.00 Y8.00 Z0.40 E5.00 ; sets the jerk limits, mm/sec
M205 S0 T0 ; sets the minimum extruding and travel feed rate, mm/sec
M107
;TYPE:Custom
G90 ; use absolute coordinates
M83 ; extruder relative mode
M140 S60 ; set final bed temp
M104 S150 ; set temporary nozzle temp to prevent oozing during homing and auto bed leveling
G4 S10 ; allow partial nozzle warmup
G28 ; home all axis
;G29 ; auto bed levelling 
G1 Z50 F240
G1 X2 Y10 F3000
M104 S200 ; set final nozzle temp
M190 S60 ; wait for bed temp to stabilize
M109 S200 ; wait for nozzle temp to stabilize
G1 Z0.28 F240
G92 E0
G1 Y140 E10 F1500 ; prime the nozzle
G1 X2.3 F5000
G92 E0
G1 Y10 E10 F1200 ; prime the nozzle
G92 E0
G21 ; set units to millimeters
G90 ; use absolute coordinates
M83 ; use relative distances for extrusion
; Filament gcode
;LAYER_CHANGE
;Z:0.2
;HEIGHT:0.2
;BEFORE_LAYER_CHANGE
G92 E0
;0.2


G1 E-5.00000 F3600.000
G1 Z0.200 F9000.000
;AFTER_LAYER_CHANGE
;0.2
G1 X67.245 Y103.405
G1 E5.00000 F2400.000
M204 S500
;TYPE:Skirt
;WIDTH:0.62
G1 F1200.000
G1 X67.881 Y102.071 E0.07093
G1 X68.300 Y101.489 E0.03440
G1 X68.979 Y100.775 E0.04727
G1 X70.175 Y99.933 E0.07020
G1 X71.002 Y99.565 E0.04342
G1 X72.132 Y99.273 E0.05599
G1 X151.050 Y87.321 E3.83004
G1 X153.254 Y87.015 E0.10676
G1 X155.311 Y86.916 E0.09883
G1 X157.905 Y86.915 E0.12445
G1 X159.143 Y87.042 E0.05972
G1 X160.277 Y87.392 E0.05698
G1 X161.145 Y87.839 E0.04685
G1 X162.130 Y88.593 E0.05953
G1 X162.916 Y89.488 E0.05713
G1 X163.535 Y90.562 E0.05951
G1 X163.929 Y91.748 E0.05996
G1 X164.072 Y92.908 E0.05609
G1 X164.054 Y138.423 E2.18400
G1 X163.756 Y139.875 E0.07112
G1 X163.121 Y141.209 E0.07093
G1 X162.700 Y141.795 E0.03463
G1 X162.019 Y142.512 E0.04744
G1 X160.825 Y143.352 E0.07003
G1 X159.374 Y143.908 E0.07458
G1 X158.371 Y144.069 E0.04875
G1 X157.579 Y144.080 E0.03799
G1 X72.666 Y139.126 E4.08144
G1 X71.257 Y138.858 E0.06880
G1 X70.352 Y138.495 E0.04678
G1 X69.727 Y138.138 E0.03455
G1 X68.604 Y137.200 E0.07022
G1 X67.730 Y136.014 E0.07066
G1 X67.419 Y135.384 E0.03372
G1 X67.109 Y134.460 E0.04678
G1 X66.924 Y133.052 E0.06815
G1 X66.946 Y104.852 E1.35316
G1 X67.227 Y103.493 E0.06658
G1 E-3.50000 F3600.000
;WIPE_START
G1 F7200.000
G1 X67.881 Y102.071 E-0.74371
G1 X68.300 Y101.489 E-0.34056
G1 X68.794 Y100.969 E-0.34073
;WIPE_END
G1 E-0.07500 F3600.000
G1 X73.795 Y106.110 F9000.000
G1 E5.00000 F2400.000
;TYPE:Perimeter
G1 F1200.000
G1 X85.482 Y106.788 E0.56170
G1 X120.690 Y106.788 E1.68943
G1 X122.842 Y106.684 E0.10338
G1 X125.052 Y106.364 E0.10718
G1 X127.222 Y105.834 E0.10718
G1 X129.331 Y105.098 E0.10718
G1 X131.288 Y104.197 E0.10338
G1 X147.612 Y95.708 E0.88289
G1 X149.139 Y95.005 E0.08062
G1 X150.650 Y94.478 E0.07683
G1 X152.206 Y94.098 E0.07683
G1 X153.790 Y93.868 E0.07683
G1 X155.468 Y93.788 E0.08062
G1 X157.205 Y93.788 E0.08332
G1 X157.205 Y107.197 E0.64343
G1 X88.014 Y107.197 E3.32008
G1 X87.483 Y107.225 E0.02549
G1 X86.873 Y107.321 E0.02963
G1 X86.277 Y107.481 E0.02963
G1 X85.700 Y107.702 E0.02963
G1 X85.150 Y107.983 E0.02963
G1 X84.632 Y108.319 E0.02963
G1 X84.152 Y108.708 E0.02963
G1 X83.716 Y109.144 E0.02963
G1 X83.327 Y109.624 E0.02963
G1 X82.991 Y110.142 E0.02963
G1 X82.710 Y110.692 E0.02963
G1 X82.489 Y111.269 E0.02963
G1 X82.329 Y111.866 E0.02963
G1 X82.232 Y112.475 E0.02963
G1 X82.205 Y113.006 E0.02549
G1 X82.205 Y127.778 E0.70885
G1 X82.232 Y128.309 E0.02549
G1 X82.329 Y128.919 E0.02963
G1 X82.489 Y129.515 E0.02963
G1 X82.710 Y130.092 E0.02964
G1 X82.991 Y130.642 E0.02963
G1 X83.327 Y131.160 E0.02963
G1 X83.716 Y131.640 E0.02963
G1 X84.152 Y132.077 E0.02963
G1 X84.632 Y132.465 E0.02963
G1 X85.150 Y132.802 E0.02963
G1 X85.525 Y132.993 E0.02018
G1 X73.795 Y132.308 E0.56379
G1 X73.795 Y106.200 E1.25279
G1 E-3.50000 F3600.000
;WIPE_START
G1 F7200.000
G1 X76.792 Y106.351 E-1.42500
;WIPE_END
G1 E-0.07500 F3600.000
G1 X95.724 Y133.588 F9000.000
G1 E5.00000 F2400.000
G1 F1200.000
G1 X157.205 Y133.588 E2.95011
G1 X157.205 Y137.174 E0.17209
G1 X95.814 Y133.593 E2.95081
G1 E-3.50000 F3600.000
;WIPE_START
G1 F7200.000
G1 X98.814 Y133.593 E-1.42500
;WIPE_END
G1 E-0.07500 F3600.000
G1 X73.218 Y132.853 F9000.000
G1 E5.00000 F2400.000
G1 F1200.000
G1 X73.218 Y105.499 E1.31257
G1 X85.498 Y106.211 E0.59025
G1 X120.676 Y106.211 E1.68797
G1 X122.786 Y106.109 E0.10139
G1 X124.942 Y105.797 E0.10452
G1 X127.058 Y105.280 E0.10452
G1 X129.115 Y104.562 E0.10452
G1 X131.034 Y103.678 E0.10139
G1 X147.358 Y95.190 E0.88289
G1 X148.922 Y94.469 E0.08261
G1 X150.486 Y93.924 E0.07948
G1 X152.095 Y93.530 E0.07948
G1 X153.735 Y93.293 E0.07948
G1 X155.454 Y93.211 E0.08261
G1 X157.782 Y93.211 E0.11167
G1 X157.782 Y107.774 E0.69881
G1 X88.029 Y107.774 E3.34705
G1 X87.544 Y107.799 E0.02331
G1 X86.993 Y107.886 E0.02673
G1 X86.455 Y108.031 E0.02673
G1 X85.935 Y108.230 E0.02673
G1 X85.439 Y108.483 E0.02673
G1 X84.972 Y108.787 E0.02673
G1 X84.539 Y109.137 E0.02673
G1 X84.145 Y109.531 E0.02673
G1 X83.794 Y109.964 E0.02673
G1 X83.491 Y110.431 E0.02673
G1 X83.238 Y110.928 E0.02673
G1 X83.038 Y111.448 E0.02673
G1 X82.894 Y111.986 E0.02673
G1 X82.807 Y112.536 E0.02673
G1 X82.782 Y113.021 E0.02331
G1 X82.782 Y127.763 E0.70740
G1 X82.807 Y128.248 E0.02331
G1 X82.894 Y128.799 E0.02673
G1 X83.038 Y129.337 E0.02673
G1 X83.238 Y129.857 E0.02673
G1 X83.491 Y130.353 E0.02673
G1 X83.794 Y130.820 E0.02673
G1 X84.145 Y131.253 E0.02673
G1 X84.539 Y131.647 E0.02673
G1 X84.972 Y131.998 E0.02673
G1 X85.439 Y132.301 E0.02673
G1 X85.935 Y132.554 E0.02673
G1 X86.455 Y132.754 E0.02673
G1 X86.993 Y132.898 E0.02673
G1 X87.544 Y132.985 E0.02673
G1 X88.029 Y133.011 E0.02331
G1 X157.782 Y133.011 E3.34705
G1 X157.782 Y137.786 E0.22913
G1 X73.308 Y132.858 E4.06030
G1 X72.769 Y133.277 F9000.000
G1 F1200.000
G1 X72.668 Y133.110 E0.00937
G1 X72.641 Y132.907 E0.00982
G1 X72.641 Y105.431 E1.31838
G1 X72.655 Y105.275 E0.00753
G1 X72.710 Y105.138 E0.00709
G1 X72.806 Y105.025 E0.00709
G1 X72.888 Y104.970 E0.00474
G1 X73.028 Y104.923 E0.00709
G1 X73.185 Y104.919 E0.00755
G1 X85.515 Y105.633 E0.59264
G1 X120.662 Y105.633 E1.68650
G1 X122.731 Y105.534 E0.09940
G1 X124.832 Y105.230 E0.10186
G1 X126.894 Y104.726 E0.10186
G1 X128.899 Y104.026 E0.10186
G1 X130.780 Y103.160 E0.09940
G1 X147.104 Y94.671 E0.88289
G1 X148.706 Y93.934 E0.08461
G1 X150.322 Y93.370 E0.08214
G1 X151.985 Y92.963 E0.08214
G1 X153.679 Y92.718 E0.08214
G1 X155.441 Y92.633 E0.08461
G1 X157.844 Y92.633 E0.11532
G1 X157.995 Y92.646 E0.00726
G1 X158.128 Y92.697 E0.00684
G1 X158.239 Y92.787 E0.00684
G1 X158.316 Y92.907 E0.00684
G1 X158.346 Y92.997 E0.00457
G1 X158.359 Y93.148 E0.00727
G1 X158.359 Y107.836 E0.70479
G1 X158.346 Y107.987 E0.00727
G1 X158.295 Y108.120 E0.00684
G1 X158.205 Y108.231 E0.00684
G1 X158.041 Y108.326 E0.00910
G1 X157.844 Y108.351 E0.00953
G1 X88.044 Y108.351 E3.34931
G1 X87.604 Y108.374 E0.02113
G1 X87.114 Y108.452 E0.02383
G1 X86.634 Y108.580 E0.02383
G1 X86.170 Y108.758 E0.02383
G1 X85.728 Y108.984 E0.02383
G1 X85.311 Y109.254 E0.02383
G1 X84.926 Y109.567 E0.02383
G1 X84.574 Y109.918 E0.02383
G1 X84.262 Y110.304 E0.02383
G1 X83.991 Y110.720 E0.02383
G1 X83.766 Y111.163 E0.02383
G1 X83.588 Y111.626 E0.02383
G1 X83.459 Y112.106 E0.02383
G1 X83.382 Y112.596 E0.02383
G1 X83.359 Y113.036 E0.02113
G1 X83.359 Y127.748 E0.70595
G1 X83.382 Y128.188 E0.02113
G1 X83.459 Y128.679 E0.02383
G1 X83.588 Y129.158 E0.02383
G1 X83.766 Y129.622 E0.02383
G1 X83.991 Y130.064 E0.02383
G1 X84.262 Y130.481 E0.02383
G1 X84.574 Y130.867 E0.02383
G1 X84.926 Y131.218 E0.02383
G1 X85.311 Y131.530 E0.02383
G1 X85.728 Y131.801 E0.02383
G1 X86.170 Y132.026 E0.02383
G1 X86.634 Y132.204 E0.02383
G1 X87.114 Y132.333 E0.02383
G1 X87.604 Y132.410 E0.02383
G1 X88.044 Y132.433 E0.02113
G1 X157.948 Y132.439 E3.35429
G1 X158.128 Y132.497 E0.00909
G1 X158.269 Y132.624 E0.00910
G1 X158.334 Y132.751 E0.00684
G1 X158.359 Y132.948 E0.00953
G1 X158.359 Y137.853 E0.23535
G1 X158.345 Y138.009 E0.00753
G1 X158.290 Y138.147 E0.00709
G1 X158.194 Y138.259 E0.00709
G1 X158.112 Y138.314 E0.00474
G1 X157.972 Y138.361 E0.00709
G1 X157.815 Y138.366 E0.00753
G1 X73.131 Y133.426 E4.07042
G1 X72.977 Y133.403 E0.00749
G1 X72.837 Y133.336 E0.00745
G1 X72.486 Y133.794 F9000.000
G1 F1200.000
G1 X72.276 Y133.588 E0.01411
G1 X72.161 Y133.397 E0.01069
G1 X72.090 Y133.186 E0.01070
G1 X72.064 Y132.922 E0.01272
G1 X72.064 Y105.416 E1.31988
G1 X72.091 Y105.151 E0.01279
G1 X72.215 Y104.839 E0.01609
G1 X72.433 Y104.584 E0.01609
G1 X72.618 Y104.459 E0.01075
G1 X72.936 Y104.353 E0.01609
G1 X73.203 Y104.342 E0.01280
G1 X85.532 Y105.056 E0.59259
G1 X120.648 Y105.056 E1.68504
G1 X122.676 Y104.959 E0.09740
G1 X124.722 Y104.663 E0.09921
G1 X126.730 Y104.172 E0.09921
G1 X128.682 Y103.491 E0.09921
G1 X130.526 Y102.642 E0.09740
G1 X146.851 Y94.153 E0.88289
G1 X148.490 Y93.398 E0.08660
G1 X150.158 Y92.816 E0.08480
G1 X151.875 Y92.396 E0.08480
G1 X153.624 Y92.143 E0.08480
G1 X155.427 Y92.056 E0.08660
G1 X157.859 Y92.056 E0.11671
G1 X158.115 Y92.081 E0.01233
G1 X158.320 Y92.148 E0.01037
G1 X158.592 Y92.324 E0.01552
G1 X158.736 Y92.485 E0.01037
G1 X158.844 Y92.672 E0.01037
G1 X158.911 Y92.877 E0.01037
G1 X158.936 Y93.133 E0.01234
G1 X158.936 Y107.851 E0.70624
G1 X158.928 Y108.000 E0.00716
G1 X158.883 Y108.212 E0.01037
G1 X158.736 Y108.500 E0.01552
G1 X158.508 Y108.728 E0.01552
G1 X158.219 Y108.875 E0.01552
G1 X158.008 Y108.920 E0.01037
G1 X157.859 Y108.928 E0.00716
G1 X88.059 Y108.928 E3.34931
G1 X87.665 Y108.949 E0.01896
G1 X87.234 Y109.017 E0.02093
G1 X86.813 Y109.130 E0.02093
G1 X86.405 Y109.286 E0.02093
G1 X86.017 Y109.484 E0.02092
G1 X85.651 Y109.722 E0.02093
G1 X85.312 Y109.996 E0.02093
G1 X85.004 Y110.304 E0.02092
G1 X84.729 Y110.643 E0.02093
G1 X84.492 Y111.009 E0.02093
G1 X84.294 Y111.398 E0.02093
G1 X84.138 Y111.805 E0.02093
G1 X84.025 Y112.226 E0.02093
G1 X83.957 Y112.657 E0.02093
G1 X83.936 Y113.051 E0.01896
G1 X83.936 Y127.733 E0.70450
G1 X83.957 Y128.128 E0.01896
G1 X84.025 Y128.558 E0.02093
G1 X84.138 Y128.980 E0.02093
G1 X84.294 Y129.387 E0.02093
G1 X84.492 Y129.775 E0.02093
G1 X84.729 Y130.141 E0.02093
G1 X85.004 Y130.480 E0.02093
G1 X85.312 Y130.788 E0.02093
G1 X85.651 Y131.063 E0.02093
G1 X86.017 Y131.300 E0.02093
G1 X86.405 Y131.498 E0.02093
G1 X86.813 Y131.655 E0.02093
G1 X87.234 Y131.767 E0.02093
G1 X87.665 Y131.836 E0.02093
G1 X88.059 Y131.856 E0.01896
G1 X158.008 Y131.864 E3.35646
G1 X158.320 Y131.948 E0.01552
G1 X158.592 Y132.124 E0.01552
G1 X158.736 Y132.285 E0.01037
G1 X158.844 Y132.472 E0.01037
G1 X158.928 Y132.784 E0.01552
G1 X158.927 Y138.023 E0.25139
G1 X158.879 Y138.242 E0.01075
G1 X158.785 Y138.445 E0.01075
G1 X158.649 Y138.623 E0.01075
G1 X158.382 Y138.826 E0.01609
G1 X158.064 Y138.932 E0.01609
G1 X157.797 Y138.943 E0.01279
G1 X73.082 Y134.001 E4.07193
G1 X72.820 Y133.959 E0.01272
G1 X72.561 Y133.844 E0.01360
G1 X72.262 Y134.338 F9000.000
G1 F1200.000
G1 X72.054 Y134.190 E0.01225
G1 X71.928 Y134.070 E0.00835
G1 X71.718 Y133.793 E0.01667
G1 X71.637 Y133.639 E0.00835
G1 X71.526 Y133.310 E0.01668
G1 X71.487 Y132.938 E0.01796
G1 X71.487 Y105.400 E1.32138
G1 X71.526 Y105.026 E0.01805
G1 X71.573 Y104.857 E0.00839
G1 X71.720 Y104.541 E0.01676
G1 X71.819 Y104.396 E0.00839
G1 X72.059 Y104.143 E0.01676
G1 X72.349 Y103.947 E0.01676
G1 X72.674 Y103.819 E0.01676
G1 X72.845 Y103.782 E0.00839
G1 X73.221 Y103.765 E0.01806
G1 X85.549 Y104.479 E0.59253
G1 X120.634 Y104.479 E1.68357
G1 X122.621 Y104.384 E0.09541
G1 X124.612 Y104.096 E0.09655
G1 X126.566 Y103.618 E0.09655
G1 X128.466 Y102.955 E0.09655
G1 X130.272 Y102.123 E0.09541
G1 X146.597 Y93.635 E0.88289
G1 X148.274 Y92.862 E0.08859
G1 X149.994 Y92.262 E0.08746
G1 X151.765 Y91.829 E0.08746
G1 X153.569 Y91.568 E0.08746
G1 X155.413 Y91.479 E0.08859
G1 X157.874 Y91.479 E0.11810
G1 X158.235 Y91.516 E0.01741
G1 X158.555 Y91.620 E0.01617
G1 X158.706 Y91.697 E0.00809
G1 X158.978 Y91.895 E0.01617
G1 X159.098 Y92.014 E0.00809
G1 X159.204 Y92.145 E0.00809
G1 X159.372 Y92.437 E0.01617
G1 X159.476 Y92.757 E0.01617
G1 X159.513 Y93.118 E0.01741
G1 X159.503 Y108.061 E0.71701
G1 X159.433 Y108.390 E0.01617
G1 X159.372 Y108.548 E0.00809
G1 X159.204 Y108.839 E0.01617
G1 X159.098 Y108.971 E0.00809
G1 X158.847 Y109.196 E0.01617
G1 X158.555 Y109.364 E0.01617
G1 X158.398 Y109.425 E0.00809
G1 X158.068 Y109.495 E0.01617
G1 X157.874 Y109.505 E0.00934
G1 X88.074 Y109.505 E3.34931
G1 X87.725 Y109.523 E0.01678
G1 X87.354 Y109.582 E0.01802
G1 X86.991 Y109.679 E0.01802
G1 X86.640 Y109.814 E0.01802
G1 X86.306 Y109.985 E0.01802
G1 X85.991 Y110.189 E0.01802
G1 X85.699 Y110.425 E0.01802
G1 X85.433 Y110.691 E0.01802
G1 X85.197 Y110.983 E0.01802
G1 X84.992 Y111.298 E0.01802
G1 X84.822 Y111.633 E0.01802
G1 X84.687 Y111.983 E0.01802
G1 X84.590 Y112.346 E0.01802
G1 X84.531 Y112.717 E0.01802
G1 X84.513 Y113.066 E0.01678
G1 X84.513 Y127.718 E0.70305
G1 X84.531 Y128.067 E0.01678
G1 X84.590 Y128.438 E0.01802
G1 X84.687 Y128.801 E0.01802
G1 X84.822 Y129.152 E0.01802
G1 X84.992 Y129.486 E0.01802
G1 X85.197 Y129.801 E0.01802
G1 X85.433 Y130.093 E0.01802
G1 X85.699 Y130.359 E0.01802
G1 X85.991 Y130.595 E0.01802
G1 X86.306 Y130.800 E0.01802
G1 X86.640 Y130.970 E0.01802
G1 X86.991 Y131.105 E0.01802
G1 X87.354 Y131.202 E0.01802
G1 X87.725 Y131.261 E0.01802
G1 X88.074 Y131.279 E0.01678
G1 X158.068 Y131.289 E3.35863
G1 X158.398 Y131.359 E0.01617
G1 X158.555 Y131.420 E0.00809
G1 X158.847 Y131.588 E0.01617
G1 X158.978 Y131.695 E0.00809
G1 X159.204 Y131.945 E0.01617
G1 X159.372 Y132.237 E0.01617
G1 X159.433 Y132.394 E0.00809
G1 X159.503 Y132.724 E0.01617
G1 X159.502 Y138.086 E0.25729
G1 X159.427 Y138.427 E0.01676
G1 X159.280 Y138.744 E0.01676
G1 X159.181 Y138.888 E0.00839
G1 X158.941 Y139.142 E0.01676
G1 X158.651 Y139.337 E0.01676
G1 X158.326 Y139.465 E0.01676
G1 X158.155 Y139.502 E0.00839
G1 X157.779 Y139.520 E0.01805
G1 X73.033 Y134.576 E4.07343
G1 X72.663 Y134.516 E0.01796
G1 X72.339 Y134.385 E0.01679
G1 X72.040 Y134.878 F9000.000
;TYPE:External perimeter
G1 F1200.000
G1 X71.679 Y134.630 E0.02104
G1 X71.507 Y134.467 E0.01134
G1 X71.355 Y134.286 E0.01134
G1 X71.222 Y134.090 E0.01134
G1 X71.112 Y133.881 E0.01134
G1 X71.025 Y133.662 E0.01135
G1 X70.962 Y133.434 E0.01134
G1 X70.923 Y133.201 E0.01134
G1 X70.910 Y132.953 E0.01188
G1 X70.910 Y105.384 E1.32288
G1 X70.924 Y105.136 E0.01194
G1 X70.962 Y104.901 E0.01140
G1 X71.026 Y104.672 E0.01140
G1 X71.114 Y104.452 E0.01140
G1 X71.226 Y104.242 E0.01140
G1 X71.359 Y104.045 E0.01140
G1 X71.513 Y103.865 E0.01140
G1 X71.686 Y103.702 E0.01140
G1 X71.876 Y103.558 E0.01140
G1 X72.080 Y103.436 E0.01140
G1 X72.296 Y103.337 E0.01140
G1 X72.521 Y103.262 E0.01140
G1 X72.753 Y103.211 E0.01140
G1 X72.990 Y103.187 E0.01140
G1 X73.239 Y103.188 E0.01194
G1 X85.565 Y103.902 E0.59248
G1 X120.621 Y103.902 E1.68210
G1 X122.565 Y103.809 E0.09342
G1 X124.502 Y103.528 E0.09389
G1 X126.402 Y103.064 E0.09389
G1 X128.250 Y102.419 E0.09389
G1 X130.018 Y101.605 E0.09342
G1 X146.343 Y93.116 E0.88289
G1 X148.057 Y92.326 E0.09059
G1 X149.831 Y91.708 E0.09011
G1 X151.655 Y91.262 E0.09011
G1 X153.513 Y90.993 E0.09011
G1 X155.399 Y90.902 E0.09059
G1 X157.889 Y90.902 E0.11949
G1 X158.355 Y90.951 E0.02248
G1 X158.791 Y91.092 E0.02196
G1 X158.995 Y91.196 E0.01100
G1 X159.365 Y91.465 E0.02196
G1 X159.527 Y91.627 E0.01100
G1 X159.671 Y91.805 E0.01100
G1 X159.900 Y92.202 E0.02196
G1 X160.042 Y92.637 E0.02196
G1 X160.090 Y93.103 E0.02248
G1 X160.077 Y108.121 E0.72064
G1 X159.982 Y108.569 E0.02196
G1 X159.900 Y108.783 E0.01100
G1 X159.671 Y109.179 E0.02196
G1 X159.527 Y109.357 E0.01100
G1 X159.187 Y109.663 E0.02196
G1 X158.791 Y109.892 E0.02196
G1 X158.577 Y109.974 E0.01100
G1 X158.129 Y110.070 E0.02196
