;FLAVOR:Marlin
;TIME:5033
;Filament used: 8.81688m
;Layer height: 0.32
;MINX:48.702
;MINY:84.712
;MINZ:0.32
;MAXX:176.681
;MAXY:142.373
;MAXZ:13.76
;Generated with Cura_SteamEngine 4.8.0
M82 ;absolute extrusion mode
; Ender 3 Custom Start G-code
M104 S200
M140 S60
M105
G28 ; Home all axes
G1 Z10.0; Move Z Axis up to prevent from heating up too close to the bed
M204 P500 R1000 T500 ; sets acceleration (P, T) and retract acceleration (R), mm/sec^2
M205 X8.00 Y8.00 Z0.40 E5.00 ; sets the jerk limits, mm/sec
M109 S200
M190 S60

G92 E0 ; Reset Extruder
G1 Z2.0 F3000 ; Move Z Axis up little to prevent scratching of Heat Bed
G1 X0.1 Y20 Z0.3 F5000.0 ; Move to start position
G1 X0.1 Y200.0 Z0.3 F1500.0 E15 ; Draw the first line
G1 X0.4 Y200.0 Z0.3 F5000.0 ; Move to side a little
G1 X0.4 Y20 Z0.3 F1500.0 E30 ; Draw the second line
G92 E0 ; Reset Extruder
G1 Z2.0 F3000 ; Move Z Axis up little to prevent scratching of Heat Bed
G1 X5 Y20 Z0.3 F5000.0 ; Move over to prevent blob squish
G92 E0
G92 E0
G1 F1500 E-6.5
;LAYER_COUNT:43
;LAYER:0
M107
M204 S500
M205 X8 Y8
G0 F6000 X56.161 Y88.002 Z0.32
;TYPE:SKIRT
G1 F1500 E0
G1 F1200 X56.728 Y87.656 E0.05302
G1 X56.849 Y87.587 E0.06414
G1 X57.284 Y87.351 E0.10365
G1 X57.558 Y87.21 E0.12824
G1 X58.256 Y86.881 E0.18984
G1 X58.367 Y86.833 E0.19949
G1 X58.737 Y86.68 E0.23145
G1 X59 Y86.577 E0.254
G1 X59.692 Y86.331 E0.31263
G1 X59.839 Y86.284 E0.32494
G1 X60.319 Y86.142 E0.3649
G1 X60.587 Y86.069 E0.38707
G1 X61.162 Y85.928 E0.43433
G1 X61.286 Y85.901 E0.44446
G1 X61.884 Y85.788 E0.49304
G1 X62.197 Y85.737 E0.51836
G1 X62.863 Y85.648 E0.57199
G1 X62.979 Y85.636 E0.5813
G1 X63.471 Y85.596 E0.62071
G1 X63.77 Y85.578 E0.64462
G1 X64.378 Y85.557 E0.69318
G1 X64.516 Y85.556 E0.70419
G1 X65.095 Y85.567 E0.75042
G1 X65.396 Y85.58 E0.77447
G1 X66.079 Y85.63 E0.82914
G1 X66.176 Y85.64 E0.83692
G1 X66.66 Y85.7 E0.87585
G1 X66.968 Y85.745 E0.9007
G1 X67.577 Y85.851 E0.95004
G1 X67.711 Y85.878 E0.96095
G1 X68.257 Y86.002 E1.00565
G1 X68.534 Y86.072 E1.02845
G1 X69.151 Y86.246 E1.07963
G1 X69.282 Y86.287 E1.09058
G1 X69.777 Y86.454 E1.13228
G1 X70.041 Y86.55 E1.15471
G1 X70.748 Y86.835 E1.21556
G1 X70.866 Y86.887 E1.22585
G1 X71.267 Y87.072 E1.2611
G1 X72.197 Y87.525 E1.34368
G1 X74.529 Y88.621 E1.54936
G1 X76.781 Y89.602 E1.74544
G1 X79.175 Y90.569 E1.95154
G1 X81.475 Y91.418 E2.14725
G1 X83.85 Y92.221 E2.34737
G1 X86.256 Y92.962 E2.54833
G1 X88.64 Y93.62 E2.74575
G1 X91.118 Y94.231 E2.94948
G1 X93.54 Y94.756 E3.1473
G1 X96.011 Y95.216 E3.34794
G1 X98.447 Y95.601 E3.5448
G1 X100.946 Y95.924 E3.74594
G1 X103.459 Y96.176 E3.94755
G1 X105.931 Y96.354 E4.14538
G1 X108.421 Y96.462 E4.34433
G1 X110.952 Y96.501 E4.54639
G1 X113.447 Y96.468 E4.74557
G1 X115.938 Y96.365 E4.94458
G1 X118.388 Y96.196 E5.14062
G1 X118.547 Y96.183 E5.15335
G1 X121.066 Y95.939 E5.35537
G1 X123.57 Y95.625 E5.55682
G1 X125.088 Y95.384 E5.67951
G1 X126.499 Y95.173 E5.79339
G1 X126.823 Y95.13 E5.81948
G1 X127.77 Y95.016 E5.89562
G1 X130.328 Y94.67 E6.10167
G1 X132.781 Y94.267 E6.3001
G1 X135.269 Y93.787 E6.50237
G1 X137.717 Y93.242 E6.70256
G1 X140.101 Y92.64 E6.89884
G1 X142.519 Y91.956 E7.09943
G1 X144.946 Y91.195 E7.30246
G1 X147.271 Y90.392 E7.49881
G1 X149.656 Y89.492 E7.7023
G1 X151.946 Y88.554 E7.89983
G1 X154.236 Y87.539 E8.09978
G1 X156.555 Y86.433 E8.30487
G1 X157.116 Y86.155 E8.35485
G1 X157.761 Y85.86 E8.41147
G1 X158.17 Y85.688 E8.44688
G1 X159.069 Y85.354 E8.52344
G1 X160.11 Y85.068 E8.60961
G1 X160.315 Y85.022 E8.62638
G1 X161.259 Y84.851 E8.70297
G1 X161.792 Y84.79 E8.74579
G1 X162.133 Y84.759 E8.77312
G1 X163.091 Y84.712 E8.84969
G1 X163.886 Y84.734 E8.91317
G1 X164.257 Y84.757 E8.94284
G1 X165.21 Y84.856 E9.01932
G1 X166.186 Y85.042 E9.09863
G1 X166.364 Y85.084 E9.11323
G1 X167.287 Y85.343 E9.18976
G1 X167.932 Y85.575 E9.24447
G1 X168.26 Y85.704 E9.27261
G1 X169.137 Y86.092 E9.34916
G1 X169.859 Y86.48 E9.41459
G1 X170.141 Y86.645 E9.44067
G1 X170.947 Y87.164 E9.51719
G1 X171.583 Y87.644 E9.58079
G1 X171.812 Y87.83 E9.60434
G1 X172.531 Y88.466 E9.68097
G1 X173.09 Y89.041 E9.74498
G1 X173.337 Y89.314 E9.77437
G1 X173.95 Y90.052 E9.85095
G1 X174.509 Y90.852 E9.92886
G1 X174.616 Y91.02 E9.94476
G1 X175.097 Y91.85 E10.02133
G1 X175.392 Y92.455 E10.07506
G1 X175.531 Y92.762 E10.10196
G1 X175.89 Y93.651 E10.17849
G1 X176.137 Y94.432 E10.24388
G1 X176.241 Y94.807 E10.27495
G1 X176.458 Y95.741 E10.35149
G1 X176.61 Y96.817 E10.43823
G1 X176.632 Y97.054 E10.45723
G1 X176.681 Y98.012 E10.5338
G1 X176.671 Y98.594 E10.58027
G1 X176.657 Y98.931 E10.60719
G1 X176.577 Y99.887 E10.68377
G1 X176.401 Y100.912 E10.76679
G1 X176.338 Y101.2 E10.79032
G1 X176.142 Y101.968 E10.85359
G1 X176.003 Y102.443 E10.8931
G1 X175.339 Y104.808 E11.08918
G1 X170.24 Y123.84 E12.66198
G1 X170.028 Y124.68 E12.73113
G1 X169.666 Y126.047 E12.84401
G1 X169.59 Y126.319 E12.86656
G1 X169.463 Y126.755 E12.90281
G1 X169.345 Y127.137 E12.93472
G1 X169.249 Y127.424 E12.95888
G1 X169.099 Y127.854 E12.99523
G1 X168.891 Y128.404 E13.04217
G1 X168.702 Y128.868 E13.08216
G1 X168.568 Y129.186 E13.10971
G1 X168.426 Y129.499 E13.13714
G1 X168.213 Y129.952 E13.1771
G1 X167.945 Y130.485 E13.22472
G1 X167.623 Y131.083 E13.27894
G1 X167.381 Y131.5 E13.31743
G1 X167.124 Y131.924 E13.357
G1 X166.812 Y132.411 E13.40317
G1 X166.531 Y132.826 E13.44318
G1 X166.209 Y133.278 E13.48748
G1 X165.873 Y133.726 E13.53218
G1 X165.465 Y134.239 E13.5845
G1 X165.164 Y134.596 E13.62178
G1 X164.811 Y134.996 E13.66436
G1 X164.499 Y135.333 E13.70102
G1 X164.242 Y135.601 E13.73066
G1 X164.082 Y135.763 E13.74884
G1 X163.866 Y135.976 E13.77305
G1 X163.562 Y136.268 E13.8067
G1 X163.128 Y136.664 E13.8536
G1 X162.723 Y137.015 E13.89638
G1 X162.286 Y137.376 E13.94162
G1 X161.939 Y137.648 E13.97682
G1 X161.564 Y137.93 E14.01427
G1 X161.29 Y138.127 E14.04121
G1 X160.897 Y138.4 E14.07941
G1 X160.422 Y138.713 E14.12482
G1 X160.034 Y138.955 E14.16132
G1 X159.692 Y139.161 E14.19319
G1 X159.44 Y139.305 E14.21636
G1 X159.077 Y139.507 E14.24952
G1 X158.547 Y139.784 E14.29725
G1 X158.033 Y140.036 E14.34295
G1 X157.49 Y140.285 E14.39063
G1 X157.043 Y140.476 E14.42944
G1 X156.623 Y140.646 E14.4656
G1 X156.381 Y140.738 E14.48627
G1 X156.003 Y140.876 E14.51839
G1 X155.572 Y141.024 E14.55477
G1 X155.269 Y141.121 E14.58016
G1 X154.82 Y141.258 E14.61764
G1 X154.26 Y141.414 E14.66404
G1 X153.655 Y141.564 E14.7138
G1 X153.517 Y141.596 E14.7251
G1 X153.092 Y141.686 E14.75978
G1 X152.614 Y141.778 E14.79864
G1 X152.037 Y141.874 E14.84533
G1 X151.723 Y141.918 E14.87064
G1 X150.413 Y142.025 E14.97556
G1 X149.219 Y142.053 E15.07089
G1 X85.119 Y142.373 E20.1877
G1 X84.182 Y142.364 E20.2625
G1 X83.356 Y142.326 E20.3285
G1 X82.926 Y142.286 E20.36297
G1 X82.398 Y142.228 E20.40537
G1 X82.076 Y142.188 E20.43127
G1 X80.94 Y142.029 E20.52284
G1 X80.763 Y142.001 E20.53714
G1 X80.475 Y141.951 E20.56048
G1 X79.45 Y141.762 E20.64368
G1 X79.182 Y141.71 E20.66547
G1 X78.793 Y141.626 E20.69724
G1 X77.849 Y141.41 E20.77454
G1 X77.468 Y141.316 E20.80586
G1 X77.085 Y141.214 E20.8375
G1 X76.236 Y140.978 E20.90784
G1 X75.779 Y140.843 E20.94588
G1 X75.53 Y140.765 E20.96671
G1 X74.534 Y140.44 E21.05034
G1 X74.195 Y140.323 E21.07897
G1 X73.862 Y140.202 E21.10725
G1 X72.966 Y139.864 E21.18369
G1 X72.53 Y139.691 E21.22113
G1 X72.284 Y139.589 E21.24239
G1 X71.317 Y139.173 E21.32642
G1 X71.028 Y139.044 E21.35168
G1 X70.737 Y138.908 E21.37732
G1 X69.846 Y138.479 E21.45626
G1 X69.407 Y138.256 E21.49557
G1 X69.237 Y138.167 E21.51088
G1 X68.375 Y137.703 E21.58903
G1 X68.001 Y137.495 E21.62319
G1 X67.757 Y137.353 E21.64572
G1 X66.865 Y136.82 E21.72867
G1 X66.469 Y136.574 E21.76588
G1 X66.267 Y136.444 E21.78506
G1 X65.486 Y135.93 E21.85969
G1 X65.235 Y135.761 E21.88385
G1 X64.854 Y135.493 E21.92103
G1 X64.071 Y134.925 E21.99825
G1 X63.682 Y134.631 E22.03717
G1 X62.726 Y133.873 E22.13456
G1 X62.481 Y133.673 E22.1598
G1 X62.191 Y133.427 E22.19016
G1 X61.417 Y132.753 E22.27208
G1 X61.103 Y132.471 E22.30577
G1 X60.922 Y132.303 E22.32549
G1 X60.212 Y131.628 E22.40369
G1 X59.978 Y131.399 E22.42982
G1 X59.674 Y131.089 E22.46448
G1 X58.846 Y130.222 E22.56018
G1 X58.729 Y130.095 E22.57396
G1 X58.547 Y129.892 E22.59573
G1 X57.699 Y128.924 E22.69845
G1 X57.592 Y128.797 E22.71171
G1 X57.42 Y128.587 E22.73338
G1 X56.768 Y127.775 E22.8165
G1 X56.535 Y127.475 E22.84683
G1 X56.369 Y127.252 E22.86902
G1 X55.731 Y126.379 E22.95533
G1 X55.527 Y126.091 E22.9835
G1 X55.368 Y125.857 E23.00608
G1 X54.828 Y125.046 E23.08386
G1 X54.569 Y124.642 E23.12217
G1 X54.434 Y124.422 E23.14277
G1 X53.879 Y123.498 E23.22881
G1 X53.667 Y123.131 E23.26264
G1 X53.071 Y122.038 E23.36202
G1 X52.842 Y121.596 E23.40176
G1 X52.359 Y120.608 E23.48954
G1 X52.173 Y120.211 E23.52454
G1 X52.055 Y119.946 E23.54769
G1 X51.622 Y118.944 E23.63483
G1 X51.495 Y118.64 E23.66113
G1 X51.375 Y118.336 E23.68721
G1 X51.054 Y117.494 E23.75915
G1 X50.883 Y117.019 E23.79944
G1 X50.806 Y116.795 E23.81835
G1 X50.49 Y115.844 E23.89835
G1 X50.406 Y115.581 E23.92038
G1 X50.273 Y115.137 E23.95738
G1 X50.009 Y114.202 E24.03494
G1 X49.931 Y113.914 E24.05875
G1 X49.839 Y113.544 E24.08919
G1 X49.578 Y112.434 E24.18021
G1 X49.473 Y111.94 E24.22052
G1 X49.273 Y110.883 E24.30639
G1 X49.217 Y110.562 E24.33241
G1 X49.161 Y110.202 E24.36149
G1 X49.01 Y109.149 E24.4464
G1 X48.961 Y108.757 E24.47794
G1 X48.931 Y108.476 E24.5005
G1 X48.838 Y107.53 E24.57637
G1 X48.799 Y107.043 E24.61537
G1 X48.783 Y106.801 E24.63473
G1 X48.731 Y105.824 E24.71283
G1 X48.719 Y105.499 E24.73879
G1 X48.71 Y105.106 E24.77017
G1 X48.702 Y104.125 E24.84848
G1 X48.705 Y103.721 E24.88073
G1 X48.711 Y103.43 E24.90396
G1 X48.748 Y102.404 E24.98592
G1 X48.77 Y101.993 E25.01877
G1 X48.788 Y101.727 E25.04005
G1 X48.879 Y100.614 E25.12919
G1 X48.931 Y100.114 E25.16932
G1 X49.049 Y99.177 E25.24471
G1 X49.115 Y98.723 E25.28133
G1 X49.161 Y98.447 E25.30367
G1 X49.325 Y97.645 E25.36901
G1 X49.358 Y97.508 E25.38026
G1 X49.457 Y97.125 E25.41184
G1 X49.535 Y96.844 E25.43511
G1 X49.738 Y96.19 E25.48978
G1 X49.774 Y96.085 E25.49864
G1 X49.953 Y95.598 E25.54005
G1 X50.061 Y95.324 E25.56356
G1 X50.321 Y94.717 E25.61627
G1 X50.382 Y94.585 E25.62788
G1 X50.637 Y94.067 E25.67397
G1 X50.776 Y93.802 E25.69786
G1 X51.099 Y93.227 E25.7505
G1 X51.171 Y93.107 E25.76167
G1 X51.415 Y92.719 E25.79826
G1 X51.573 Y92.478 E25.82126
G1 X52.013 Y91.853 E25.88228
G1 X52.087 Y91.755 E25.89208
G1 X52.362 Y91.405 E25.92761
G1 X52.555 Y91.169 E25.95195
G1 X52.899 Y90.767 E25.99418
G1 X52.978 Y90.679 E26.00362
G1 X53.479 Y90.155 E26.06149
G1 X53.7 Y89.938 E26.08621
G1 X54.092 Y89.571 E26.12908
G1 X54.177 Y89.495 E26.13818
G1 X54.649 Y89.095 E26.18757
G1 X54.886 Y88.905 E26.21181
G1 X55.395 Y88.52 E26.26276
G1 X55.507 Y88.44 E26.27375
G1 X55.927 Y88.154 E26.31431
G1 X56.161 Y88.002 E26.33658
G0 F6000 X56.487 Y88.505
G1 F1200 X57.026 Y88.177 E26.38695
G1 X57.147 Y88.108 E26.39806
G1 X57.559 Y87.885 E26.43546
G1 X57.833 Y87.744 E26.46006
G1 X58.494 Y87.431 E26.51844
G1 X58.605 Y87.383 E26.52809
G1 X58.956 Y87.239 E26.55838
G1 X59.219 Y87.136 E26.58092
G1 X59.875 Y86.903 E26.63649
G1 X60.022 Y86.856 E26.64881
G1 X60.476 Y86.721 E26.68662
G1 X60.744 Y86.648 E26.70879
G1 X61.29 Y86.515 E26.75365
G1 X61.414 Y86.488 E26.76378
G1 X61.98 Y86.38 E26.80978
G1 X62.293 Y86.329 E26.83509
G1 X62.924 Y86.245 E26.88591
G1 X63.04 Y86.233 E26.89521
G1 X63.507 Y86.195 E26.93262
G1 X63.806 Y86.177 E26.95653
G1 X64.382 Y86.157 E27.00253
G1 X64.52 Y86.156 E27.01355
G1 X65.069 Y86.166 E27.05738
G1 X65.37 Y86.179 E27.08143
G1 X66.018 Y86.226 E27.13329
G1 X66.115 Y86.236 E27.14108
G1 X66.573 Y86.294 E27.17793
G1 X66.881 Y86.339 E27.20277
G1 X67.458 Y86.439 E27.24952
G1 X67.592 Y86.466 E27.26043
G1 X68.11 Y86.583 E27.30282
G1 X68.387 Y86.653 E27.32563
G1 X68.972 Y86.819 E27.37417
G1 X69.103 Y86.86 E27.38513
G1 X69.572 Y87.018 E27.42463
G1 X69.836 Y87.114 E27.44705
G1 X70.507 Y87.384 E27.50479
G1 X70.625 Y87.436 E27.51508
G1 X71.004 Y87.611 E27.54841
G1 X71.948 Y88.071 E27.63223
G1 X74.275 Y89.164 E27.83745
G1 X76.584 Y90.171 E28.03853
G1 X78.942 Y91.123 E28.24152
G1 X81.264 Y91.98 E28.43909
G1 X83.692 Y92.801 E28.64369
G1 X86.057 Y93.529 E28.84121
G1 X88.515 Y94.208 E29.04477
G1 X90.951 Y94.808 E29.24503
G1 X93.434 Y95.347 E29.44785
G1 X95.883 Y95.803 E29.6467
G1 X98.387 Y96.198 E29.84905
G1 X100.879 Y96.52 E30.04963
G1 X103.391 Y96.772 E30.25116
G1 X105.897 Y96.952 E30.45171
G1 X108.422 Y97.062 E30.65346
G1 X110.951 Y97.101 E30.85536
G1 X113.444 Y97.068 E31.05438
G1 X116.003 Y96.962 E31.25882
G1 X118.404 Y96.797 E31.45093
G1 X118.587 Y96.782 E31.46559
G1 X121.159 Y96.532 E31.67187
G1 X123.619 Y96.224 E31.86977
G1 X125.177 Y95.978 E31.99567
G1 X126.588 Y95.767 E32.10956
G1 X126.895 Y95.725 E32.13429
G1 X127.848 Y95.61 E32.21092
G1 X130.435 Y95.26 E32.4193
G1 X132.915 Y94.853 E32.61992
G1 X135.374 Y94.379 E32.81982
G1 X137.823 Y93.833 E33.02011
G1 X140.265 Y93.217 E33.22114
G1 X142.715 Y92.523 E33.42441
G1 X145.121 Y91.769 E33.62568
G1 X147.5 Y90.948 E33.82657
G1 X149.854 Y90.059 E34.02743
G1 X152.177 Y89.108 E34.2278
G1 X154.5 Y88.078 E34.43064
G1 X156.81 Y86.976 E34.63494
G1 X157.382 Y86.693 E34.68588
G1 X157.994 Y86.413 E34.73961
G1 X158.403 Y86.241 E34.77502
G1 X159.278 Y85.917 E34.84951
G1 X160.241 Y85.653 E34.92921
G1 X160.446 Y85.607 E34.94598
G1 X161.365 Y85.442 E35.02051
G1 X161.846 Y85.388 E35.05915
G1 X162.187 Y85.357 E35.08648
G1 X163.12 Y85.312 E35.16105
G1 X163.848 Y85.333 E35.21918
G1 X164.219 Y85.356 E35.24885
G1 X165.148 Y85.454 E35.32342
G1 X166.048 Y85.626 E35.39656
G1 X166.226 Y85.668 E35.41116
G1 X167.125 Y85.921 E35.48571
G1 X167.712 Y86.133 E35.53553
G1 X168.04 Y86.262 E35.56367
G1 X168.894 Y86.641 E35.63825
G1 X169.556 Y86.998 E35.69829
G1 X169.838 Y87.163 E35.72437
G1 X170.623 Y87.669 E35.79892
G1 X171.205 Y88.11 E35.85721
G1 X171.434 Y88.296 E35.88076
G1 X172.133 Y88.915 E35.95529
G1 X172.645 Y89.444 E36.01405
G1 X172.892 Y89.717 E36.04344
G1 X173.488 Y90.436 E36.11799
G1 X174.003 Y91.175 E36.18989
G1 X174.11 Y91.343 E36.20579
G1 X174.577 Y92.151 E36.28029
G1 X174.846 Y92.702 E36.32923
G1 X174.985 Y93.009 E36.35613
G1 X175.333 Y93.875 E36.43063
G1 X175.559 Y94.592 E36.49064
G1 X175.663 Y94.967 E36.52171
G1 X175.873 Y95.877 E36.59626
G1 X176.012 Y96.873 E36.67653
G1 X176.034 Y97.11 E36.69553
G1 X176.081 Y98.042 E36.77002
G1 X176.072 Y98.569 E36.8121
G1 X176.058 Y98.906 E36.83902
G1 X175.979 Y99.837 E36.9136
G1 X175.815 Y100.783 E36.99024
G1 X175.752 Y101.071 E37.01378
G1 X175.566 Y101.799 E37.07376
G1 X175.425 Y102.28 E37.11377
G1 X174.796 Y104.52 E37.29949
G1 X169.645 Y123.745 E38.88824
G1 X169.448 Y124.526 E38.95254
G1 X169.086 Y125.893 E39.06542
G1 X169.014 Y126.151 E39.0868
G1 X168.887 Y126.587 E39.12305
G1 X168.774 Y126.954 E39.1537
G1 X168.683 Y127.226 E39.1766
G1 X168.533 Y127.656 E39.21295
G1 X168.336 Y128.178 E39.25749
G1 X168.147 Y128.642 E39.29748
G1 X168.017 Y128.947 E39.32395
G1 X167.883 Y129.244 E39.34995
G1 X167.67 Y129.697 E39.38991
G1 X167.416 Y130.202 E39.43504
G1 X167.099 Y130.79 E39.48836
G1 X166.868 Y131.189 E39.52516
G1 X166.611 Y131.613 E39.56474
G1 X166.316 Y132.074 E39.60843
G1 X166.035 Y132.489 E39.64843
G1 X165.729 Y132.918 E39.6905
G1 X165.393 Y133.366 E39.7352
G1 X165.006 Y133.852 E39.78479
G1 X164.705 Y134.209 E39.82207
G1 X164.37 Y134.588 E39.86244
G1 X164.058 Y134.925 E39.8991
G1 X163.815 Y135.179 E39.92716
G1 X163.655 Y135.341 E39.94534
G1 X163.451 Y135.543 E39.96825
G1 X163.147 Y135.835 E40.0019
G1 X162.735 Y136.211 E40.04643
G1 X162.33 Y136.562 E40.08921
G1 X161.915 Y136.904 E40.13213
G1 X161.568 Y137.176 E40.16733
G1 X161.323 Y137.363 E40.19193
G1 X161.208 Y137.448 E40.20335
G1 X160.948 Y137.634 E40.22886
G1 X160.555 Y137.907 E40.26706
G1 X160.104 Y138.204 E40.31017
G1 X159.716 Y138.446 E40.34667
G1 X159.387 Y138.644 E40.37732
G1 X159.148 Y138.781 E40.39931
G1 X158.785 Y138.983 E40.43247
G1 X158.283 Y139.245 E40.47767
G1 X157.769 Y139.497 E40.52337
G1 X157.254 Y139.733 E40.56859
G1 X156.807 Y139.924 E40.60739
G1 X156.405 Y140.087 E40.64202
G1 X156.175 Y140.174 E40.66165
G1 X155.797 Y140.312 E40.69377
G1 X155.527 Y140.407 E40.71662
