; generated by PrusaSlicer 2.3.3+x64 on 2021-12-08 at 12:08:11 UTC
; Postprocessed by [ArcWelder](https://github.com/FormerLurker/ArcWelderLib)
; Copyright(C) 2021 - Brad Hochgesang
; Version: 1.2.0, Branch: master, BuildDate: 2021-11-22T09:56:32Z
; resolution=0.05mm
; path_tolerance=5.0%
; max_radius=9999.00mm
; allow_3d_arcs=True
; default_xyz_precision=3
; default_e_precision=5
; extrusion_rate_variance_percent=5.0%


; 

; external perimeters extrusion width = 1.12mm
; perimeters extrusion width = 1.12mm
; infill extrusion width = 1.12mm
; solid infill extrusion width = 1.12mm
; top infill extrusion width = 0.45mm

M201 X500 Y500 Z100 E5000 ; sets maximum accelerations, mm/sec^2
M203 X500 Y500 Z10 E60 ; sets maximum feedrates, mm/sec
M204 P500 R1000 T500 ; sets acceleration (P, T) and retract acceleration (R), mm/sec^2
M205 X8.00 Y8.00 Z0.40 E5.00 ; sets the jerk limits, mm/sec
M205 S0 T0 ; sets the minimum extruding and travel feed rate, mm/sec
M107
;TYPE:Custom
G90 ; use absolute coordinates
M83 ; extruder relative mode
M104 S220 ; set extruder temp
M140 S60 ; set bed temp
G28 ; home all
;G1 Z10.0; Move Z Axis up to prevent from heating up too close to the bed
M190 S60 ; wait for bed temp
M109 S220 ; wait for extruder temp
G1 Z2 F240
G1 X2 Y10 F3000
G1 Z0.28 F240
G92 E0
G1 Y190 E15 F1500 ; intro line
G1 X2.3 F5000
G92 E0
G1 Y10 E15 F1200 ; intro line
G92 E0
G21 ; set units to millimeters
G90 ; use absolute coordinates
M83 ; use relative distances for extrusion
; Filament gcode
;LAYER_CHANGE
;Z:0.2
;HEIGHT:0.2
;BEFORE_LAYER_CHANGE
G92 E0
;0.2


G1 Z0.200 F9000.000
;AFTER_LAYER_CHANGE
;0.2
G1 E-5.00000 F3600.000
G1 X114.326 Y57.006 F9000.000
G1 E5.00000 F2400.000
M204 S500
;TYPE:Skirt
;WIDTH:1.125
G1 F1108.976
G1 X115.755 Y54.731 E0.24176
G1 X117.668 Y52.260 E0.28113
G1 X119.457 Y50.382 E0.23340
G1 X121.430 Y48.652 E0.23604
G1 X123.577 Y47.097 E0.23861
G1 X125.744 Y45.809 E0.22683
G1 X128.484 Y44.522 E0.27233
G1 X131.046 Y43.622 E0.24431
G1 X133.825 Y42.933 E0.25763
G1 X136.710 Y42.525 E0.26218
G1 X139.470 Y42.407 E0.24854
G1 X142.494 Y42.592 E0.27261
G1 X145.291 Y43.043 E0.25486
G1 X148.114 Y43.799 E0.26301
G1 X150.511 Y44.698 E0.23034
G1 X152.882 Y45.839 E0.23674
G1 X155.080 Y47.154 E0.23047
G1 X157.479 Y48.928 E0.26841
G1 X159.944 Y51.214 E0.30254
G1 X161.808 Y53.358 E0.25561
G1 X163.531 Y55.816 E0.27006
G1 X165.000 Y58.439 E0.27049
G1 X166.081 Y60.939 E0.24505
G1 X166.881 Y63.382 E0.23130
G1 X167.468 Y65.958 E0.23778
G1 X167.805 Y68.438 E0.22514
G1 X167.924 Y71.079 E0.23783
G1 X167.806 Y73.634 E0.23017
G1 X167.382 Y76.574 E0.26727
G3 X165.710 Y82.077 I-28.177 J-5.556 E0.51823
G1 X164.496 Y84.620 E0.25354
G1 X162.977 Y87.124 E0.26354
G1 X160.901 Y89.828 E0.30672
G1 X159.403 Y91.420 E0.19667
G1 X157.140 Y93.433 E0.27256
G1 X155.116 Y94.906 E0.22519
G1 X152.854 Y96.259 E0.23715
G1 X150.535 Y97.378 E0.23166
G1 X148.105 Y98.288 E0.23349
G1 X145.587 Y98.979 E0.23499
G1 X142.641 Y99.481 E0.26884
G3 X139.276 Y99.677 I-3.340 J-28.360 E0.30341
G1 X136.422 Y99.534 E0.25709
G1 X133.534 Y99.089 E0.26289
G1 X130.514 Y98.304 E0.28078
G1 X128.062 Y97.390 E0.23544
G1 X125.749 Y96.279 E0.23088
G1 X123.460 Y94.910 E0.23996
G1 X121.403 Y93.409 E0.22910
G1 X119.074 Y91.328 E0.28104
G1 X116.924 Y88.927 E0.29002
G1 X115.434 Y86.888 E0.22719
G1 X114.069 Y84.610 E0.23898
G1 X112.904 Y82.179 E0.24254
G1 X112.040 Y79.847 E0.22378
G1 X111.211 Y76.687 E0.29386
G1 X110.765 Y73.614 E0.27945
G1 X110.648 Y71.075 E0.22869
G1 X110.770 Y68.417 E0.23943
G1 X111.121 Y65.859 E0.23227
G1 X111.818 Y62.950 E0.26912
G1 X112.953 Y59.793 E0.30192
G1 X114.259 Y57.140 E0.26599
G1 E-3.50000 F3600.000
;WIPE_START
G1 F7200.000
G1 X115.755 Y54.731 E-1.34718
G1 X115.855 Y54.601 E-0.07782
;WIPE_END
G1 E-0.07500 F3600.000
G1 X117.635 Y59.038 F9000.000
G1 E5.00000 F2400.000
;TYPE:External perimeter
G1 F1108.976
G3 X114.752 Y67.708 I21.647 J12.012 E13.16965
G3 X117.561 Y59.169 I24.498 J3.327 E0.81333
G1 E-3.50000 F3600.000
;WIPE_START
G1 F7200.000
G3 X119.155 Y56.629 I20.552 J11.128 E-1.42500
;WIPE_END
G1 E-0.07500 F3600.000
G1 X159.676 Y57.579 F9000.000
G1 E5.00000 F2400.000
;TYPE:Solid infill
;WIDTH:1.13111
G1 F1102.748
G1 X155.782 Y53.684 E0.49834
G2 X150.382 Y49.823 I-16.484 J17.348 E0.60261
G1 X160.500 Y59.941 E1.29475
G3 X161.740 Y62.720 I-19.904 J10.548 E0.27550
G1 X147.608 Y48.588 E1.80839
G2 X145.367 Y47.886 I-7.206 J19.077 E0.21255
G1 X162.441 Y64.960 E2.18486
G3 X162.877 Y66.935 I-22.592 J6.023 E0.18308
G1 X143.398 Y47.456 E2.49259
G2 X141.614 Y47.211 I-3.297 J17.389 E0.16300
G1 X163.117 Y68.714 E2.75155
G3 X163.220 Y70.356 I-15.497 J1.796 E0.14890
G1 X139.972 Y47.108 E2.97488
G2 X138.437 Y47.112 I-0.717 J19.279 E0.13890
G1 X163.216 Y71.891 E3.17076
G1 X163.122 Y73.335 E0.13098
G1 X136.994 Y47.207 E3.34341
G2 X135.629 Y47.381 I1.073 J13.859 E0.12455
G1 X162.945 Y74.698 E3.49549
G3 X162.711 Y76.002 I-15.062 J-2.030 E0.11995
G1 X134.326 Y47.618 E3.63218
G2 X133.092 Y47.923 I2.080 J11.063 E0.11503
G1 X162.414 Y77.244 E3.75208
G1 X162.054 Y78.424 E0.11156
G1 X131.893 Y48.263 E3.85946
G1 X130.759 Y48.668 E0.10895
G1 X161.663 Y79.571 E3.95446
G1 X161.213 Y80.660 E0.10663
G1 X129.669 Y49.116 E4.03647
G1 X128.619 Y49.606 E0.10478
G1 X160.723 Y81.709 E4.10801
G1 X160.191 Y82.716 E0.10305
G1 X127.612 Y50.137 E4.16892
G1 X126.644 Y50.709 E0.10166
G1 X159.618 Y83.683 E4.21945
G1 X159.012 Y84.615 E0.10065
G1 X125.714 Y51.317 E4.26093
G1 X124.820 Y51.962 E0.09973
G1 X158.366 Y85.508 E4.29255
G1 X157.679 Y86.361 E0.09904
G1 X123.963 Y52.644 E4.31451
G1 X123.142 Y53.362 E0.09868
G1 X156.967 Y87.187 E4.32837
G1 X156.215 Y87.974 E0.09849
G1 X122.355 Y54.114 E4.33277
G1 X121.603 Y54.901 E0.09849
G1 X155.426 Y88.723 E4.32806
G3 X154.606 Y89.443 I-7.580 J-7.806 E0.09871
G1 X120.886 Y55.723 E4.31493
G1 X120.203 Y56.579 E0.09909
G1 X153.748 Y90.124 E4.29246
G1 X152.854 Y90.768 E0.09975
G1 X119.558 Y57.473 E4.26057
G2 X118.952 Y58.406 I9.606 J6.902 E0.10068
G1 X151.924 Y91.377 E4.21914
G1 X150.956 Y91.949 E0.10168
G1 X118.379 Y59.371 E4.16870
G1 X117.846 Y60.378 E0.10304
G1 X149.949 Y92.480 E4.10795
G1 X148.902 Y92.972 E0.10469
G1 X117.356 Y61.427 E4.03661
G1 X116.907 Y62.517 E0.10666
G1 X147.809 Y93.419 E3.95431
G1 X146.675 Y93.823 E0.10897
G1 X116.507 Y63.655 E3.86042
G1 X116.160 Y64.847 E0.11232
G1 X145.484 Y94.171 E3.75238
G3 X144.238 Y94.464 I-2.960 J-9.791 E0.11584
G1 X115.861 Y66.087 E3.63123
G2 X115.623 Y67.388 I12.594 J2.976 E0.11971
G1 X142.940 Y94.705 E3.49559
G3 X141.576 Y94.880 I-2.563 J-14.577 E0.12444
G1 X115.449 Y68.753 E3.34331
G1 X115.356 Y70.199 E0.13105
G1 X140.129 Y94.972 E3.17011
G3 X138.594 Y94.976 I-0.813 J-17.344 E0.13897
G1 X115.352 Y71.734 E2.97412
G2 X115.454 Y73.375 I15.759 J-0.156 E0.14886
G1 X136.957 Y94.877 E2.75146
G3 X135.163 Y94.623 I1.451 J-16.709 E0.16394
G1 X115.701 Y75.160 E2.49049
G2 X116.128 Y77.126 I19.043 J-3.107 E0.18209
G1 X133.202 Y94.200 E2.18483
G3 X130.955 Y93.492 I4.682 J-18.779 E0.21325
G1 X116.833 Y79.371 E1.80701
G2 X118.074 Y82.150 I19.856 J-7.201 E0.27561
G1 X128.179 Y92.255 E1.29306
G3 X122.762 Y88.378 I11.053 J-21.166 E0.60466
G1 X118.898 Y84.513 E0.49450
M106 S255
;LAYER_CHANGE
;Z:0.4
;HEIGHT:0.2
;BEFORE_LAYER_CHANGE
G92 E0
;0.4


G1 Z0.400 F9000.000
;AFTER_LAYER_CHANGE
;0.4
G1 E-5.00000 F3600.000
G1 X115.301 Y86.667 F9000.000
G1 E5.00000 F2400.000
;TYPE:Skirt
;WIDTH:1.125
G1 F1108.976
G1 X114.069 Y84.610 E0.21580
G1 X112.904 Y82.179 E0.24254
G1 X112.040 Y79.847 E0.22378
G1 X111.211 Y76.687 E0.29386
G1 X110.765 Y73.614 E0.27945
G1 X110.648 Y71.075 E0.22869
G1 X110.770 Y68.417 E0.23943
G1 X111.121 Y65.859 E0.23227
G1 X111.818 Y62.950 E0.26912
G1 X112.953 Y59.793 E0.30192
G1 X114.326 Y57.006 E0.27949
G1 X115.755 Y54.731 E0.24176
G1 X117.668 Y52.260 E0.28113
G1 X119.457 Y50.382 E0.23340
G1 X121.430 Y48.652 E0.23604
G1 X123.577 Y47.097 E0.23861
G1 X125.744 Y45.809 E0.22683
G1 X128.484 Y44.522 E0.27233
G1 X131.046 Y43.622 E0.24431
G1 X133.825 Y42.933 E0.25763
G1 X136.710 Y42.525 E0.26218
G1 X139.470 Y42.407 E0.24854
G1 X142.494 Y42.592 E0.27261
G1 X145.291 Y43.043 E0.25486
G1 X148.114 Y43.799 E0.26301
G1 X150.511 Y44.698 E0.23034
G1 X152.882 Y45.839 E0.23674
G1 X155.080 Y47.154 E0.23047
G1 X157.479 Y48.928 E0.26841
G1 X159.944 Y51.214 E0.30254
G1 X161.808 Y53.358 E0.25561
G1 X163.531 Y55.816 E0.27006
G1 X165.000 Y58.439 E0.27049
G1 X166.081 Y60.939 E0.24505
G1 X166.881 Y63.382 E0.23130
G1 X167.468 Y65.958 E0.23778
G1 X167.805 Y68.438 E0.22514
G1 X167.924 Y71.079 E0.23783
G1 X167.806 Y73.634 E0.23017
G1 X167.382 Y76.574 E0.26727
G3 X165.710 Y82.077 I-28.177 J-5.556 E0.51823
G1 X164.496 Y84.620 E0.25354
G1 X162.977 Y87.124 E0.26354
G1 X160.901 Y89.828 E0.30672
G1 X159.403 Y91.420 E0.19667
G1 X157.140 Y93.433 E0.27256
G1 X155.116 Y94.906 E0.22519
G1 X152.854 Y96.259 E0.23715
G1 X150.535 Y97.378 E0.23166
G1 X148.105 Y98.288 E0.23349
G1 X145.587 Y98.979 E0.23499
G1 X142.641 Y99.481 E0.26884
G3 X139.276 Y99.677 I-3.340 J-28.360 E0.30341
G1 X136.422 Y99.534 E0.25709
G1 X133.534 Y99.089 E0.26289
G1 X130.514 Y98.304 E0.28078
G1 X128.062 Y97.390 E0.23544
G1 X125.749 Y96.279 E0.23088
G1 X123.460 Y94.910 E0.23996
G1 X121.403 Y93.409 E0.22910
G1 X119.074 Y91.328 E0.28104
G1 X116.924 Y88.927 E0.29002
G1 X115.378 Y86.796 E0.23683
G1 E-3.50000 F3600.000
;WIPE_START
G1 F7200.000
G1 X114.069 Y84.610 E-1.21048
G1 X113.874 Y84.203 E-0.21452
;WIPE_END
G1 E-0.07500 F3600.000
G1 X118.453 Y84.847 F9000.000
G1 E5.00000 F2400.000
;TYPE:External perimeter
G1 F1108.976
G3 X121.657 Y88.756 I20.831 J-13.806 E13.67157
G3 X118.538 Y84.970 I17.665 J-17.730 E0.44198
G1 E-3.50000 F3600.000
;WIPE_START
G1 F7200.000
G3 X117.023 Y82.383 I17.794 J-12.158 E-1.42500
;WIPE_END
G1 E-0.07500 F3600.000
G1 X152.894 Y91.616 F9000.000
G1 E5.00000 F2400.000
;TYPE:Solid infill
;WIDTH:1.14145
G1 F1092.368
G1 X156.816 Y87.694 E0.50674
G2 X160.699 Y82.257 I-17.232 J-16.412 E0.61224
G1 X150.494 Y92.462 E1.31829
G3 X147.691 Y93.712 I-10.418 J-19.593 E0.28058
G1 X161.958 Y79.445 E1.84299
G2 X162.672 Y77.177 I-21.630 J-8.056 E0.21726
G1 X145.422 Y94.428 E2.22840
G3 X143.439 Y94.857 I-4.794 J-17.364 E0.18534
G1 X163.094 Y75.202 E2.53897
G2 X163.348 Y73.394 I-18.167 J-3.474 E0.16681
G1 X141.645 Y95.097 E2.80353
G3 X139.989 Y95.199 I-1.683 J-13.834 E0.15162
G1 X163.447 Y71.741 E3.03028
G2 X163.450 Y70.185 I-15.912 J-0.809 E0.14219
G1 X138.433 Y95.202 E3.23162
G1 X136.974 Y95.108 E0.13360
G1 X163.354 Y68.728 E3.40770
G2 X163.177 Y67.351 I-17.737 J1.580 E0.12681
G1 X135.595 Y94.933 E3.56296
G3 X134.282 Y94.693 I2.327 J-16.440 E0.12198
G1 X162.936 Y66.038 E3.70152
G1 X162.639 Y64.782 E0.11794
G1 X133.029 Y94.392 E3.82499
G1 X131.824 Y94.043 E0.11456
G1 X162.285 Y63.582 E3.93489
G1 X161.879 Y62.435 E0.11120
G1 X130.678 Y93.636 E4.03057
G1 X129.576 Y93.184 E0.10875
G1 X161.425 Y61.335 E4.11420
G1 X160.931 Y60.276 E0.10677
G1 X128.517 Y92.689 E4.18715
G3 X127.503 Y92.150 I5.266 J-11.129 E0.10496
G1 X160.395 Y59.258 E4.24898
G1 X159.817 Y58.282 E0.10357
G1 X126.529 Y91.570 E4.30007
G1 X125.582 Y90.964 E0.10272
G1 X159.199 Y57.347 E4.34252
G1 X158.554 Y56.439 E0.10178
G1 X124.680 Y90.313 E4.37581
G1 X123.818 Y89.620 E0.10094
G1 X157.861 Y55.578 E4.39760
G2 X157.138 Y54.748 I-7.197 J5.539 E0.10062
G1 X122.988 Y88.897 E4.41142
G3 X122.192 Y88.140 I7.288 J-8.461 E0.10041
G1 X156.378 Y53.953 E4.41620
G2 X155.584 Y53.194 I-6.451 J5.954 E0.10040
G1 X121.438 Y87.340 E4.41099
G3 X120.711 Y86.513 I6.254 J-6.231 E0.10060
G1 X154.758 Y52.467 E4.39805
G1 X153.888 Y51.783 E0.10106
G1 X120.023 Y85.648 E4.37454
G3 X119.370 Y84.747 I9.445 J-7.532 E0.10164
G1 X152.989 Y51.128 E4.34286
G2 X152.052 Y50.512 I-6.541 J8.929 E0.10251
G1 X118.756 Y83.808 E4.30112
G3 X118.181 Y82.830 I9.263 J-6.104 E0.10370
G1 X151.074 Y49.937 E4.24909
G1 X150.055 Y49.401 E0.10508
G1 X117.643 Y81.814 E4.18698
G1 X117.149 Y80.755 E0.10675
G1 X148.998 Y48.905 E4.11432
G1 X147.897 Y48.452 E0.10873
G1 X116.692 Y79.657 E4.03104
G1 X116.290 Y78.506 E0.11141
G1 X146.753 Y48.043 E3.93518
G1 X145.549 Y47.693 E0.11452
G1 X115.933 Y77.310 E3.82584
G1 X115.638 Y76.051 E0.11809
G1 X144.299 Y47.390 E3.70241
G1 X142.985 Y47.150 E0.12197
G1 X115.396 Y74.740 E3.56402
G3 X115.221 Y73.361 I15.223 J-2.632 E0.12698
G1 X141.603 Y46.979 E3.40801
G1 X140.149 Y46.880 E0.13313
G1 X115.125 Y71.903 E3.23251
G3 X115.123 Y70.352 I15.814 J-0.796 E0.14172
G1 X138.596 Y46.879 E3.03221
G2 X136.939 Y46.983 I0.027 J13.679 E0.15170
G1 X115.222 Y68.699 E2.80531
G3 X115.464 Y66.903 I21.962 J2.045 E0.16556
G1 X135.138 Y47.230 E2.54136
G2 X133.157 Y47.657 I2.722 J17.437 E0.18518
G1 X115.911 Y64.903 E2.22781
G3 X116.618 Y62.643 I17.866 J4.348 E0.21647
G1 X130.882 Y48.379 E1.84261
G2 X128.093 Y49.614 I7.624 J20.984 E0.27879
G1 X117.866 Y59.841 E1.32113
G3 X121.725 Y54.428 I20.659 J10.646 E0.60927
G1 X125.701 Y50.452 E0.51363
;LAYER_CHANGE
;Z:0.6
;HEIGHT:0.2
;BEFORE_LAYER_CHANGE
G92 E0
;0.6


G1 Z0.600 F9000.000
;AFTER_LAYER_CHANGE
;0.6
G1 X125.450 Y50.094
;TYPE:External perimeter
;WIDTH:1.125
G1 F1108.976
G3 X116.678 Y60.125 I13.835 J20.950 E12.97624
G3 X125.328 Y50.180 I22.725 J11.032 E1.19974
G1 E-3.50000 F3600.000
;WIPE_START
G1 F7200.000
G3 X127.917 Y48.669 I10.449 J14.929 E-1.42501
;WIPE_END
G1 E-0.07500 F3600.000
G1 X158.808 Y55.742 F9000.000
G1 E5.00000 F2400.000
;TYPE:Top solid infill
;WIDTH:0.453329
G1 F1800.000
G2 X155.882 Y52.852 I-46.980 J44.640 E0.14035
G2 X153.249 Y50.763 I-14.565 J15.654 E0.11480
G1 X159.571 Y57.086 E0.30512
G3 X160.582 Y58.677 I-10.990 J8.100 E0.06437
G1 X151.669 Y49.764 E0.43014
G2 X150.396 Y49.071 I-6.525 J10.471 E0.04950
G1 X161.257 Y59.933 E0.52419
G3 X161.782 Y61.038 I-8.448 J4.691 E0.04177
G1 X149.287 Y48.543 E0.60303
G2 X148.295 Y48.131 I-4.065 J8.386 E0.03668
G1 X162.205 Y62.041 E0.67132
G3 X162.532 Y62.949 I-6.473 J2.844 E0.03296
G1 X147.368 Y47.785 E0.73182
G2 X146.504 Y47.501 I-2.803 J7.070 E0.03106
G1 X162.818 Y63.815 E0.78730
G1 X163.062 Y64.640 E0.02938
G1 X145.691 Y47.269 E0.83837
G1 X144.907 Y47.065 E0.02764
G1 X163.243 Y65.401 E0.88491
G1 X163.415 Y66.154 E0.02636
G1 X144.175 Y46.913 E0.92858
G1 X143.460 Y46.779 E0.02480
G1 X163.550 Y66.869 E0.96953
G1 X163.655 Y67.554 E0.02366
G1 X142.764 Y46.663 E1.00821
G1 X142.103 Y46.583 E0.02271
G1 X163.740 Y68.219 E1.04419
G1 X163.820 Y68.880 E0.02270
G1 X141.454 Y46.515 E1.07937
G1 X140.827 Y46.467 E0.02148
G1 X163.855 Y69.496 E1.11138
G1 X163.891 Y70.112 E0.02106
G1 X140.212 Y46.433 E1.14277
G1 X139.632 Y46.433 E0.01981
G1 X163.910 Y70.712 E1.17170
G1 X163.910 Y71.292 E0.01981
G1 X139.051 Y46.433 E1.19972
G1 X138.471 Y46.433 E0.01981
G1 X163.890 Y71.852 E1.22675
G1 X163.868 Y72.411 E0.01908
G1 X137.912 Y46.455 E1.25266
G1 X137.373 Y46.496 E0.01847
G1 X163.836 Y72.959 E1.27714
G1 X163.789 Y73.492 E0.01827
G1 X136.839 Y46.543 E1.30060
G1 X136.314 Y46.598 E0.01802
G1 X163.727 Y74.011 E1.32299
G1 X163.661 Y74.525 E0.01768
G1 X135.800 Y46.665 E1.34456
G1 X135.310 Y46.754 E0.01703
G1 X163.584 Y75.029 E1.36454
G1 X163.503 Y75.529 E0.01728
G1 X134.819 Y46.844 E1.38434
G1 X134.328 Y46.934 E0.01703
G1 X163.399 Y76.004 E1.40297
G1 X163.294 Y76.480 E0.01662
G1 X133.837 Y47.023 E1.42160
G1 X133.374 Y47.141 E0.01630
G1 X163.186 Y76.953 E1.43875
G1 X163.066 Y77.413 E0.01624
G1 X132.914 Y47.260 E1.45520
G1 X132.460 Y47.387 E0.01607
G1 X162.946 Y77.873 E1.47129
G1 X162.809 Y78.317 E0.01584
G1 X132.011 Y47.519 E1.48636
G1 X131.567 Y47.655 E0.01585
G1 X162.670 Y78.758 E1.50105
G1 X162.522 Y79.190 E0.01559
G1 X131.141 Y47.809 E1.51446
G1 X130.715 Y47.963 E0.01547
G1 X162.373 Y79.622 E1.52787
G1 X162.207 Y80.036 E0.01523
G1 X130.293 Y48.122 E1.54021
G1 X129.876 Y48.285 E0.01529
G1 X162.037 Y80.447 E1.55215
G1 X161.866 Y80.856 E0.01513
G1 X129.467 Y48.457 E1.56359
G1 X129.071 Y48.641 E0.01492
G1 X161.687 Y81.257 E1.57410
G1 X161.508 Y81.659 E0.01500
G1 X128.674 Y48.825 E1.58461
G1 X128.285 Y49.016 E0.01480
G1 X161.313 Y82.044 E1.59398
G1 X161.115 Y82.427 E0.01470
G1 X127.897 Y49.208 E1.60316
G1 X127.515 Y49.407 E0.01469
G1 X160.915 Y82.807 E1.61195
G1 X160.708 Y83.181 E0.01457
G1 X127.148 Y49.620 E1.61967
G1 X126.781 Y49.833 E0.01449
G1 X160.497 Y83.549 E1.62716
