;FLAVOR:Marlin
;TIME:839
;Filament used: 0.465696m
;Layer height: 0.2
;MINX:43.5
;MINY:63.5
;MINZ:0.2
;MAXX:176.5
;MAXY:156.5
;MAXZ:0.2
;Generated with Cura_SteamEngine 4.10.0
M140 S80
M105
M190 S80
M104 S250
M105
M109 S250
M82 ;absolute extrusion mode
; Ender 3 Custom Start G-code
G92 E0 ; Reset Extruder
G28 ; Home all axes
G1 Z2.0 F3000 ; Move Z Axis up little to prevent scratching of Heat Bed
G1 X0.1 Y20 Z0.3 F5000.0 ; Move to start position
G1 X0.1 Y200.0 Z0.3 F1500.0 E15 ; Draw the first line
G1 X0.4 Y200.0 Z0.3 F5000.0 ; Move to side a little
G1 X0.4 Y20 Z0.3 F1500.0 E30 ; Draw the second line
G92 E0 ; Reset Extruder
G1 Z2.0 F3000 ; Move Z Axis up little to prevent scratching of Heat Bed
G1 X5 Y20 Z0.3 F5000.0 ; Move over to prevent blob squish
G92 E0
G92 E0
G1 F1500 E-6.5
;LAYER_COUNT:1
;LAYER:0
M107
G0 F6000 X48.144 Y65.783 Z0.2
;TYPE:SKIRT
G1 F1500 E0
G1 F900 X48.936 Y65.243 E0.04782
G1 X49.771 Y64.771 E0.09568
G1 X50.642 Y64.37 E0.14352
G1 X51.544 Y64.044 E0.19137
G1 X52.469 Y63.793 E0.23918
G1 X53.413 Y63.62 E0.28706
G1 X54.687 Y63.514 E0.35084
G1 X55.008 Y63.505 E0.36686
G1 X55.33 Y63.5 E0.38293
G1 X84.293 Y63.5 E1.8279
G1 X85.171 Y63.511 E1.87171
G1 X85.501 Y63.52 E1.88818
G1 X86.229 Y63.551 E1.92453
G1 X88.737 Y63.622 E2.0497
G1 X91.27 Y63.622 E2.17608
G1 X93.784 Y63.551 E2.30155
G1 X94.155 Y63.532 E2.32008
G1 X94.407 Y63.522 E2.33267
G1 X95 Y63.505 E2.36226
G1 X95.33 Y63.5 E2.37873
G1 X124.453 Y63.501 E3.83168
G1 X125.171 Y63.511 E3.86751
G1 X125.501 Y63.52 E3.88398
G1 X126.229 Y63.551 E3.92033
G1 X128.737 Y63.622 E4.0455
G1 X131.27 Y63.622 E4.17188
G1 X133.78 Y63.551 E4.29715
G1 X134.153 Y63.532 E4.31578
G1 X134.407 Y63.522 E4.32847
G1 X135 Y63.505 E4.35806
G1 X135.33 Y63.5 E4.37453
G1 X164.458 Y63.501 E5.82773
G1 X165.156 Y63.511 E5.86256
G1 X166.113 Y63.565 E5.91038
G1 X167.063 Y63.698 E5.95824
G1 X167.998 Y63.91 E6.00607
G1 X168.912 Y64.199 E6.05389
G1 X169.799 Y64.564 E6.10174
G1 X170.653 Y65 E6.14958
G1 X171.467 Y65.507 E6.19743
G1 X172.237 Y66.08 E6.24531
G1 X172.955 Y66.714 E6.2931
G1 X173.619 Y67.407 E6.34098
G1 X174.222 Y68.152 E6.3888
G1 X174.762 Y68.945 E6.43666
G1 X175.233 Y69.78 E6.48449
G1 X175.633 Y70.652 E6.53236
G1 X175.959 Y71.553 E6.58016
G1 X176.209 Y72.479 E6.62801
G1 X176.381 Y73.423 E6.67588
G1 X176.486 Y74.687 E6.73916
G1 X176.495 Y75.007 E6.75513
G1 X176.5 Y75.33 E6.77125
G1 X176.499 Y94.436 E7.72445
G1 X176.473 Y96.276 E7.81626
G1 X176.473 Y98.87 E7.94567
G1 X176.498 Y100.074 E8.00575
G1 X176.5 Y100.313 E8.01768
G1 X176.499 Y119.436 E8.97173
G1 X176.473 Y121.276 E9.06354
G1 X176.473 Y123.87 E9.19295
G1 X176.498 Y125.074 E9.25303
G1 X176.5 Y125.313 E9.26496
G1 X176.499 Y144.406 E10.21751
G1 X176.49 Y145.133 E10.25378
G1 X176.438 Y146.091 E10.30165
G1 X176.307 Y147.041 E10.34949
G1 X176.097 Y147.976 E10.3973
G1 X175.809 Y148.891 E10.44516
G1 X175.447 Y149.779 E10.493
G1 X175.012 Y150.634 E10.54086
G1 X174.507 Y151.449 E10.58869
G1 X173.935 Y152.219 E10.63655
G1 X173.302 Y152.939 E10.68438
G1 X172.611 Y153.604 E10.73222
G1 X171.867 Y154.209 E10.78006
G1 X171.075 Y154.75 E10.82792
G1 X170.241 Y155.223 E10.87575
G1 X169.37 Y155.625 E10.92361
G1 X168.469 Y155.952 E10.97143
G1 X167.544 Y156.204 E11.01926
G1 X166.6 Y156.378 E11.06715
G1 X165.313 Y156.486 E11.13158
G1 X164.992 Y156.495 E11.14761
G1 X164.67 Y156.5 E11.16367
G1 X135.547 Y156.499 E12.61662
G1 X134.83 Y156.489 E12.6524
G1 X134.501 Y156.48 E12.66882
G1 X133.774 Y156.449 E12.70512
G1 X131.263 Y156.378 E12.83045
G1 X128.731 Y156.378 E12.95677
G1 X126.22 Y156.449 E13.08209
G1 X125.847 Y156.468 E13.10073
G1 X125.593 Y156.478 E13.11341
G1 X125 Y156.495 E13.14301
G1 X124.67 Y156.5 E13.15947
G1 X95.547 Y156.499 E14.61242
G1 X94.83 Y156.489 E14.6482
G1 X94.501 Y156.48 E14.66462
G1 X93.774 Y156.449 E14.70092
G1 X91.263 Y156.378 E14.82625
G1 X88.731 Y156.378 E14.95257
G1 X86.22 Y156.449 E15.07789
G1 X85.847 Y156.468 E15.09653
G1 X85.593 Y156.478 E15.10921
G1 X85 Y156.495 E15.1388
G1 X84.67 Y156.5 E15.15527
G1 X55.559 Y156.499 E16.60762
G1 X54.861 Y156.49 E16.64245
G1 X53.903 Y156.438 E16.69031
G1 X52.953 Y156.306 E16.73817
G1 X52.018 Y156.095 E16.78599
G1 X51.103 Y155.807 E16.83384
G1 X50.215 Y155.444 E16.8817
G1 X49.361 Y155.009 E16.92952
G1 X48.546 Y154.503 E16.97738
G1 X47.776 Y153.932 E17.02521
G1 X47.056 Y153.298 E17.07307
G1 X46.392 Y152.607 E17.12088
G1 X45.787 Y151.862 E17.16876
G1 X45.247 Y151.07 E17.21658
G1 X44.775 Y150.236 E17.26439
G1 X44.373 Y149.365 E17.31225
G1 X44.046 Y148.463 E17.36012
G1 X43.795 Y147.538 E17.40794
G1 X43.621 Y146.595 E17.45578
G1 X43.513 Y145.302 E17.52051
G1 X43.504 Y144.969 E17.53713
G1 X43.5 Y144.658 E17.55265
G1 X43.501 Y125.553 E18.5058
G1 X43.527 Y123.722 E18.59716
G1 X43.527 Y121.13 E18.72647
G1 X43.502 Y119.926 E18.78655
G1 X43.5 Y119.687 E18.79848
G1 X43.501 Y100.553 E19.75308
G1 X43.527 Y98.722 E19.84443
G1 X43.527 Y96.13 E19.97375
G1 X43.502 Y94.926 E20.03383
G1 X43.5 Y94.687 E20.04575
G1 X43.501 Y75.518 E21.0021
G1 X43.51 Y74.853 E21.03528
G1 X43.563 Y73.896 E21.0831
G1 X43.696 Y72.946 E21.13095
G1 X43.907 Y72.011 E21.17878
G1 X44.195 Y71.096 E21.22663
G1 X44.559 Y70.209 E21.27447
G1 X44.995 Y69.355 E21.3223
G1 X45.501 Y68.54 E21.37016
G1 X46.073 Y67.77 E21.41802
G1 X46.707 Y67.051 E21.46584
G1 X47.399 Y66.387 E21.51369
G1 X48.144 Y65.783 E21.56154
G0 F6000 X48.722 Y66.105
G1 F900 X49.507 Y65.6 E21.60811
G1 X50.332 Y65.163 E21.65468
G1 X51.192 Y64.799 E21.70128
G1 X52.08 Y64.51 E21.74786
G1 X52.989 Y64.298 E21.79443
G1 X53.913 Y64.164 E21.84101
G1 X54.704 Y64.113 E21.88056
G1 X55.025 Y64.104 E21.89658
G1 X55.33 Y64.1 E21.9118
G1 X84.293 Y64.1 E23.35677
G1 X85.163 Y64.111 E23.40017
G1 X85.475 Y64.12 E23.41575
G1 X86.115 Y64.147 E23.44771
G1 X88.756 Y64.222 E23.57952
G1 X91.251 Y64.222 E23.70399
G1 X93.83 Y64.149 E23.83271
G1 X94.425 Y64.121 E23.86243
G1 X95.018 Y64.104 E23.89203
G1 X95.33 Y64.1 E23.90759
G1 X124.445 Y64.101 E25.36015
G1 X125.163 Y64.111 E25.39597
G1 X125.475 Y64.12 E25.41154
G1 X126.115 Y64.147 E25.4435
G1 X128.756 Y64.222 E25.57532
G1 X131.251 Y64.222 E25.69979
G1 X133.828 Y64.149 E25.82841
G1 X134.425 Y64.121 E25.85823
G1 X135.018 Y64.104 E25.88782
G1 X135.33 Y64.1 E25.90339
G1 X164.449 Y64.101 E27.35614
G1 X165.147 Y64.111 E27.39097
G1 X166.079 Y64.164 E27.43754
G1 X167.003 Y64.297 E27.48412
G1 X167.913 Y64.509 E27.53073
G1 X168.801 Y64.797 E27.57731
G1 X169.66 Y65.161 E27.62385
G1 X170.486 Y65.597 E27.67045
G1 X171.272 Y66.101 E27.71703
G1 X172.011 Y66.671 E27.76359
G1 X172.699 Y67.303 E27.8102
G1 X173.33 Y67.991 E27.85678
G1 X173.9 Y68.73 E27.90334
G1 X174.405 Y69.515 E27.94991
G1 X174.84 Y70.341 E27.99648
G1 X175.204 Y71.201 E28.04307
G1 X175.492 Y72.089 E28.08965
G1 X175.704 Y72.998 E28.13621
G1 X175.837 Y73.922 E28.18279
G1 X175.887 Y74.704 E28.22188
G1 X175.896 Y75.024 E28.23785
G1 X175.9 Y75.33 E28.25312
G1 X175.899 Y94.428 E29.20592
G1 X175.873 Y96.268 E29.29773
G1 X175.873 Y98.883 E29.42819
G1 X175.898 Y100.087 E29.48827
G1 X175.9 Y100.313 E29.49955
G1 X175.899 Y119.428 E30.4532
G1 X175.873 Y121.268 E30.54501
G1 X175.873 Y123.883 E30.67547
G1 X175.898 Y125.087 E30.73555
G1 X175.9 Y125.313 E30.74683
G1 X175.899 Y144.399 E31.69903
G1 X175.89 Y145.126 E31.73531
G1 X175.839 Y146.058 E31.78187
G1 X175.708 Y146.982 E31.82843
G1 X175.498 Y147.892 E31.87503
G1 X175.211 Y148.781 E31.92163
G1 X174.849 Y149.641 E31.96818
G1 X174.415 Y150.468 E32.01478
G1 X173.912 Y151.254 E32.06133
G1 X173.343 Y151.995 E32.10795
G1 X172.713 Y152.684 E32.15452
G1 X172.027 Y153.316 E32.20106
G1 X171.288 Y153.888 E32.24768
G1 X170.504 Y154.394 E32.29423
G1 X169.679 Y154.831 E32.34081
G1 X168.82 Y155.196 E32.38738
G1 X167.933 Y155.487 E32.43395
G1 X167.024 Y155.7 E32.48053
G1 X166.1 Y155.834 E32.52711
G1 X165.296 Y155.887 E32.56731
G1 X164.975 Y155.896 E32.58333
G1 X164.67 Y155.9 E32.59855
G1 X135.555 Y155.899 E34.0511
G1 X134.838 Y155.889 E34.08687
G1 X134.527 Y155.88 E34.1024
G1 X133.888 Y155.853 E34.1343
G1 X131.244 Y155.778 E34.26627
G1 X128.75 Y155.778 E34.39069
G1 X126.172 Y155.851 E34.51936
G1 X125.575 Y155.879 E34.54918
G1 X124.982 Y155.896 E34.57878
G1 X124.67 Y155.9 E34.59434
G1 X95.555 Y155.899 E36.0469
G1 X94.838 Y155.889 E36.08267
G1 X94.527 Y155.88 E36.09819
G1 X93.888 Y155.853 E36.1301
G1 X91.244 Y155.778 E36.26206
G1 X88.75 Y155.778 E36.38649
G1 X86.172 Y155.851 E36.51516
G1 X85.575 Y155.879 E36.54498
G1 X84.982 Y155.896 E36.57457
G1 X84.67 Y155.9 E36.59014
G1 X55.566 Y155.899 E38.04214
G1 X54.868 Y155.89 E38.07697
G1 X53.936 Y155.838 E38.12354
G1 X53.012 Y155.707 E38.1701
G1 X52.102 Y155.496 E38.2167
G1 X51.214 Y155.209 E38.26326
G1 X50.354 Y154.847 E38.30982
G1 X49.527 Y154.412 E38.35643
G1 X48.741 Y153.909 E38.40299
G1 X48.001 Y153.34 E38.44956
G1 X47.312 Y152.709 E38.49617
G1 X46.68 Y152.022 E38.54274
G1 X46.109 Y151.284 E38.5893
G1 X45.603 Y150.499 E38.63589
G1 X45.166 Y149.674 E38.68247
G1 X44.802 Y148.815 E38.72901
G1 X44.512 Y147.927 E38.77562
G1 X44.299 Y147.018 E38.8222
G1 X44.165 Y146.094 E38.86878
G1 X44.113 Y145.285 E38.90922
G1 X44.104 Y144.952 E38.92584
G1 X44.1 Y144.658 E38.94051
G1 X44.101 Y125.561 E39.89326
G1 X44.127 Y123.73 E39.98462
G1 X44.127 Y121.117 E40.11499
G1 X44.102 Y119.913 E40.17507
G1 X44.1 Y119.687 E40.18634
G1 X44.101 Y100.561 E41.14054
G1 X44.127 Y98.73 E41.2319
G1 X44.127 Y96.117 E41.36226
G1 X44.102 Y94.913 E41.42234
G1 X44.1 Y94.687 E41.43362
G1 X44.101 Y75.526 E42.38957
G1 X44.11 Y74.861 E42.42275
G1 X44.163 Y73.929 E42.46932
G1 X44.295 Y73.005 E42.51589
G1 X44.506 Y72.096 E42.56244
G1 X44.793 Y71.208 E42.609
G1 X45.156 Y70.347 E42.65562
G1 X45.591 Y69.521 E42.70219
G1 X46.095 Y68.736 E42.74873
G1 X46.665 Y67.996 E42.79533
G1 X47.296 Y67.307 E42.84195
G1 X47.983 Y66.676 E42.88848
G1 X48.722 Y66.105 E42.93508
G0 F6000 X48.565 Y66.973
G1 F900 X49.298 Y66.437 E42.98038
G1 X50.074 Y65.968 E43.02562
G1 X50.889 Y65.569 E43.07089
G1 X51.736 Y65.243 E43.11617
G1 X52.609 Y64.993 E43.16147
G1 X53.5 Y64.82 E43.20675
G1 X54.72 Y64.713 E43.26785
G1 X55.041 Y64.704 E43.28387
G1 X55.33 Y64.7 E43.29829
G1 X84.293 Y64.7 E44.74326
G1 X85.154 Y64.711 E44.78622
G1 X85.449 Y64.719 E44.80095
G1 X86.141 Y64.748 E44.8355
G1 X88.739 Y64.822 E44.96517
G1 X91.268 Y64.822 E45.09134
G1 X93.832 Y64.749 E45.21931
G1 X94.215 Y64.73 E45.23844
G1 X94.442 Y64.721 E45.24978
G1 X95.035 Y64.704 E45.27937
G1 X95.33 Y64.7 E45.29409
G1 X124.436 Y64.701 E46.7462
G1 X125.154 Y64.711 E46.78202
G1 X125.449 Y64.719 E46.79674
G1 X126.141 Y64.748 E46.8313
G1 X128.739 Y64.822 E46.96096
G1 X131.268 Y64.822 E47.08714
G1 X133.83 Y64.75 E47.21501
G1 X134.214 Y64.73 E47.23419
G1 X134.442 Y64.721 E47.24557
G1 X135.035 Y64.704 E47.27517
G1 X135.33 Y64.7 E47.28989
G1 X164.441 Y64.701 E48.74224
G1 X165.139 Y64.711 E48.77707
G1 X166.045 Y64.764 E48.82235
G1 X166.942 Y64.897 E48.86759
G1 X167.825 Y65.108 E48.91288
G1 X168.686 Y65.395 E48.95816
G1 X169.518 Y65.758 E49.00345
G1 X170.314 Y66.192 E49.04868
G1 X171.07 Y66.695 E49.09398
G1 X171.778 Y67.263 E49.13927
G1 X172.434 Y67.89 E49.18454
G1 X173.032 Y68.573 E49.22983
G1 X173.567 Y69.306 E49.2751
G1 X174.036 Y70.083 E49.32038
G1 X174.435 Y70.898 E49.36566
G1 X174.76 Y71.745 E49.41092
G1 X175.009 Y72.618 E49.45621
G1 X175.181 Y73.509 E49.50148
G1 X175.287 Y74.72 E49.56213
G1 X175.296 Y75.04 E49.5781
G1 X175.3 Y75.33 E49.59257
G1 X175.299 Y94.42 E50.54497
G1 X175.273 Y96.26 E50.63678
G1 X175.273 Y98.895 E50.76824
G1 X175.298 Y100.099 E50.82832
G1 X175.3 Y100.313 E50.839
G1 X175.299 Y119.42 E51.79225
G1 X175.273 Y121.26 E51.88406
G1 X175.273 Y123.895 E52.01552
G1 X175.298 Y125.099 E52.0756
G1 X175.3 Y125.313 E52.08628
G1 X175.299 Y144.392 E53.03813
G1 X175.29 Y145.119 E53.0744
G1 X175.239 Y146.025 E53.11968
G1 X175.108 Y146.923 E53.16495
G1 X174.899 Y147.806 E53.21022
G1 X174.613 Y148.667 E53.25549
G1 X174.252 Y149.5 E53.30078
G1 X173.819 Y150.297 E53.34603
G1 X173.318 Y151.054 E53.39132
G1 X172.752 Y151.763 E53.43658
G1 X172.125 Y152.42 E53.48189
G1 X171.444 Y153.019 E53.52714
G1 X170.712 Y153.556 E53.57243
G1 X169.936 Y154.026 E53.61769
G1 X169.121 Y154.427 E53.66301
G1 X168.275 Y154.753 E53.70824
G1 X167.403 Y155.005 E53.75353
G1 X166.512 Y155.178 E53.79881
G1 X165.28 Y155.287 E53.86051
G1 X164.959 Y155.296 E53.87653
G1 X164.67 Y155.3 E53.89095
G1 X135.563 Y155.299 E55.34311
G1 X134.846 Y155.289 E55.37888
G1 X134.552 Y155.281 E55.39356
G1 X133.859 Y155.252 E55.42816
G1 X131.261 Y155.178 E55.55783
G1 X128.733 Y155.178 E55.68395
G1 X126.17 Y155.25 E55.81187
G1 X125.786 Y155.27 E55.83105
G1 X125.558 Y155.279 E55.84244
G1 X124.965 Y155.296 E55.87203
G1 X124.67 Y155.3 E55.88675
G1 X95.563 Y155.299 E57.33891
G1 X94.846 Y155.289 E57.37468
G1 X94.552 Y155.281 E57.38935
G1 X93.859 Y155.252 E57.42396
G1 X91.261 Y155.178 E57.55363
G1 X88.733 Y155.178 E57.67975
G1 X86.17 Y155.25 E57.80767
G1 X85.786 Y155.27 E57.82685
G1 X85.558 Y155.279 E57.83823
G1 X84.965 Y155.296 E57.86783
G1 X84.67 Y155.3 E57.88255
G1 X55.574 Y155.299 E59.33416
G1 X54.876 Y155.29 E59.36898
G1 X53.97 Y155.238 E59.41426
G1 X53.072 Y155.107 E59.45953
G1 X52.189 Y154.898 E59.5048
G1 X51.328 Y154.611 E59.55008
G1 X50.496 Y154.249 E59.59535
G1 X49.698 Y153.816 E59.64065
G1 X48.942 Y153.315 E59.68589
G1 X48.233 Y152.748 E59.73118
G1 X47.576 Y152.122 E59.77646
G1 X46.978 Y151.44 E59.82171
G1 X46.441 Y150.708 E59.867
G1 X45.971 Y149.931 E59.91231
G1 X45.571 Y149.117 E59.95756
G1 X45.245 Y148.27 E60.00284
G1 X44.994 Y147.398 E60.04811
G1 X44.821 Y146.507 E60.09339
G1 X44.713 Y145.269 E60.15539
G1 X44.704 Y144.936 E60.17201
G1 X44.7 Y144.658 E60.18588
G1 X44.701 Y125.57 E61.13818
G1 X44.727 Y123.739 E61.22954
G1 X44.727 Y121.105 E61.36095
G1 X44.702 Y119.901 E61.42103
G1 X44.7 Y119.687 E61.43171
G1 X44.701 Y100.57 E62.38546
G1 X44.727 Y98.739 E62.47682
G1 X44.727 Y96.105 E62.60823
G1 X44.702 Y94.901 E62.66831
G1 X44.7 Y94.687 E62.67899
G1 X44.701 Y75.535 E63.63449
G1 X44.71 Y74.87 E63.66767
G1 X44.762 Y73.964 E63.71294
G1 X44.894 Y73.066 E63.75822
G1 X45.104 Y72.183 E63.8035
G1 X45.392 Y71.322 E63.8488
G1 X45.753 Y70.49 E63.89405
G1 X46.187 Y69.693 E63.93932
G1 X46.689 Y68.937 E63.9846
G1 X47.256 Y68.228 E64.02989
G1 X47.883 Y67.572 E64.07516
G1 X48.565 Y66.973 E64.12045
G1 F1500 E57.62045
;MESH:Z offset calibration.stl
G0 F6000 X54.347 Y95.653
G0 X85.653 Y99.347
G0 X85.651 Y108.13
G0 X108.6 Y133.599
G0 X106.475 Y132.402
G0 X105.075 Y133.7
G0 X104.812 Y136.39
;TYPE:WALL-INNER
G1 F1500 E64.12045
G1 F900 X104.654 Y136.151 E64.13474
G1 X104.812 Y136.151
G1 X106.251 Y136.151 E64.20653
G1 X106.27 Y136.276 E64.21284
G1 X106.379 Y136.717 E64.23551
G1 X106.623 Y137.327 E64.26828
G1 X106.932 Y137.801 E64.29651
G1 X107.312 Y138.198 E64.32393
G1 X107.775 Y138.506 E64.35167
G1 X108.275 Y138.71 E64.37861
G1 X108.848 Y138.817 E64.4077
G1 X109.464 Y138.817 E64.43843
G1 X109.994 Y138.714 E64.46536
G1 X110.337 Y138.591 E64.48354
G1 X110.794 Y138.336 E64.50965
G1 X111.204 Y137.981 E64.53671
G1 X111.527 Y137.566 E64.56295
G1 X111.555 Y137.53 E64.56522
G1 X111.657 Y137.324 E64.57669
G1 X111.798 Y137.043 E64.59237
G1 X111.818 Y137.004 E64.59456
G1 X111.839 Y137.063
G1 X111.969 Y137.314 E64.59933
G1 X112.085 Y137.537 E64.60766
G1 X112.111 Y137.574 E64.60992
G1 X112.285 Y137.82 E64.62495
G1 X112.653 Y138.201 E64.65138
G1 X113.113 Y138.506 E64.67891
G1 X113.169 Y138.528 E64.68192
G1 X113.612 Y138.708 E64.70577
G1 X114.184 Y138.817 E64.73482
G1 X114.8 Y138.817 E64.76555
G1 X115.333 Y138.714 E64.79264
G1 X115.674 Y138.591 E64.81072
G1 X116.131 Y138.336 E64.83683
G1 X116.33 Y138.421 E64.84763
G1 X116.636 Y138.553 E64.86425
G1 X116.655 Y138.562 E64.8653
G1 X116.822 Y138.622 E64.87416
G1 X117.184 Y138.726 E64.89295
G1 X117.576 Y138.793 E64.91279
G1 X117.958 Y138.818 E64.93189
G1 X118.069 Y138.819 E64.93743
G1 X118.462 Y138.803 E64.95705
G1 X119.039 Y138.692 E64.98636
G1 X119.374 Y138.576 E65.00405
G1 X119.788 Y138.359 E65.02737
G1 X120.066 Y138.151 E65.04469
G1 X120.407 Y137.809 E65.06879
G1 X120.686 Y137.373 E65.09461
G1 X120.864 Y136.898 E65.11992
G1 X120.943 Y136.404 E65.14488
G1 X120.938 Y135.888 E65.17062
G1 X120.841 Y135.39 E65.19593
G1 X120.781 Y135.246 E65.20372
