;FLAVOR:Marlin
;TIME:855
;Filament used: 0.508261m
;Layer height: 0.2
;MINX:43.5
;MINY:58.5
;MINZ:0.2
;MAXX:176.5
;MAXY:161.5
;MAXZ:0.2
;Generated with Cura_SteamEngine 4.10.0
M82 ;absolute extrusion mode
; Ender 3 Custom Start G-code
M104 S250
M140 S80
M105
G28 ; Home all axes
G1 Z10.0; Move Z Axis up to prevent from heating up too close to the bed
M204 P500 R1000 T500 ; sets acceleration (P, T) and retract acceleration (R), mm/sec^2
M205 X8.00 Y8.00 Z0.40 E5.00 ; sets the jerk limits, mm/sec
M109 S250
M190 S80

G92 E0 ; Reset Extruder
G1 Z2.0 F3000 ; Move Z Axis up little to prevent scratching of Heat Bed
G1 X0.1 Y20 Z0.3 F5000.0 ; Move to start position
G1 X0.1 Y200.0 Z0.3 F1500.0 E15 ; Draw the first line
G1 X0.4 Y200.0 Z0.3 F5000.0 ; Move to side a little
G1 X0.4 Y20 Z0.3 F1500.0 E30 ; Draw the second line
G92 E0 ; Reset Extruder
G1 Z2.0 F3000 ; Move Z Axis up little to prevent scratching of Heat Bed
G1 X5 Y20 Z0.3 F5000.0 ; Move over to prevent blob squish
G92 E0
G92 E0
G1 F1500 E-6.5
;LAYER_COUNT:1
;LAYER:0
M107
G0 F6000 X48.144 Y60.783 Z0.2
;TYPE:SKIRT
G1 F1500 E0
G1 F900 X48.936 Y60.243 E0.04782
G1 X49.771 Y59.771 E0.09568
G1 X50.642 Y59.37 E0.14352
G1 X51.544 Y59.044 E0.19137
G1 X52.469 Y58.793 E0.23918
G1 X53.413 Y58.62 E0.28706
G1 X54.687 Y58.514 E0.35084
G1 X55.008 Y58.505 E0.36686
G1 X55.33 Y58.5 E0.38293
G1 X84.293 Y58.5 E1.8279
G1 X85.171 Y58.511 E1.87171
G1 X85.501 Y58.52 E1.88818
G1 X86.229 Y58.551 E1.92453
G1 X88.737 Y58.622 E2.0497
G1 X91.27 Y58.622 E2.17608
G1 X93.784 Y58.551 E2.30155
G1 X94.155 Y58.532 E2.32008
G1 X94.407 Y58.522 E2.33267
G1 X95 Y58.505 E2.36226
G1 X95.33 Y58.5 E2.37873
G1 X124.453 Y58.501 E3.83168
G1 X125.171 Y58.511 E3.86751
G1 X125.501 Y58.52 E3.88398
G1 X126.229 Y58.551 E3.92033
G1 X128.737 Y58.622 E4.0455
G1 X131.27 Y58.622 E4.17188
G1 X133.78 Y58.551 E4.29715
G1 X134.153 Y58.532 E4.31578
G1 X134.407 Y58.522 E4.32847
G1 X135 Y58.505 E4.35806
G1 X135.33 Y58.5 E4.37453
G1 X164.458 Y58.501 E5.82773
G1 X165.156 Y58.511 E5.86256
G1 X166.113 Y58.565 E5.91038
G1 X167.063 Y58.698 E5.95824
G1 X167.998 Y58.91 E6.00607
G1 X168.912 Y59.199 E6.05389
G1 X169.799 Y59.564 E6.10174
G1 X170.653 Y60 E6.14958
G1 X171.467 Y60.507 E6.19743
G1 X172.237 Y61.08 E6.24531
G1 X172.955 Y61.714 E6.2931
G1 X173.619 Y62.407 E6.34098
G1 X174.222 Y63.152 E6.3888
G1 X174.762 Y63.945 E6.43666
G1 X175.233 Y64.78 E6.48449
G1 X175.633 Y65.652 E6.53236
G1 X175.959 Y66.553 E6.58016
G1 X176.209 Y67.479 E6.62801
G1 X176.381 Y68.423 E6.67588
G1 X176.486 Y69.687 E6.73916
G1 X176.495 Y70.007 E6.75513
G1 X176.5 Y70.33 E6.77125
G1 X176.499 Y99.445 E8.2238
G1 X176.488 Y100.184 E8.26067
G1 X176.447 Y100.994 E8.30114
G1 X176.215 Y103.703 E8.43678
G1 X176.073 Y106.228 E8.56296
G1 X176.003 Y108.696 E8.68613
G1 X176.003 Y111.229 E8.81251
G1 X176.073 Y113.686 E8.93514
G1 X176.216 Y116.225 E9.06201
G1 X176.336 Y117.634 E9.13256
G1 X176.343 Y117.791 E9.1404
G1 X176.448 Y119.013 E9.20159
G1 X176.485 Y119.652 E9.23352
G1 X176.495 Y119.982 E9.24999
G1 X176.5 Y120.33 E9.26736
G1 X176.499 Y149.422 E10.71876
G1 X176.489 Y150.149 E10.75504
G1 X176.436 Y151.107 E10.8029
G1 X176.303 Y152.056 E10.85071
G1 X176.092 Y152.992 E10.89858
G1 X175.803 Y153.906 E10.94641
G1 X175.439 Y154.794 E10.99429
G1 X175.003 Y155.647 E11.04208
G1 X174.497 Y156.462 E11.08994
G1 X173.924 Y157.231 E11.13779
G1 X173.29 Y157.951 E11.18565
G1 X172.598 Y158.615 E11.23349
G1 X171.853 Y159.218 E11.28131
G1 X171.061 Y159.758 E11.32914
G1 X170.226 Y160.23 E11.37699
G1 X169.354 Y160.631 E11.42487
G1 X168.453 Y160.957 E11.47268
G1 X167.527 Y161.208 E11.52054
G1 X166.584 Y161.38 E11.56836
G1 X165.313 Y161.486 E11.63199
G1 X164.993 Y161.495 E11.64797
G1 X164.67 Y161.5 E11.66408
G1 X135.547 Y161.499 E13.11703
G1 X134.83 Y161.489 E13.15281
G1 X134.501 Y161.48 E13.16923
G1 X133.774 Y161.449 E13.20553
G1 X131.263 Y161.378 E13.33086
G1 X128.731 Y161.378 E13.45718
G1 X126.22 Y161.449 E13.5825
G1 X125.847 Y161.468 E13.60114
G1 X125.593 Y161.478 E13.61382
G1 X125 Y161.495 E13.64341
G1 X124.67 Y161.5 E13.65988
G1 X95.547 Y161.499 E15.11283
G1 X94.83 Y161.489 E15.14861
G1 X94.501 Y161.48 E15.16503
G1 X93.774 Y161.449 E15.20133
G1 X91.263 Y161.378 E15.32666
G1 X88.731 Y161.378 E15.45298
G1 X86.22 Y161.449 E15.5783
G1 X85.847 Y161.468 E15.59693
G1 X85.593 Y161.478 E15.60962
G1 X85 Y161.495 E15.63921
G1 X84.67 Y161.5 E15.65568
G1 X55.559 Y161.499 E17.10803
G1 X54.861 Y161.49 E17.14286
G1 X53.903 Y161.438 E17.19072
G1 X52.953 Y161.306 E17.23858
G1 X52.018 Y161.095 E17.2864
G1 X51.103 Y160.807 E17.33425
G1 X50.215 Y160.444 E17.38211
G1 X49.361 Y160.009 E17.42993
G1 X48.546 Y159.503 E17.47779
G1 X47.776 Y158.932 E17.52561
G1 X47.056 Y158.298 E17.57348
G1 X46.392 Y157.607 E17.62129
G1 X45.787 Y156.862 E17.66917
G1 X45.247 Y156.07 E17.71699
G1 X44.775 Y155.236 E17.7648
G1 X44.373 Y154.365 E17.81266
G1 X44.046 Y153.463 E17.86053
G1 X43.795 Y152.538 E17.90834
G1 X43.621 Y151.595 E17.95619
G1 X43.513 Y150.302 E18.02092
G1 X43.504 Y149.969 E18.03754
G1 X43.5 Y149.658 E18.05305
G1 X43.501 Y120.531 E19.50621
G1 X43.512 Y119.811 E19.54213
G1 X43.553 Y119.006 E19.58235
G1 X43.785 Y116.297 E19.71799
G1 X43.927 Y113.772 E19.84416
G1 X43.997 Y111.304 E19.96734
G1 X43.997 Y108.771 E20.09371
G1 X43.927 Y106.314 E20.21634
G1 X43.784 Y103.774 E20.34327
G1 X43.664 Y102.366 E20.41377
G1 X43.657 Y102.209 E20.42161
G1 X43.551 Y100.976 E20.48335
G1 X43.514 Y100.313 E20.51648
G1 X43.505 Y99.994 E20.5324
G1 X43.5 Y99.67 E20.54857
G1 X43.501 Y70.518 E22.00296
G1 X43.51 Y69.853 E22.03614
G1 X43.563 Y68.896 E22.08396
G1 X43.696 Y67.946 E22.13182
G1 X43.907 Y67.011 E22.17964
G1 X44.195 Y66.096 E22.2275
G1 X44.559 Y65.209 E22.27533
G1 X44.995 Y64.355 E22.32317
G1 X45.501 Y63.54 E22.37103
G1 X46.073 Y62.77 E22.41888
G1 X46.707 Y62.051 E22.46671
G1 X47.399 Y61.387 E22.51456
G1 X48.144 Y60.783 E22.56241
G0 F6000 X48.722 Y61.105
G1 F900 X49.507 Y60.6 E22.60897
G1 X50.332 Y60.163 E22.65555
G1 X51.192 Y59.799 E22.70214
G1 X52.08 Y59.51 E22.74873
G1 X52.989 Y59.298 E22.7953
G1 X53.913 Y59.164 E22.84188
G1 X54.704 Y59.113 E22.88142
G1 X55.025 Y59.104 E22.89744
G1 X55.33 Y59.1 E22.91266
G1 X84.293 Y59.1 E24.35763
G1 X85.163 Y59.111 E24.40104
G1 X85.475 Y59.12 E24.41661
G1 X86.115 Y59.147 E24.44857
G1 X88.756 Y59.222 E24.58038
G1 X91.251 Y59.222 E24.70486
G1 X93.83 Y59.149 E24.83358
G1 X94.425 Y59.121 E24.8633
G1 X95.018 Y59.104 E24.89289
G1 X95.33 Y59.1 E24.90846
G1 X124.445 Y59.101 E26.36101
G1 X125.163 Y59.111 E26.39684
G1 X125.475 Y59.12 E26.41241
G1 X126.115 Y59.147 E26.44437
G1 X128.756 Y59.222 E26.57618
G1 X131.251 Y59.222 E26.70066
G1 X133.828 Y59.149 E26.82928
G1 X134.425 Y59.121 E26.85909
G1 X135.018 Y59.104 E26.88869
G1 X135.33 Y59.1 E26.90426
G1 X164.449 Y59.101 E28.35701
G1 X165.147 Y59.111 E28.39184
G1 X166.079 Y59.164 E28.43841
G1 X167.003 Y59.297 E28.48498
G1 X167.913 Y59.509 E28.5316
G1 X168.801 Y59.797 E28.57817
G1 X169.66 Y60.161 E28.62472
G1 X170.486 Y60.597 E28.67132
G1 X171.272 Y61.101 E28.7179
G1 X172.011 Y61.671 E28.76446
G1 X172.699 Y62.303 E28.81107
G1 X173.33 Y62.991 E28.85764
G1 X173.9 Y63.73 E28.90421
G1 X174.405 Y64.515 E28.95077
G1 X174.84 Y65.341 E28.99735
G1 X175.204 Y66.201 E29.04394
G1 X175.492 Y67.089 E29.09051
G1 X175.704 Y67.998 E29.13708
G1 X175.837 Y68.922 E29.18365
G1 X175.887 Y69.704 E29.22275
G1 X175.896 Y70.024 E29.23872
G1 X175.9 Y70.33 E29.25399
G1 X175.899 Y99.436 E30.70609
G1 X175.888 Y100.175 E30.74296
G1 X175.849 Y100.943 E30.78133
G1 X175.617 Y103.651 E30.91693
G1 X175.475 Y106.179 E31.04325
G1 X175.403 Y108.715 E31.16982
G1 X175.403 Y111.21 E31.2943
G1 X175.474 Y113.737 E31.42042
G1 X175.618 Y116.274 E31.54719
G1 X175.738 Y117.685 E31.61784
G1 X175.744 Y117.838 E31.62548
G1 X175.85 Y119.064 E31.68687
G1 X175.885 Y119.67 E31.71716
G1 X175.895 Y120 E31.73363
G1 X175.9 Y120.33 E31.7501
G1 X175.899 Y149.414 E33.2011
G1 X175.889 Y150.141 E33.23738
G1 X175.836 Y151.073 E33.28395
G1 X175.704 Y151.997 E33.33052
G1 X175.493 Y152.907 E33.37712
G1 X175.205 Y153.795 E33.42369
G1 X174.842 Y154.655 E33.47027
G1 X174.407 Y155.481 E33.51684
G1 X173.902 Y156.266 E33.56341
G1 X173.333 Y157.006 E33.60998
G1 X172.702 Y157.694 E33.65655
G1 X172.014 Y158.326 E33.70316
G1 X171.275 Y158.896 E33.74972
G1 X170.49 Y159.402 E33.79632
G1 X169.665 Y159.838 E33.84287
G1 X168.805 Y160.202 E33.88946
G1 X167.917 Y160.491 E33.93605
G1 X167.008 Y160.703 E33.98262
G1 X166.084 Y160.836 E34.02919
G1 X165.296 Y160.887 E34.06859
G1 X164.976 Y160.896 E34.08456
G1 X164.67 Y160.9 E34.09983
G1 X135.555 Y160.899 E35.55238
G1 X134.838 Y160.889 E35.58816
G1 X134.527 Y160.88 E35.60368
G1 X133.888 Y160.853 E35.63559
G1 X131.244 Y160.778 E35.76755
G1 X128.75 Y160.778 E35.89198
G1 X126.172 Y160.851 E36.02064
G1 X125.575 Y160.879 E36.05046
G1 X124.982 Y160.896 E36.08006
G1 X124.67 Y160.9 E36.09563
G1 X95.555 Y160.899 E37.54818
G1 X94.838 Y160.889 E37.58395
G1 X94.527 Y160.88 E37.59948
G1 X93.888 Y160.853 E37.63138
G1 X91.244 Y160.778 E37.76335
G1 X88.75 Y160.778 E37.88777
G1 X86.172 Y160.851 E38.01644
G1 X85.575 Y160.879 E38.04626
G1 X84.982 Y160.896 E38.07586
G1 X84.67 Y160.9 E38.09142
G1 X55.566 Y160.899 E39.54343
G1 X54.868 Y160.89 E39.57825
G1 X53.936 Y160.838 E39.62482
G1 X53.012 Y160.707 E39.67138
G1 X52.102 Y160.496 E39.71799
G1 X51.214 Y160.209 E39.76455
G1 X50.354 Y159.847 E39.8111
G1 X49.527 Y159.412 E39.85772
G1 X48.741 Y158.909 E39.90427
G1 X48.001 Y158.34 E39.95084
G1 X47.312 Y157.709 E39.99746
G1 X46.68 Y157.022 E40.04403
G1 X46.109 Y156.284 E40.09058
G1 X45.603 Y155.499 E40.13717
G1 X45.166 Y154.674 E40.18375
G1 X44.802 Y153.815 E40.2303
G1 X44.512 Y152.927 E40.2769
G1 X44.299 Y152.018 E40.32348
G1 X44.165 Y151.094 E40.37006
G1 X44.113 Y150.285 E40.41051
G1 X44.104 Y149.952 E40.42712
G1 X44.1 Y149.658 E40.44179
G1 X44.101 Y120.54 E41.8945
G1 X44.112 Y119.82 E41.93042
G1 X44.151 Y119.057 E41.96854
G1 X44.383 Y116.349 E42.10414
G1 X44.525 Y113.821 E42.23046
G1 X44.597 Y111.285 E42.35703
G1 X44.597 Y108.79 E42.48151
G1 X44.526 Y106.263 E42.60763
G1 X44.382 Y103.728 E42.7343
G1 X44.262 Y102.316 E42.805
G1 X44.256 Y102.161 E42.81274
G1 X44.149 Y100.925 E42.87464
G1 X44.113 Y100.296 E42.90607
G1 X44.104 Y99.977 E42.92199
G1 X44.1 Y99.67 E42.93731
G1 X44.101 Y70.526 E44.39131
G1 X44.11 Y69.861 E44.42449
G1 X44.163 Y68.929 E44.47106
G1 X44.295 Y68.005 E44.51763
G1 X44.506 Y67.096 E44.56418
G1 X44.793 Y66.208 E44.61074
G1 X45.156 Y65.347 E44.65736
G1 X45.591 Y64.521 E44.70393
G1 X46.095 Y63.736 E44.75047
G1 X46.665 Y62.996 E44.79707
G1 X47.296 Y62.307 E44.84369
G1 X47.983 Y61.676 E44.89022
G1 X48.722 Y61.105 E44.93682
G0 F6000 X48.565 Y61.973
G1 F900 X49.298 Y61.437 E44.98212
G1 X50.074 Y60.968 E45.02736
G1 X50.889 Y60.569 E45.07263
G1 X51.736 Y60.243 E45.11791
G1 X52.609 Y59.993 E45.16321
G1 X53.5 Y59.82 E45.20849
G1 X54.72 Y59.713 E45.26959
G1 X55.041 Y59.704 E45.28562
G1 X55.33 Y59.7 E45.30003
G1 X84.293 Y59.7 E46.745
G1 X85.154 Y59.711 E46.78796
G1 X85.449 Y59.719 E46.80269
G1 X86.141 Y59.748 E46.83724
G1 X88.739 Y59.822 E46.96691
G1 X91.268 Y59.822 E47.09308
G1 X93.832 Y59.749 E47.22105
G1 X94.215 Y59.73 E47.24018
G1 X94.442 Y59.721 E47.25152
G1 X95.035 Y59.704 E47.28111
G1 X95.33 Y59.7 E47.29583
G1 X124.436 Y59.701 E48.74794
G1 X125.154 Y59.711 E48.78376
G1 X125.449 Y59.719 E48.79848
G1 X126.141 Y59.748 E48.83304
G1 X128.739 Y59.822 E48.96271
G1 X131.268 Y59.822 E49.08888
G1 X133.83 Y59.75 E49.21675
G1 X134.214 Y59.73 E49.23593
G1 X134.442 Y59.721 E49.24732
G1 X135.035 Y59.704 E49.27691
G1 X135.33 Y59.7 E49.29163
G1 X164.441 Y59.701 E50.74398
G1 X165.139 Y59.711 E50.77881
G1 X166.045 Y59.764 E50.82409
G1 X166.942 Y59.897 E50.86933
G1 X167.825 Y60.108 E50.91462
G1 X168.686 Y60.395 E50.9599
G1 X169.518 Y60.758 E51.00519
G1 X170.314 Y61.192 E51.05042
G1 X171.07 Y61.695 E51.09572
G1 X171.778 Y62.263 E51.14101
G1 X172.434 Y62.89 E51.18628
G1 X173.032 Y63.573 E51.23157
G1 X173.567 Y64.306 E51.27685
G1 X174.036 Y65.083 E51.32212
G1 X174.435 Y65.898 E51.3674
G1 X174.76 Y66.745 E51.41266
G1 X175.009 Y67.618 E51.45795
G1 X175.181 Y68.509 E51.50322
G1 X175.287 Y69.72 E51.56387
G1 X175.296 Y70.04 E51.57984
G1 X175.3 Y70.33 E51.59431
G1 X175.299 Y99.427 E53.04597
G1 X175.288 Y100.166 E53.08284
G1 X175.251 Y100.892 E53.11911
G1 X175.019 Y103.602 E53.2548
G1 X174.875 Y106.163 E53.38277
G1 X174.803 Y108.698 E53.5093
G1 X174.803 Y111.227 E53.63547
G1 X174.875 Y113.788 E53.76329
G1 X175.017 Y116.289 E53.88826
G1 X175.14 Y117.736 E53.96072
G1 X175.146 Y117.888 E53.9683
G1 X175.252 Y119.116 E54.0298
G1 X175.285 Y119.688 E54.05838
G1 X175.295 Y120.018 E54.07485
G1 X175.3 Y120.33 E54.09042
G1 X175.299 Y149.406 E55.54103
G1 X175.289 Y150.133 E55.5773
G1 X175.237 Y151.039 E55.62258
G1 X175.105 Y151.937 E55.66786
G1 X174.894 Y152.819 E55.71311
G1 X174.607 Y153.68 E55.75838
G1 X174.245 Y154.512 E55.80365
G1 X173.811 Y155.309 E55.84893
G1 X173.308 Y156.065 E55.89423
G1 X172.741 Y156.774 E55.93952
G1 X172.114 Y157.43 E55.98479
G1 X171.432 Y158.028 E56.03005
G1 X170.699 Y158.564 E56.07535
G1 X169.923 Y159.033 E56.12059
G1 X169.108 Y159.432 E56.16586
G1 X168.26 Y159.758 E56.21118
G1 X167.388 Y160.008 E56.25644
G1 X166.497 Y160.18 E56.30171
G1 X165.28 Y160.287 E56.36267
G1 X164.96 Y160.296 E56.37864
G1 X164.67 Y160.3 E56.39311
G1 X135.563 Y160.299 E57.84526
G1 X134.846 Y160.289 E57.88103
G1 X134.552 Y160.281 E57.89571
G1 X133.859 Y160.252 E57.93031
G1 X131.261 Y160.178 E58.05998
G1 X128.733 Y160.178 E58.1861
G1 X126.17 Y160.25 E58.31402
G1 X125.786 Y160.27 E58.3332
G1 X125.558 Y160.279 E58.34459
G1 X124.965 Y160.296 E58.37419
G1 X124.67 Y160.3 E58.3889
G1 X95.563 Y160.299 E59.84106
G1 X94.846 Y160.289 E59.87683
G1 X94.552 Y160.281 E59.89151
G1 X93.859 Y160.252 E59.92611
G1 X91.261 Y160.178 E60.05578
G1 X88.733 Y160.178 E60.1819
G1 X86.17 Y160.25 E60.30982
G1 X85.786 Y160.27 E60.329
G1 X85.558 Y160.279 E60.34039
G1 X84.965 Y160.296 E60.36998
G1 X84.67 Y160.3 E60.3847
G1 X55.574 Y160.299 E61.83631
G1 X54.876 Y160.29 E61.87113
G1 X53.97 Y160.238 E61.91641
G1 X53.072 Y160.107 E61.96169
G1 X52.189 Y159.898 E62.00696
G1 X51.328 Y159.611 E62.05223
G1 X50.496 Y159.249 E62.0975
G1 X49.698 Y158.816 E62.1428
G1 X48.942 Y158.315 E62.18804
G1 X48.233 Y157.748 E62.23334
G1 X47.576 Y157.122 E62.27861
G1 X46.978 Y156.44 E62.32386
G1 X46.441 Y155.708 E62.36916
G1 X45.971 Y154.931 E62.41446
G1 X45.571 Y154.117 E62.45971
G1 X45.245 Y153.27 E62.50499
G1 X44.994 Y152.398 E62.55026
G1 X44.821 Y151.507 E62.59554
G1 X44.713 Y150.269 E62.65754
G1 X44.704 Y149.936 E62.67416
G1 X44.7 Y149.658 E62.68803
G1 X44.701 Y120.55 E64.14024
G1 X44.712 Y119.83 E64.17616
G1 X44.749 Y119.108 E64.21223
G1 X44.981 Y116.398 E64.34793
G1 X45.125 Y113.837 E64.4759
G1 X45.197 Y111.302 E64.60242
G1 X45.197 Y108.773 E64.72859
G1 X45.125 Y106.212 E64.85641
G1 X44.983 Y103.714 E64.98124
G1 X44.86 Y102.265 E65.05379
G1 X44.854 Y102.112 E65.06143
G1 X44.747 Y100.873 E65.12347
G1 X44.713 Y100.279 E65.15315
G1 X44.704 Y99.96 E65.16908
G1 X44.7 Y99.67 E65.18355
G1 X44.701 Y70.535 E66.6371
G1 X44.71 Y69.87 E66.67028
G1 X44.762 Y68.964 E66.71555
G1 X44.894 Y68.066 E66.76083
G1 X45.104 Y67.183 E66.80612
G1 X45.392 Y66.322 E66.85141
G1 X45.753 Y65.49 E66.89666
G1 X46.187 Y64.693 E66.94193
G1 X46.689 Y63.937 E66.98721
G1 X47.256 Y63.228 E67.0325
G1 X47.883 Y62.572 E67.07777
G1 X48.565 Y61.973 E67.12306
G1 F1500 E60.62306
;MESH:Z offset calibration.stl
G0 F6000 X54.347 Y100.653
G0 X82.724 Y100.654
G0 X111.964 Y133.765
G0 X110.353 Y131.812
G0 X110.995 Y133.113
G0 X110.643 Y133.827
G0 X110.499 Y134.989
G0 X110.577 Y135.906
G0 X110.897 Y136.756
G0 X111.324 Y137.195
G0 X111.892 Y137.424
G0 X116.607 Y137.441
G0 Z0.175  ; Set Z offset to -0.025 (0.200 + z offset)
; M117 Z -0.05  ; display message
;TYPE:WALL-INNER
G1 F1500 E67.12306
G1 F900 X116.611 Y137.503 E67.12616
G1 X116.624 Y137.664 E67.13422
G1 X116.636 Y137.806 E67.14133
G1 X120.28 Y137.806 E67.32313
G1 X120.28 Y135.604 E67.43299
G1 X120.163 Y135.604 E67.43882
G1 X120.073 Y135.604 E67.44331
G1 X120.163 Y135.508 E67.44518
G1 X120.362 Y135.182 E67.45785
G1 X120.494 Y134.816 E67.47726
G1 X120.549 Y134.422 E67.49711
